P3
400 225
255
163 200 255
163 200 255
163 200 255
163 200 255
163 200 255
163 200 255
163 200 255
163 200 255
163 200 255
163 200 255
162 200 255
162 200 255
162 200 255
162 200 255
162 199 255
162 199 255
162 199 255
162 199 255
162 199 255
162 199 255
162 199 255
161 199 255
161 199 255
161 199 255
161 199 255
161 199 255
161 199 255
161 199 255
161 199 255
161 199 255
161 199 255
161 199 255
160 198 255
160 198 255
160 198 255
160 198 255
160 198 255
160 198 255
160 198 255
160 198 255
160 198 255
160 198 255
159 198 255
159 198 255
159 198 255
159 198 255
159 198 255
159 198 255
159 198 255
159 197 255
159 197 255
159 197 255
158 197 255
158 197 255
158 197 255
158 197 255
158 197 255
158 197 255
158 197 255
158 197 255
158 197 255
157 197 255
157 197 255
157 197 255
157 196 255
157 196 255
157 196 255
157 196 255
157 196 255
157 196 255
157 196 255
156 196 255
156 196 255
156 196 255
156 196 255
156 196 255
156 196 255
156 196 255
156 196 255
156 196 255
155 195 255
155 195 255
155 195 255
155 195 255
155 195 255
155 195 255
155 195 255
155 195 255
155 195 255
154 195 255
154 195 255
154 195 255
154 195 255
154 195 255
154 195 255
154 194 255
154 194 255
154 194 255
153 194 255
153 194 255
153 194 255
153 194 255
153 194 255
153 194 255
153 194 255
153 194 255
153 194 255
152 194 255
152 194 255
152 194 255
152 193 255
152 193 255
152 193 255
152 193 255
152 193 255
152 193 255
152 193 255
151 193 255
151 193 255
151 193 255
151 193 255
151 193 255
151 193 255
151 193 255
151 193 255
151 193 255
151 193 255
150 192 255
150 192 255
150 192 255
150 192 255
150 192 255
150 192 255
150 192 255
150 192 255
150 192 255
150 192 255
149 192 255
149 192 255
149 192 255
149 192 255
149 192 255
149 192 255
149 192 255
149 192 255
149 191 255
149 191 255
149 191 255
149 191 255
148 191 255
148 191 255
148 191 255
148 191 255
148 191 255
148 191 255
148 191 255
148 191 255
148 191 255
148 191 255
148 191 255
148 191 255
148 191 255
148 191 255
147 191 255
147 191 255
147 191 255
147 191 255
147 191 255
147 191 255
147 190 255
147 190 255
147 190 255
147 190 255
147 190 255
147 190 255
147 190 255
147 190 255
147 190 255
147 190 255
147 190 255
147 190 255
147 190 255
147 190 255
147 190 255
147 190 255
147 190 255
146 190 255
146 190 255
146 190 255
146 190 255
146 190 255
146 190 255
146 190 255
146 190 255
146 190 255
146 190 255
146 190 255
146 190 255
146 190 255
146 190 255
146 190 255
146 190 255
146 190 255
146 190 255
146 190 255
146 190 255
146 190 255
146 190 255
146 190 255
146 190 255
146 190 255
146 190 255
146 190 255
146 190 255
147 190 255
147 190 255
147 190 255
147 190 255
147 190 255
147 190 255
147 190 255
147 190 255
147 190 255
147 190 255
147 190 255
147 190 255
147 190 255
147 190 255
147 190 255
147 190 255
147 190 255
147 191 255
147 191 255
147 191 255
147 191 255
147 191 255
147 191 255
148 191 255
148 191 255
148 191 255
148 191 255
148 191 255
148 191 255
148 191 255
148 191 255
148 191 255
148 191 255
148 191 255
148 191 255
148 191 255
148 191 255
149 191 255
149 191 255
149 191 255
149 191 255
149 192 255
149 192 255
149 192 255
149 192 255
149 192 255
149 192 255
149 192 255
149 192 255
150 192 255
150 192 255
150 192 255
150 192 255
150 192 255
150 192 255
150 192 255
150 192 255
150 192 255
150 192 255
151 193 255
151 193 255
151 193 255
151 193 255
151 193 255
151 193 255
151 193 255
151 193 255
151 193 255
151 193 255
152 193 255
152 193 255
152 193 255
152 193 255
152 193 255
152 193 255
152 193 255
152 194 255
152 194 255
152 194 255
153 194 255
153 194 255
153 194 255
153 194 255
153 194 255
153 194 255
153 194 255
153 194 255
153 194 255
154 194 255
154 194 255
154 194 255
154 195 255
154 195 255
154 195 255
154 195 255
154 195 255
154 195 255
155 195 255
155 195 255
155 195 255
155 195 255
155 195 255
155 195 255
155 195 255
155 195 255
155 195 255
156 196 255
156 196 255
156 196 255
156 196 255
156 196 255
156 196 255
156 196 255
156 196 255
156 196 255
157 196 255
157 196 255
157 196 255
157 196 255
157 196 255
157 196 255
157 196 255
157 197 255
157 197 255
157 197 255
158 197 255
158 197 255
158 197 255
158 197 255
158 197 255
158 197 255
158 197 255
158 197 255
158 197 255
159 197 255
159 197 255
159 197 255
159 198 255
159 198 255
159 198 255
159 198 255
159 198 255
159 198 255
159 198 255
160 198 255
160 198 255
160 198 255
160 198 255
160 198 255
160 198 255
160 198 255
160 198 255
160 198 255
160 198 255
161 199 255
161 199 255
161 199 255
161 199 255
161 199 255
161 199 255
161 199 255
161 199 255
161 199 255
161 199 255
161 199 255
162 199 255
162 199 255
162 199 255
162 199 255
162 199 255
162 199 255
162 199 255
162 200 255
162 200 255
162 200 255
163 200 255
163 200 255
163 200 255
163 200 255
163 200 255
163 200 255
163 200 255
163 200 255
163 200 255
163 200 255
163 200 255
164 200 255
163 200 255
163 200 255
163 200 255
163 200 255
163 200 255
163 200 255
163 200 255
163 200 255
163 200 255
163 200 255
163 200 255
163 200 255
162 200 255
162 200 255
162 200 255
162 199 255
162 199 255
162 199 255
162 199 255
162 199 255
162 199 255
162 199 255
162 199 255
161 199 255
161 199 255
161 199 255
161 199 255
161 199 255
161 199 255
161 199 255
161 199 255
161 199 255
161 199 255
160 198 255
160 198 255
160 198 255
160 198 255
160 198 255
160 198 255
160 198 255
160 198 255
160 198 255
160 198 255
159 198 255
159 198 255
159 198 255
159 198 255
159 198 255
159 198 255
159 198 255
159 197 255
159 197 255
159 197 255
158 197 255
158 197 255
158 197 255
158 197 255
158 197 255
158 197 255
158 197 255
158 197 255
158 197 255
157 197 255
157 197 255
157 197 255
157 197 255
157 196 255
157 196 255
157 196 255
157 196 255
157 196 255
157 196 255
156 196 255
156 196 255
156 196 255
156 196 255
156 196 255
156 196 255
156 196 255
156 196 255
156 196 255
155 195 255
155 195 255
155 195 255
155 195 255
155 195 255
155 195 255
155 195 255
155 195 255
155 195 255
154 195 255
154 195 255
154 195 255
154 195 255
154 195 255
154 195 255
154 194 255
154 194 255
154 194 255
153 194 255
153 194 255
153 194 255
153 194 255
153 194 255
153 194 255
153 194 255
153 194 255
153 194 255
152 194 255
152 194 255
152 194 255
152 194 255
152 193 255
152 193 255
152 193 255
152 193 255
152 193 255
152 193 255
151 193 255
151 193 255
151 193 255
151 193 255
151 193 255
151 193 255
151 193 255
151 193 255
151 193 255
151 193 255
150 192 255
150 192 255
150 192 255
150 192 255
150 192 255
150 192 255
150 192 255
150 192 255
150 192 255
150 192 255
150 192 255
149 192 255
149 192 255
149 192 255
149 192 255
149 192 255
149 192 255
149 192 255
149 192 255
149 191 255
149 191 255
149 191 255
149 191 255
148 191 255
148 191 255
148 191 255
148 191 255
148 191 255
148 191 255
148 191 255
148 191 255
148 191 255
148 191 255
148 191 255
148 191 255
148 191 255
148 191 255
148 191 255
147 191 255
147 191 255
147 191 255
147 191 255
147 191 255
147 191 255
147 191 255
147 190 255
147 190 255
147 190 255
147 190 255
147 190 255
147 190 255
147 190 255
147 190 255
147 190 255
147 190 255
147 190 255
147 190 255
147 190 255
147 190 255
147 190 255
147 190 255
147 190 255
147 190 255
147 190 255
147 190 255
147 190 255
147 190 255
147 190 255
147 190 255
147 190 255
147 190 255
147 190 255
147 190 255
147 190 255
147 190 255
147 190 255
147 190 255
147 190 255
147 190 255
147 190 255
147 190 255
147 190 255
147 190 255
147 190 255
147 190 255
147 190 255
147 190 255
147 190 255
147 190 255
147 190 255
147 190 255
147 190 255
147 190 255
147 190 255
147 190 255
147 190 255
147 190 255
147 190 255
147 191 255
147 191 255
147 191 255
147 191 255
147 191 255
147 191 255
148 191 255
148 191 255
148 191 255
148 191 255
148 191 255
148 191 255
148 191 255
148 191 255
148 191 255
148 191 255
148 191 255
148 191 255
148 191 255
148 191 255
148 191 255
149 191 255
149 191 255
149 191 255
149 191 255
149 192 255
149 192 255
149 192 255
149 192 255
149 192 255
149 192 255
149 192 255
149 192 255
150 192 255
150 192 255
150 192 255
150 192 255
150 192 255
150 192 255
150 192 255
150 192 255
150 192 255
150 192 255
150 192 255
151 193 255
151 193 255
151 193 255
151 193 255
151 193 255
151 193 255
151 193 255
151 193 255
151 193 255
151 193 255
152 193 255
152 193 255
152 193 255
152 193 255
152 193 255
152 193 255
152 194 255
152 194 255
152 194 255
152 194 255
153 194 255
153 194 255
153 194 255
153 194 255
153 194 255
153 194 255
153 194 255
153 194 255
153 194 255
154 194 255
154 194 255
154 194 255
154 195 255
154 195 255
154 195 255
154 195 255
154 195 255
154 195 255
155 195 255
155 195 255
155 195 255
155 195 255
155 195 255
155 195 255
155 195 255
155 195 255
155 195 255
156 196 255
156 196 255
156 196 255
156 196 255
156 196 255
156 196 255
156 196 255
156 196 255
156 196 255
157 196 255
157 196 255
157 196 255
157 196 255
157 196 255
157 196 255
157 196 255
157 197 255
157 197 255
157 197 255
158 197 255
158 197 255
158 197 255
158 197 255
158 197 255
158 197 255
158 197 255
158 197 255
158 197 255
159 197 255
159 197 255
159 197 255
159 198 255
159 198 255
159 198 255
159 198 255
159 198 255
159 198 255
159 198 255
160 198 255
160 198 255
160 198 255
160 198 255
160 198 255
160 198 255
160 198 255
160 198 255
160 198 255
160 198 255
161 199 255
161 199 255
161 199 255
161 199 255
161 199 255
161 199 255
161 199 255
161 199 255
161 199 255
161 199 255
162 199 255
162 199 255
162 199 255
162 199 255
162 199 255
162 199 255
162 199 255
162 199 255
162 200 255
162 200 255
162 200 255
163 200 255
163 200 255
163 200 255
163 200 255
163 200 255
163 200 255
163 200 255
163 200 255
163 200 255
163 200 255
163 200 255
164 200 255
164 200 255
164 200 255
164 200 255
164 200 255
164 200 255
163 200 255
163 200 255
163 200 255
163 200 255
163 200 255
163 200 255
163 200 255
163 200 255
163 200 255
163 200 255
163 200 255
162 200 255
162 200 255
162 200 255
162 200 255
162 199 255
162 199 255
162 199 255
162 199 255
162 199 255
162 199 255
162 199 255
161 199 255
161 199 255
161 199 255
161 199 255
161 199 255
161 199 255
161 199 255
161 199 255
161 199 255
161 199 255
160 198 255
160 198 255
160 198 255
160 198 255
160 198 255
160 198 255
160 198 255
160 198 255
160 198 255
160 198 255
159 198 255
159 198 255
159 198 255
159 198 255
159 198 255
159 198 255
159 198 255
159 197 255
159 197 255
159 197 255
158 197 255
158 197 255
158 197 255
158 197 255
158 197 255
158 197 255
158 197 255
158 197 255
158 197 255
157 197 255
157 197 255
157 197 255
157 196 255
157 196 255
157 196 255
157 196 255
157 196 255
157 196 255
157 196 255
156 196 255
156 196 255
156 196 255
156 196 255
156 196 255
156 196 255
156 196 255
156 196 255
156 196 255
155 195 255
155 195 255
155 195 255
155 195 255
155 195 255
155 195 255
155 195 255
155 195 255
155 195 255
154 195 255
154 195 255
154 195 255
154 195 255
154 195 255
154 195 255
154 194 255
154 194 255
154 194 255
153 194 255
153 194 255
153 194 255
153 194 255
153 194 255
153 194 255
153 194 255
153 194 255
153 194 255
152 194 255
152 194 255
152 194 255
152 194 255
152 193 255
152 193 255
152 193 255
152 193 255
152 193 255
152 193 255
151 193 255
151 193 255
151 193 255
151 193 255
151 193 255
151 193 255
151 193 255
151 193 255
151 193 255
151 193 255
150 192 255
150 192 255
150 192 255
150 192 255
150 192 255
150 192 255
150 192 255
150 192 255
150 192 255
150 192 255
150 192 255
149 192 255
149 192 255
149 192 255
149 192 255
149 192 255
149 192 255
149 192 255
149 192 255
149 191 255
149 191 255
149 191 255
149 191 255
149 191 255
148 191 255
148 191 255
148 191 255
148 191 255
148 191 255
148 191 255
148 191 255
148 191 255
148 191 255
148 191 255
148 191 255
148 191 255
148 191 255
148 191 255
148 191 255
148 191 255
147 191 255
147 191 255
147 191 255
147 191 255
147 191 255
147 191 255
147 191 255
147 191 255
147 190 255
147 190 255
147 190 255
147 190 255
147 190 255
147 190 255
147 190 255
147 190 255
147 190 255
147 190 255
147 190 255
147 190 255
147 190 255
147 190 255
147 190 255
147 190 255
147 190 255
147 190 255
147 190 255
147 190 255
147 190 255
147 190 255
147 190 255
147 190 255
147 190 255
147 190 255
147 190 255
147 190 255
147 190 255
147 190 255
147 190 255
147 190 255
147 190 255
147 190 255
147 190 255
147 190 255
147 190 255
147 190 255
147 190 255
147 190 255
147 190 255
147 190 255
147 191 255
147 191 255
147 191 255
147 191 255
147 191 255
147 191 255
147 191 255
147 191 255
148 191 255
148 191 255
148 191 255
148 191 255
148 191 255
148 191 255
148 191 255
148 191 255
148 191 255
148 191 255
148 191 255
148 191 255
148 191 255
148 191 255
148 191 255
148 191 255
149 191 255
149 191 255
149 191 255
149 191 255
149 191 255
149 192 255
149 192 255
149 192 255
149 192 255
149 192 255
149 192 255
149 192 255
149 192 255
150 192 255
150 192 255
150 192 255
150 192 255
150 192 255
150 192 255
150 192 255
150 192 255
150 192 255
150 192 255
150 192 255
151 193 255
151 193 255
151 193 255
151 193 255
151 193 255
151 193 255
151 193 255
151 193 255
151 193 255
151 193 255
152 193 255
152 193 255
152 193 255
152 193 255
152 193 255
152 193 255
152 194 255
152 194 255
152 194 255
152 194 255
153 194 255
153 194 255
153 194 255
153 194 255
153 194 255
153 194 255
153 194 255
153 194 255
153 194 255
154 194 255
154 194 255
154 194 255
154 195 255
154 195 255
154 195 255
154 195 255
154 195 255
154 195 255
155 195 255
155 195 255
155 195 255
155 195 255
155 195 255
155 195 255
155 195 255
155 195 255
155 195 255
156 196 255
156 196 255
156 196 255
156 196 255
156 196 255
156 196 255
156 196 255
156 196 255
156 196 255
157 196 255
157 196 255
157 196 255
157 196 255
157 196 255
157 196 255
157 197 255
157 197 255
157 197 255
157 197 255
158 197 255
158 197 255
158 197 255
158 197 255
158 197 255
158 197 255
158 197 255
158 197 255
158 197 255
159 197 255
159 197 255
159 197 255
159 198 255
159 198 255
159 198 255
159 198 255
159 198 255
159 198 255
159 198 255
160 198 255
160 198 255
160 198 255
160 198 255
160 198 255
160 198 255
160 198 255
160 198 255
160 198 255
160 198 255
161 199 255
161 199 255
161 199 255
161 199 255
161 199 255
161 199 255
161 199 255
161 199 255
161 199 255
161 199 255
162 199 255
162 199 255
162 199 255
162 199 255
162 199 255
162 199 255
162 199 255
162 200 255
162 200 255
162 200 255
162 200 255
163 200 255
163 200 255
163 200 255
163 200 255
163 200 255
163 200 255
163 200 255
163 200 255
163 200 255
163 200 255
163 200 255
164 200 255
164 200 255
164 200 255
164 200 255
164 201 255
164 201 255
164 200 255
164 200 255
164 200 255
164 200 255
163 200 255
163 200 255
163 200 255
163 200 255
163 200 255
163 200 255
163 200 255
163 200 255
163 200 255
163 200 255
163 200 255
162 200 255
162 200 255
162 200 255
162 200 255
162 199 255
162 199 255
162 199 255
162 199 255
162 199 255
162 199 255
162 199 255
161 199 255
161 199 255
161 199 255
161 199 255
161 199 255
161 199 255
161 199 255
161 199 255
161 199 255
161 199 255
160 198 255
160 198 255
160 198 255
160 198 255
160 198 255
160 198 255
160 198 255
160 198 255
160 198 255
160 198 255
159 198 255
159 198 255
159 198 255
159 198 255
159 198 255
159 198 255
159 198 255
159 197 255
159 197 255
159 197 255
158 197 255
158 197 255
158 197 255
158 197 255
158 197 255
158 197 255
158 197 255
158 197 255
158 197 255
157 197 255
157 197 255
157 197 255
157 197 255
157 196 255
157 196 255
157 196 255
157 196 255
157 196 255
157 196 255
156 196 255
156 196 255
156 196 255
156 196 255
156 196 255
156 196 255
156 196 255
156 196 255
156 196 255
155 195 255
155 195 255
155 195 255
155 195 255
155 195 255
155 195 255
155 195 255
155 195 255
155 195 255
154 195 255
154 195 255
154 195 255
154 195 255
154 195 255
154 195 255
154 194 255
154 194 255
154 194 255
153 194 255
153 194 255
153 194 255
153 194 255
153 194 255
153 194 255
153 194 255
153 194 255
153 194 255
153 194 255
152 194 255
152 194 255
152 194 255
152 193 255
152 193 255
152 193 255
152 193 255
152 193 255
152 193 255
151 193 255
151 193 255
151 193 255
151 193 255
151 193 255
151 193 255
151 193 255
151 193 255
151 193 255
151 193 255
150 192 255
150 192 255
150 192 255
150 192 255
150 192 255
150 192 255
150 192 255
150 192 255
150 192 255
150 192 255
150 192 255
150 192 255
149 192 255
149 192 255
149 192 255
149 192 255
149 192 255
149 192 255
149 192 255
149 192 255
149 191 255
149 191 255
149 191 255
149 191 255
149 191 255
148 191 255
148 191 255
148 191 255
148 191 255
148 191 255
148 191 255
148 191 255
148 191 255
148 191 255
148 191 255
148 191 255
148 191 255
148 191 255
148 191 255
148 191 255
148 191 255
148 191 255
148 191 255
147 191 255
147 191 255
147 191 255
147 191 255
147 191 255
147 191 255
147 191 255
147 191 255
147 191 255
147 190 255
147 190 255
147 190 255
147 190 255
147 190 255
147 190 255
147 190 255
147 190 255
147 190 255
147 190 255
147 190 255
147 190 255
147 190 255
147 190 255
147 190 255
147 190 255
147 190 255
147 190 255
147 190 255
147 190 255
147 190 255
147 190 255
147 190 255
147 190 255
147 190 255
147 190 255
147 190 255
147 190 255
147 190 255
147 190 255
147 191 255
147 191 255
147 191 255
147 191 255
147 191 255
147 191 255
147 191 255
147 191 255
147 191 255
147 191 255
148 191 255
148 191 255
148 191 255
148 191 255
148 191 255
148 191 255
148 191 255
148 191 255
148 191 255
148 191 255
148 191 255
148 191 255
148 191 255
148 191 255
148 191 255
148 191 255
148 191 255
149 191 255
149 191 255
149 191 255
149 191 255
149 191 255
149 192 255
149 192 255
149 192 255
149 192 255
149 192 255
149 192 255
149 192 255
149 192 255
150 192 255
150 192 255
150 192 255
150 192 255
150 192 255
150 192 255
150 192 255
150 192 255
150 192 255
150 192 255
150 192 255
151 193 255
151 193 255
151 193 255
151 193 255
151 193 255
151 193 255
151 193 255
151 193 255
151 193 255
151 193 255
151 193 255
152 193 255
152 193 255
152 193 255
152 193 255
152 193 255
152 193 255
152 194 255
152 194 255
152 194 255
153 194 255
153 194 255
153 194 255
153 194 255
153 194 255
153 194 255
153 194 255
153 194 255
153 194 255
153 194 255
154 194 255
154 194 255
154 194 255
154 195 255
154 195 255
154 195 255
154 195 255
154 195 255
154 195 255
155 195 255
155 195 255
155 195 255
155 195 255
155 195 255
155 195 255
155 195 255
155 195 255
155 195 255
156 196 255
156 196 255
156 196 255
156 196 255
156 196 255
156 196 255
156 196 255
156 196 255
156 196 255
157 196 255
157 196 255
157 196 255
157 196 255
157 196 255
157 196 255
157 197 255
157 197 255
157 197 255
157 197 255
158 197 255
158 197 255
158 197 255
158 197 255
158 197 255
158 197 255
158 197 255
158 197 255
158 197 255
159 197 255
159 197 255
159 197 255
159 198 255
159 198 255
159 198 255
159 198 255
159 198 255
159 198 255
159 198 255
160 198 255
160 198 255
160 198 255
160 198 255
160 198 255
160 198 255
160 198 255
160 198 255
160 198 255
160 198 255
161 199 255
161 199 255
161 199 255
161 199 255
161 199 255
161 199 255
161 199 255
161 199 255
161 199 255
161 199 255
162 199 255
162 199 255
162 199 255
162 199 255
162 199 255
162 199 255
162 199 255
162 200 255
162 200 255
162 200 255
163 200 255
163 200 255
163 200 255
163 200 255
163 200 255
163 200 255
163 200 255
163 200 255
163 200 255
163 200 255
163 200 255
163 200 255
164 200 255
164 200 255
164 200 255
164 200 255
164 201 255
164 201 255
164 201 255
164 201 255
164 201 255
164 201 255
164 201 255
164 200 255
164 200 255
164 200 255
164 200 255
163 200 255
163 200 255
163 200 255
163 200 255
163 200 255
163 200 255
163 200 255
163 200 255
163 200 255
163 200 255
163 200 255
162 200 255
162 200 255
162 200 255
162 200 255
162 199 255
162 199 255
162 199 255
162 199 255
162 199 255
162 199 255
161 199 255
161 199 255
161 199 255
161 199 255
161 199 255
161 199 255
161 199 255
161 199 255
161 199 255
161 199 255
161 199 255
160 198 255
160 198 255
160 198 255
160 198 255
160 198 255
160 198 255
160 198 255
160 198 255
160 198 255
160 198 255
159 198 255
159 198 255
159 198 255
159 198 255
159 198 255
159 198 255
159 197 255
159 197 255
159 197 255
158 197 255
158 197 255
158 197 255
158 197 255
158 197 255
158 197 255
158 197 255
158 197 255
158 197 255
158 197 255
157 197 255
157 197 255
157 197 255
157 196 255
157 196 255
157 196 255
157 196 255
157 196 255
157 196 255
156 196 255
156 196 255
156 196 255
156 196 255
156 196 255
156 196 255
156 196 255
156 196 255
156 196 255
155 195 255
155 195 255
155 195 255
155 195 255
155 195 255
155 195 255
155 195 255
155 195 255
155 195 255
154 195 255
154 195 255
154 195 255
154 195 255
154 195 255
154 195 255
154 194 255
154 194 255
154 194 255
153 194 255
153 194 255
153 194 255
153 194 255
153 194 255
153 194 255
153 194 255
153 194 255
153 194 255
153 194 255
152 194 255
152 194 255
152 194 255
152 193 255
152 193 255
152 193 255
152 193 255
152 193 255
152 193 255
152 193 255
151 193 255
151 193 255
151 193 255
151 193 255
151 193 255
151 193 255
151 193 255
151 193 255
151 193 255
151 193 255
150 192 255
150 192 255
150 192 255
150 192 255
150 192 255
150 192 255
150 192 255
150 192 255
150 192 255
150 192 255
150 192 255
149 192 255
149 192 255
149 192 255
149 192 255
149 192 255
149 192 255
149 192 255
149 192 255
149 192 255
149 191 255
149 191 255
149 191 255
149 191 255
149 191 255
148 191 255
148 191 255
148 191 255
148 191 255
148 191 255
148 191 255
148 191 255
148 191 255
148 191 255
148 191 255
148 191 255
148 191 255
148 191 255
148 191 255
148 191 255
148 191 255
148 191 255
148 191 255
148 191 255
148 191 255
147 191 255
147 191 255
147 191 255
147 191 255
147 191 255
147 191 255
147 191 255
147 191 255
147 191 255
147 191 255
147 191 255
147 191 255
147 191 255
147 191 255
147 191 255
147 191 255
147 191 255
147 191 255
147 191 255
147 191 255
147 191 255
147 191 255
147 191 255
147 191 255
147 191 255
147 191 255
147 191 255
147 191 255
147 191 255
147 191 255
147 191 255
147 191 255
147 191 255
147 191 255
147 191 255
147 191 255
147 191 255
147 191 255
148 191 255
148 191 255
148 191 255
148 191 255
148 191 255
148 191 255
148 191 255
148 191 255
148 191 255
148 191 255
148 191 255
148 191 255
148 191 255
148 191 255
148 191 255
148 191 255
148 191 255
148 191 255
148 191 255
148 191 255
149 191 255
149 191 255
149 191 255
149 191 255
149 191 255
149 192 255
149 192 255
149 192 255
149 192 255
149 192 255
149 192 255
149 192 255
149 192 255
149 192 255
150 192 255
150 192 255
150 192 255
150 192 255
150 192 255
150 192 255
150 192 255
150 192 255
150 192 255
150 192 255
150 192 255
151 193 255
151 193 255
151 193 255
151 193 255
151 193 255
151 193 255
151 193 255
151 193 255
151 193 255
151 193 255
152 193 255
152 193 255
152 193 255
152 193 255
152 193 255
152 193 255
152 193 255
152 194 255
152 194 255
152 194 255
153 194 255
153 194 255
153 194 255
153 194 255
153 194 255
153 194 255
153 194 255
153 194 255
153 194 255
153 194 255
154 194 255
154 194 255
154 194 255
154 195 255
154 195 255
154 195 255
154 195 255
154 195 255
154 195 255
155 195 255
155 195 255
155 195 255
155 195 255
155 195 255
155 195 255
155 195 255
155 195 255
155 195 255
156 196 255
156 196 255
156 196 255
156 196 255
156 196 255
156 196 255
156 196 255
156 196 255
156 196 255
157 196 255
157 196 255
157 196 255
157 196 255
157 196 255
157 196 255
157 197 255
157 197 255
157 197 255
158 197 255
158 197 255
158 197 255
158 197 255
158 197 255
158 197 255
158 197 255
158 197 255
158 197 255
158 197 255
159 197 255
159 197 255
159 197 255
159 198 255
159 198 255
159 198 255
159 198 255
159 198 255
159 198 255
159 198 255
160 198 255
160 198 255
160 198 255
160 198 255
160 198 255
160 198 255
160 198 255
160 198 255
160 198 255
161 199 255
161 199 255
161 199 255
161 199 255
161 199 255
161 199 255
161 199 255
161 199 255
161 199 255
161 199 255
161 199 255
162 199 255
162 199 255
162 199 255
162 199 255
162 199 255
162 199 255
162 199 255
162 200 255
162 200 255
162 200 255
163 200 255
163 200 255
163 200 255
163 200 255
163 200 255
163 200 255
163 200 255
163 200 255
163 200 255
163 200 255
163 200 255
164 200 255
164 200 255
164 200 255
164 200 255
164 201 255
164 201 255
164 201 255
164 201 255
164 201 255
164 201 255
164 201 255
164 201 255
164 201 255
164 201 255
164 201 255
164 201 255
164 200 255
164 200 255
164 200 255
164 200 255
163 200 255
163 200 255
163 200 255
163 200 255
163 200 255
163 200 255
163 200 255
163 200 255
163 200 255
163 200 255
163 200 255
162 200 255
162 200 255
162 200 255
162 200 255
162 199 255
162 199 255
162 199 255
162 199 255
162 199 255
162 199 255
162 199 255
161 199 255
161 199 255
161 199 255
161 199 255
161 199 255
161 199 255
161 199 255
161 199 255
161 199 255
161 199 255
160 198 255
160 198 255
160 198 255
160 198 255
160 198 255
160 198 255
160 198 255
160 198 255
160 198 255
160 198 255
159 198 255
159 198 255
159 198 255
159 198 255
159 198 255
159 198 255
159 197 255
159 197 255
159 197 255
158 197 255
158 197 255
158 197 255
158 197 255
158 197 255
158 197 255
158 197 255
158 197 255
158 197 255
158 197 255
157 197 255
157 197 255
157 197 255
157 196 255
157 196 255
157 196 255
157 196 255
157 196 255
157 196 255
156 196 255
156 196 255
156 196 255
156 196 255
156 196 255
156 196 255
156 196 255
156 196 255
156 196 255
155 195 255
155 195 255
155 195 255
155 195 255
155 195 255
155 195 255
155 195 255
155 195 255
155 195 255
154 195 255
154 195 255
154 195 255
154 195 255
154 195 255
154 195 255
154 194 255
154 194 255
154 194 255
154 194 255
153 194 255
153 194 255
153 194 255
153 194 255
153 194 255
153 194 255
153 194 255
153 194 255
153 194 255
152 194 255
152 194 255
152 194 255
152 193 255
152 193 255
152 193 255
152 193 255
152 193 255
152 193 255
152 193 255
151 193 255
151 193 255
151 193 255
151 193 255
151 193 255
151 193 255
151 193 255
151 193 255
151 193 255
151 193 255
150 192 255
150 192 255
150 192 255
150 192 255
150 192 255
150 192 255
150 192 255
150 192 255
150 192 255
150 192 255
150 192 255
150 192 255
149 192 255
149 192 255
149 192 255
149 192 255
149 192 255
149 192 255
149 192 255
149 192 255
149 192 255
149 191 255
149 191 255
149 191 255
149 191 255
149 191 255
148 191 255
148 191 255
148 191 255
148 191 255
148 191 255
148 191 255
148 191 255
148 191 255
148 191 255
148 191 255
148 191 255
148 191 255
148 191 255
148 191 255
148 191 255
148 191 255
148 191 255
148 191 255
148 191 255
148 191 255
148 191 255
148 191 255
148 191 255
148 191 255
148 191 255
147 191 255
147 191 255
147 191 255
147 191 255
147 191 255
147 191 255
147 191 255
147 191 255
147 191 255
147 191 255
147 191 255
147 191 255
147 191 255
147 191 255
147 191 255
147 191 255
147 191 255
147 191 255
147 191 255
147 191 255
147 191 255
147 191 255
148 191 255
148 191 255
148 191 255
148 191 255
148 191 255
148 191 255
148 191 255
148 191 255
148 191 255
148 191 255
148 191 255
148 191 255
148 191 255
148 191 255
148 191 255
148 191 255
148 191 255
148 191 255
148 191 255
148 191 255
148 191 255
148 191 255
148 191 255
148 191 255
149 191 255
149 191 255
149 191 255
149 191 255
149 191 255
149 191 255
149 192 255
149 192 255
149 192 255
149 192 255
149 192 255
149 192 255
149 192 255
149 192 255
149 192 255
150 192 255
150 192 255
150 192 255
150 192 255
150 192 255
150 192 255
150 192 255
150 192 255
150 192 255
150 192 255
150 192 255
151 192 255
151 193 255
151 193 255
151 193 255
151 193 255
151 193 255
151 193 255
151 193 255
151 193 255
151 193 255
151 193 255
152 193 255
152 193 255
152 193 255
152 193 255
152 193 255
152 193 255
152 193 255
152 194 255
152 194 255
152 194 255
153 194 255
153 194 255
153 194 255
153 194 255
153 194 255
153 194 255
153 194 255
153 194 255
153 194 255
154 194 255
154 194 255
154 194 255
154 194 255
154 195 255
154 195 255
154 195 255
154 195 255
154 195 255
154 195 255
155 195 255
155 195 255
155 195 255
155 195 255
155 195 255
155 195 255
155 195 255
155 195 255
155 195 255
156 196 255
156 196 255
156 196 255
156 196 255
156 196 255
156 196 255
156 196 255
156 196 255
156 196 255
157 196 255
157 196 255
157 196 255
157 196 255
157 196 255
157 196 255
157 197 255
157 197 255
157 197 255
158 197 255
158 197 255
158 197 255
158 197 255
158 197 255
158 197 255
158 197 255
158 197 255
158 197 255
158 197 255
159 197 255
159 197 255
159 197 255
159 198 255
159 198 255
159 198 255
159 198 255
159 198 255
159 198 255
160 198 255
160 198 255
160 198 255
160 198 255
160 198 255
160 198 255
160 198 255
160 198 255
160 198 255
160 198 255
161 199 255
161 199 255
161 199 255
161 199 255
161 199 255
161 199 255
161 199 255
161 199 255
161 199 255
161 199 255
162 199 255
162 199 255
162 199 255
162 199 255
162 199 255
162 199 255
162 199 255
162 200 255
162 200 255
162 200 255
162 200 255
163 200 255
163 200 255
163 200 255
163 200 255
163 200 255
163 200 255
163 200 255
163 200 255
163 200 255
163 200 255
163 200 255
164 200 255
164 200 255
164 200 255
164 200 255
164 201 255
164 201 255
164 201 255
164 201 255
164 201 255
164 201 255
164 201 255
165 201 255
165 201 255
164 201 255
164 201 255
164 201 255
164 201 255
164 201 255
164 201 255
164 201 255
164 201 255
164 200 255
164 200 255
164 200 255
163 200 255
163 200 255
163 200 255
163 200 255
163 200 255
163 200 255
163 200 255
163 200 255
163 200 255
163 200 255
163 200 255
162 200 255
162 200 255
162 200 255
162 200 255
162 199 255
162 199 255
162 199 255
162 199 255
162 199 255
162 199 255
162 199 255
161 199 255
161 199 255
161 199 255
161 199 255
161 199 255
161 199 255
161 199 255
161 199 255
161 199 255
161 199 255
160 198 255
160 198 255
160 198 255
160 198 255
160 198 255
160 198 255
160 198 255
160 198 255
160 198 255
160 198 255
159 198 255
159 198 255
159 198 255
159 198 255
159 198 255
159 198 255
159 197 255
159 197 255
159 197 255
159 197 255
158 197 255
158 197 255
158 197 255
158 197 255
158 197 255
158 197 255
158 197 255
158 197 255
158 197 255
157 197 255
157 197 255
157 197 255
157 196 255
157 196 255
157 196 255
157 196 255
157 196 255
157 196 255
156 196 255
156 196 255
156 196 255
156 196 255
156 196 255
156 196 255
156 196 255
156 196 255
156 196 255
155 195 255
155 195 255
155 195 255
155 195 255
155 195 255
155 195 255
155 195 255
155 195 255
155 195 255
154 195 255
154 195 255
154 195 255
154 195 255
154 195 255
154 195 255
154 195 255
154 194 255
154 194 255
154 194 255
153 194 255
153 194 255
153 194 255
153 194 255
153 194 255
153 194 255
153 194 255
153 194 255
153 194 255
152 194 255
152 194 255
152 194 255
152 193 255
152 193 255
152 193 255
152 193 255
152 193 255
152 193 255
152 193 255
151 193 255
151 193 255
151 193 255
151 193 255
151 193 255
151 193 255
151 193 255
151 193 255
151 193 255
151 193 255
151 193 255
150 192 255
150 192 255
150 192 255
150 192 255
150 192 255
150 192 255
150 192 255
150 192 255
150 192 255
150 192 255
150 192 255
150 192 255
149 192 255
149 192 255
149 192 255
149 192 255
149 192 255
149 192 255
149 192 255
149 192 255
149 192 255
149 192 255
149 191 255
149 191 255
149 191 255
149 191 255
149 191 255
148 191 255
148 191 255
148 191 255
148 191 255
148 191 255
148 191 255
148 191 255
148 191 255
148 191 255
148 191 255
148 191 255
148 191 255
148 191 255
148 191 255
148 191 255
148 191 255
148 191 255
148 191 255
148 191 255
148 191 255
148 191 255
148 191 255
148 191 255
148 191 255
148 191 255
148 191 255
148 191 255
148 191 255
148 191 255
148 191 255
148 191 255
148 191 255
148 191 255
148 191 255
148 191 255
148 191 255
148 191 255
148 191 255
148 191 255
148 191 255
148 191 255
148 191 255
148 191 255
148 191 255
148 191 255
148 191 255
148 191 255
148 191 255
148 191 255
148 191 255
148 191 255
148 191 255
148 191 255
148 191 255
148 191 255
148 191 255
148 191 255
148 191 255
148 191 255
148 191 255
148 191 255
148 191 255
148 191 255
148 191 255
149 191 255
149 191 255
149 191 255
149 191 255
149 191 255
149 192 255
149 192 255
149 192 255
149 192 255
149 192 255
149 192 255
149 192 255
149 192 255
149 192 255
149 192 255
150 192 255
150 192 255
150 192 255
150 192 255
150 192 255
150 192 255
150 192 255
150 192 255
150 192 255
150 192 255
150 192 255
150 192 255
151 193 255
151 193 255
151 193 255
151 193 255
151 193 255
151 193 255
151 193 255
151 193 255
151 193 255
151 193 255
151 193 255
152 193 255
152 193 255
152 193 255
152 193 255
152 193 255
152 193 255
152 193 255
152 194 255
152 194 255
152 194 255
153 194 255
153 194 255
153 194 255
153 194 255
153 194 255
153 194 255
153 194 255
153 194 255
153 194 255
154 194 255
154 194 255
154 194 255
154 195 255
154 195 255
154 195 255
154 195 255
154 195 255
154 195 255
154 195 255
155 195 255
155 195 255
155 195 255
155 195 255
155 195 255
155 195 255
155 195 255
155 195 255
155 195 255
156 196 255
156 196 255
156 196 255
156 196 255
156 196 255
156 196 255
156 196 255
156 196 255
156 196 255
157 196 255
157 196 255
157 196 255
157 196 255
157 196 255
157 196 255
157 197 255
157 197 255
157 197 255
158 197 255
158 197 255
158 197 255
158 197 255
158 197 255
158 197 255
158 197 255
158 197 255
158 197 255
158 197 255
159 197 255
159 197 255
159 197 255
159 198 255
159 198 255
159 198 255
159 198 255
159 198 255
159 198 255
160 198 255
160 198 255
160 198 255
160 198 255
160 198 255
160 198 255
160 198 255
160 198 255
160 198 255
160 198 255
161 199 255
161 199 255
161 199 255
161 199 255
161 199 255
161 199 255
161 199 255
161 199 255
161 199 255
161 199 255
162 199 255
162 199 255
162 199 255
162 199 255
162 199 255
162 199 255
162 199 255
162 200 255
162 200 255
162 200 255
162 200 255
163 200 255
163 200 255
163 200 255
163 200 255
163 200 255
163 200 255
163 200 255
163 200 255
163 200 255
163 200 255
163 200 255
164 200 255
164 200 255
164 200 255
164 201 255
164 201 255
164 201 255
164 201 255
164 201 255
164 201 255
164 201 255
164 201 255
165 201 255
165 201 255
165 201 255
165 201 255
165 201 255
165 201 255
164 201 255
164 201 255
164 201 255
164 201 255
164 201 255
164 201 255
164 201 255
164 201 255
164 200 255
164 200 255
164 200 255
164 200 255
163 200 255
163 200 255
163 200 255
163 200 255
163 200 255
163 200 255
163 200 255
163 200 255
163 200 255
163 200 255
163 200 255
162 200 255
162 200 255
162 200 255
162 199 255
162 199 255
162 199 255
162 199 255
162 199 255
162 199 255
162 199 255
161 199 255
161 199 255
161 199 255
161 199 255
161 199 255
161 199 255
161 199 255
161 199 255
161 199 255
161 199 255
160 198 255
160 198 255
160 198 255
160 198 255
160 198 255
160 198 255
160 198 255
160 198 255
160 198 255
160 198 255
159 198 255
159 198 255
159 198 255
159 198 255
159 198 255
159 198 255
159 198 255
159 197 255
159 197 255
159 197 255
158 197 255
158 197 255
158 197 255
158 197 255
158 197 255
158 197 255
158 197 255
158 197 255
158 197 255
157 197 255
157 197 255
157 197 255
157 196 255
157 196 255
157 196 255
157 196 255
157 196 255
157 196 255
156 196 255
156 196 255
156 196 255
156 196 255
156 196 255
156 196 255
156 196 255
156 196 255
156 196 255
155 195 255
155 195 255
155 195 255
155 195 255
155 195 255
155 195 255
155 195 255
155 195 255
155 195 255
154 195 255
154 195 255
154 195 255
154 195 255
154 195 255
154 195 255
154 195 255
154 194 255
154 194 255
154 194 255
153 194 255
153 194 255
153 194 255
153 194 255
153 194 255
153 194 255
153 194 255
153 194 255
153 194 255
152 194 255
152 194 255
152 194 255
152 194 255
152 193 255
152 193 255
152 193 255
152 193 255
152 193 255
152 193 255
152 193 255
151 193 255
151 193 255
151 193 255
151 193 255
151 193 255
151 193 255
151 193 255
151 193 255
151 193 255
151 193 255
151 193 255
150 192 255
150 192 255
150 192 255
150 192 255
150 192 255
150 192 255
150 192 255
150 192 255
150 192 255
150 192 255
150 192 255
150 192 255
149 192 255
149 192 255
149 192 255
149 192 255
149 192 255
149 192 255
149 192 255
149 192 255
149 192 255
149 192 255
149 191 255
149 191 255
149 191 255
149 191 255
149 191 255
149 191 255
149 191 255
148 191 255
148 191 255
148 191 255
148 191 255
148 191 255
148 191 255
148 191 255
148 191 255
148 191 255
148 191 255
148 191 255
148 191 255
148 191 255
148 191 255
148 191 255
148 191 255
148 191 255
148 191 255
148 191 255
148 191 255
148 191 255
148 191 255
148 191 255
148 191 255
148 191 255
148 191 255
148 191 255
148 191 255
148 191 255
148 191 255
148 191 255
148 191 255
148 191 255
148 191 255
148 191 255
148 191 255
148 191 255
148 191 255
148 191 255
148 191 255
148 191 255
148 191 255
148 191 255
148 191 255
148 191 255
148 191 255
148 191 255
148 191 255
148 191 255
148 191 255
148 191 255
148 191 255
148 191 255
148 191 255
149 191 255
149 191 255
149 191 255
149 191 255
149 191 255
149 191 255
149 191 255
149 192 255
149 192 255
149 192 255
149 192 255
149 192 255
149 192 255
149 192 255
149 192 255
149 192 255
149 192 255
150 192 255
150 192 255
150 192 255
150 192 255
150 192 255
150 192 255
150 192 255
150 192 255
150 192 255
150 192 255
150 192 255
150 192 255
151 193 255
151 193 255
151 193 255
151 193 255
151 193 255
151 193 255
151 193 255
151 193 255
151 193 255
151 193 255
151 193 255
152 193 255
152 193 255
152 193 255
152 193 255
152 193 255
152 193 255
152 193 255
152 194 255
152 194 255
152 194 255
152 194 255
153 194 255
153 194 255
153 194 255
153 194 255
153 194 255
153 194 255
153 194 255
153 194 255
153 194 255
154 194 255
154 194 255
154 194 255
154 195 255
154 195 255
154 195 255
154 195 255
154 195 255
154 195 255
154 195 255
155 195 255
155 195 255
155 195 255
155 195 255
155 195 255
155 195 255
155 195 255
155 195 255
155 195 255
156 196 255
156 196 255
156 196 255
156 196 255
156 196 255
156 196 255
156 196 255
156 196 255
156 196 255
157 196 255
157 196 255
157 196 255
157 196 255
157 196 255
157 196 255
157 197 255
157 197 255
157 197 255
158 197 255
158 197 255
158 197 255
158 197 255
158 197 255
158 197 255
158 197 255
158 197 255
158 197 255
158 197 255
159 197 255
159 197 255
159 197 255
159 198 255
159 198 255
159 198 255
159 198 255
159 198 255
159 198 255
160 198 255
160 198 255
160 198 255
160 198 255
160 198 255
160 198 255
160 198 255
160 198 255
160 198 255
160 198 255
161 199 255
161 199 255
161 199 255
161 199 255
161 199 255
161 199 255
161 199 255
161 199 255
161 199 255
161 199 255
162 199 255
162 199 255
162 199 255
162 199 255
162 199 255
162 199 255
162 199 255
162 200 255
162 200 255
162 200 255
163 200 255
163 200 255
163 200 255
163 200 255
163 200 255
163 200 255
163 200 255
163 200 255
163 200 255
163 200 255
163 200 255
164 200 255
164 200 255
164 200 255
164 200 255
164 201 255
164 201 255
164 201 255
164 201 255
164 201 255
164 201 255
164 201 255
164 201 255
165 201 255
165 201 255
165 201 255
165 201 255
165 201 255
165 201 255
165 201 255
165 201 255
165 201 255
165 201 255
165 201 255
164 201 255
164 201 255
164 201 255
164 201 255
164 201 255
164 201 255
164 201 255
164 201 255
164 200 255
164 200 255
164 200 255
163 200 255
163 200 255
163 200 255
163 200 255
163 200 255
163 200 255
163 200 255
163 200 255
163 200 255
163 200 255
163 200 255
162 200 255
162 200 255
162 200 255
162 200 255
162 199 255
162 199 255
162 199 255
162 199 255
162 199 255
162 199 255
162 199 255
161 199 255
161 199 255
161 199 255
161 199 255
161 199 255
161 199 255
161 199 255
161 199 255
161 199 255
161 199 255
160 198 255
160 198 255
160 198 255
160 198 255
160 198 255
160 198 255
160 198 255
160 198 255
160 198 255
159 198 255
159 198 255
159 198 255
159 198 255
159 198 255
159 198 255
159 198 255
159 197 255
159 197 255
159 197 255
158 197 255
158 197 255
158 197 255
158 197 255
158 197 255
158 197 255
158 197 255
158 197 255
158 197 255
157 197 255
157 197 255
157 197 255
157 196 255
157 196 255
157 196 255
157 196 255
157 196 255
157 196 255
156 196 255
156 196 255
156 196 255
156 196 255
156 196 255
156 196 255
156 196 255
156 196 255
156 196 255
155 195 255
155 195 255
155 195 255
155 195 255
155 195 255
155 195 255
155 195 255
155 195 255
155 195 255
155 195 255
154 195 255
154 195 255
154 195 255
154 195 255
154 195 255
154 195 255
154 194 255
154 194 255
154 194 255
153 194 255
153 194 255
153 194 255
153 194 255
153 194 255
153 194 255
153 194 255
153 194 255
153 194 255
153 194 255
152 194 255
152 194 255
152 194 255
152 193 255
152 193 255
152 193 255
152 193 255
152 193 255
152 193 255
152 193 255
151 193 255
151 193 255
151 193 255
151 193 255
151 193 255
151 193 255
151 193 255
151 193 255
151 193 255
151 193 255
151 193 255
150 192 255
150 192 255
150 192 255
150 192 255
150 192 255
150 192 255
150 192 255
150 192 255
150 192 255
150 192 255
150 192 255
150 192 255
150 192 255
150 192 255
149 192 255
149 192 255
149 192 255
149 192 255
149 192 255
149 192 255
149 192 255
149 192 255
149 192 255
149 192 255
149 192 255
149 191 255
149 191 255
149 191 255
149 191 255
149 191 255
149 191 255
149 191 255
148 191 255
148 191 255
148 191 255
148 191 255
148 191 255
148 191 255
148 191 255
148 191 255
148 191 255
148 191 255
148 191 255
148 191 255
148 191 255
148 191 255
148 191 255
148 191 255
148 191 255
148 191 255
148 191 255
148 191 255
148 191 255
148 191 255
148 191 255
148 191 255
148 191 255
148 191 255
148 191 255
148 191 255
148 191 255
148 191 255
148 191 255
148 191 255
148 191 255
148 191 255
148 191 255
148 191 255
148 191 255
148 191 255
148 191 255
148 191 255
148 191 255
148 191 255
148 191 255
148 191 255
149 191 255
149 191 255
149 191 255
149 191 255
149 191 255
149 191 255
149 191 255
149 192 255
149 192 255
149 192 255
149 192 255
149 192 255
149 192 255
149 192 255
149 192 255
149 192 255
149 192 255
149 192 255
149 192 255
150 192 255
150 192 255
150 192 255
150 192 255
150 192 255
150 192 255
150 192 255
150 192 255
150 192 255
150 192 255
150 192 255
150 192 255
150 192 255
151 193 255
151 193 255
151 193 255
151 193 255
151 193 255
151 193 255
151 193 255
151 193 255
151 193 255
151 193 255
151 193 255
152 193 255
152 193 255
152 193 255
152 193 255
152 193 255
152 193 255
152 193 255
152 194 255
152 194 255
152 194 255
153 194 255
153 194 255
153 194 255
153 194 255
153 194 255
153 194 255
153 194 255
153 194 255
153 194 255
153 194 255
154 194 255
154 194 255
154 194 255
154 195 255
154 195 255
154 195 255
154 195 255
154 195 255
154 195 255
155 195 255
155 195 255
155 195 255
155 195 255
155 195 255
155 195 255
155 195 255
155 195 255
155 195 255
155 195 255
156 196 255
156 196 255
156 196 255
156 196 255
156 196 255
156 196 255
156 196 255
156 196 255
156 196 255
157 196 255
157 196 255
157 196 255
157 196 255
157 196 255
157 196 255
157 197 255
157 197 255
157 197 255
158 197 255
158 197 255
158 197 255
158 197 255
158 197 255
158 197 255
158 197 255
158 197 255
158 197 255
159 197 255
159 197 255
159 197 255
159 198 255
159 198 255
159 198 255
159 198 255
159 198 255
159 198 255
159 198 255
160 198 255
160 198 255
160 198 255
160 198 255
160 198 255
160 198 255
160 198 255
160 198 255
160 198 255
160 198 255
161 199 255
161 199 255
161 199 255
161 199 255
161 199 255
161 199 255
161 199 255
161 199 255
161 199 255
162 199 255
162 199 255
162 199 255
162 199 255
162 199 255
162 199 255
162 199 255
162 200 255
162 200 255
162 200 255
162 200 255
163 200 255
163 200 255
163 200 255
163 200 255
163 200 255
163 200 255
163 200 255
163 200 255
163 200 255
163 200 255
163 200 255
164 200 255
164 200 255
164 200 255
164 201 255
164 201 255
164 201 255
164 201 255
164 201 255
164 201 255
164 201 255
164 201 255
165 201 255
165 201 255
165 201 255
165 201 255
165 201 255
165 201 255
165 201 255
165 201 255
165 201 255
165 201 255
165 201 255
165 201 255
165 201 255
165 201 255
165 201 255
165 201 255
164 201 255
164 201 255
164 201 255
164 201 255
164 201 255
164 201 255
164 201 255
164 201 255
164 200 255
164 200 255
164 200 255
164 200 255
163 200 255
163 200 255
163 200 255
163 200 255
163 200 255
163 200 255
163 200 255
163 200 255
163 200 255
163 200 255
162 200 255
162 200 255
162 200 255
162 200 255
162 199 255
162 199 255
162 199 255
162 199 255
162 199 255
162 199 255
162 199 255
161 199 255
161 199 255
161 199 255
161 199 255
161 199 255
161 199 255
161 199 255
161 199 255
161 199 255
161 199 255
160 198 255
160 198 255
160 198 255
160 198 255
160 198 255
160 198 255
160 198 255
160 198 255
160 198 255
159 198 255
159 198 255
159 198 255
159 198 255
159 198 255
159 198 255
159 198 255
159 197 255
159 197 255
159 197 255
158 197 255
158 197 255
158 197 255
158 197 255
158 197 255
158 197 255
158 197 255
158 197 255
158 197 255
157 197 255
157 197 255
157 197 255
157 196 255
157 196 255
157 196 255
157 196 255
157 196 255
157 196 255
157 196 255
156 196 255
156 196 255
156 196 255
156 196 255
156 196 255
156 196 255
156 196 255
156 196 255
156 196 255
155 195 255
155 195 255
155 195 255
155 195 255
155 195 255
155 195 255
155 195 255
155 195 255
155 195 255
154 195 255
154 195 255
154 195 255
154 195 255
154 195 255
154 195 255
154 194 255
154 194 255
154 194 255
153 194 255
153 194 255
153 194 255
153 194 255
153 194 255
153 194 255
153 194 255
153 194 255
153 194 255
153 194 255
152 194 255
152 194 255
152 194 255
152 194 255
152 193 255
152 193 255
152 193 255
152 193 255
152 193 255
152 193 255
152 193 255
151 193 255
151 193 255
151 193 255
151 193 255
151 193 255
151 193 255
151 193 255
151 193 255
151 193 255
151 193 255
151 193 255
150 192 255
150 192 255
150 192 255
150 192 255
150 192 255
150 192 255
150 192 255
150 192 255
150 192 255
150 192 255
150 192 255
150 192 255
150 192 255
150 192 255
149 192 255
149 192 255
149 192 255
149 192 255
149 192 255
149 192 255
149 192 255
149 192 255
149 192 255
149 192 255
149 192 255
149 192 255
149 192 255
149 191 255
149 191 255
149 191 255
149 191 255
149 191 255
149 191 255
149 191 255
149 191 255
149 191 255
148 191 255
148 191 255
148 191 255
148 191 255
148 191 255
148 191 255
148 191 255
148 191 255
148 191 255
148 191 255
148 191 255
148 191 255
148 191 255
148 191 255
148 191 255
148 191 255
148 191 255
148 191 255
148 191 255
148 191 255
148 191 255
148 191 255
148 191 255
148 191 255
148 191 255
148 191 255
148 191 255
148 191 255
148 191 255
148 191 255
149 191 255
149 191 255
149 191 255
149 191 255
149 191 255
149 191 255
149 191 255
149 191 255
149 191 255
149 192 255
149 192 255
149 192 255
149 192 255
149 192 255
149 192 255
149 192 255
149 192 255
149 192 255
149 192 255
149 192 255
149 192 255
149 192 255
150 192 255
150 192 255
150 192 255
150 192 255
150 192 255
150 192 255
150 192 255
150 192 255
150 192 255
150 192 255
150 192 255
150 192 255
150 192 255
150 192 255
151 193 255
151 193 255
151 193 255
151 193 255
151 193 255
151 193 255
151 193 255
151 193 255
151 193 255
151 193 255
151 193 255
152 193 255
152 193 255
152 193 255
152 193 255
152 193 255
152 193 255
152 193 255
152 194 255
152 194 255
152 194 255
152 194 255
153 194 255
153 194 255
153 194 255
153 194 255
153 194 255
153 194 255
153 194 255
153 194 255
153 194 255
153 194 255
154 194 255
154 194 255
154 194 255
154 195 255
154 195 255
154 195 255
154 195 255
154 195 255
154 195 255
155 195 255
155 195 255
155 195 255
155 195 255
155 195 255
155 195 255
155 195 255
155 195 255
155 195 255
156 196 255
156 196 255
156 196 255
156 196 255
156 196 255
156 196 255
156 196 255
156 196 255
156 196 255
157 196 255
157 196 255
157 196 255
157 196 255
157 196 255
157 196 255
157 197 255
157 197 255
157 197 255
157 197 255
158 197 255
158 197 255
158 197 255
158 197 255
158 197 255
158 197 255
158 197 255
158 197 255
158 197 255
159 197 255
159 197 255
159 197 255
159 198 255
159 198 255
159 198 255
159 198 255
159 198 255
159 198 255
160 198 255
160 198 255
160 198 255
160 198 255
160 198 255
160 198 255
160 198 255
160 198 255
160 198 255
160 198 255
161 199 255
161 199 255
161 199 255
161 199 255
161 199 255
161 199 255
161 199 255
161 199 255
161 199 255
161 199 255
162 199 255
162 199 255
162 199 255
162 199 255
162 199 255
162 199 255
162 199 255
162 200 255
162 200 255
162 200 255
162 200 255
163 200 255
163 200 255
163 200 255
163 200 255
163 200 255
163 200 255
163 200 255
163 200 255
163 200 255
163 200 255
164 200 255
164 200 255
164 200 255
164 200 255
164 201 255
164 201 255
164 201 255
164 201 255
164 201 255
164 201 255
164 201 255
164 201 255
165 201 255
165 201 255
165 201 255
165 201 255
165 201 255
165 201 255
165 201 255
165 201 255
165 201 255
165 201 255
165 201 255
165 201 255
165 201 255
165 201 255
165 201 255
165 201 255
165 201 255
165 201 255
165 201 255
165 201 255
165 201 255
164 201 255
164 201 255
164 201 255
164 201 255
164 201 255
164 201 255
164 201 255
164 200 255
164 200 255
164 200 255
164 200 255
163 200 255
163 200 255
163 200 255
163 200 255
163 200 255
163 200 255
163 200 255
163 200 255
163 200 255
163 200 255
163 200 255
162 200 255
162 200 255
162 200 255
162 199 255
162 199 255
162 199 255
162 199 255
162 199 255
162 199 255
162 199 255
161 199 255
161 199 255
161 199 255
161 199 255
161 199 255
161 199 255
161 199 255
161 199 255
161 199 255
161 199 255
160 198 255
160 198 255
160 198 255
160 198 255
160 198 255
160 198 255
160 198 255
160 198 255
160 198 255
160 198 255
159 198 255
159 198 255
159 198 255
159 198 255
159 198 255
159 198 255
159 197 255
159 197 255
159 197 255
158 197 255
158 197 255
158 197 255
158 197 255
158 197 255
158 197 255
158 197 255
158 197 255
158 197 255
158 197 255
157 197 255
157 197 255
157 197 255
157 196 255
157 196 255
157 196 255
157 196 255
157 196 255
157 196 255
156 196 255
156 196 255
156 196 255
156 196 255
156 196 255
156 196 255
156 196 255
156 196 255
156 196 255
155 195 255
155 195 255
155 195 255
155 195 255
155 195 255
155 195 255
155 195 255
155 195 255
155 195 255
154 195 255
154 195 255
154 195 255
154 195 255
154 195 255
154 195 255
154 194 255
154 194 255
154 194 255
154 194 255
153 194 255
153 194 255
153 194 255
153 194 255
153 194 255
153 194 255
153 194 255
153 194 255
153 194 255
153 194 255
152 194 255
152 194 255
152 194 255
152 193 255
152 193 255
152 193 255
152 193 255
152 193 255
152 193 255
152 193 255
151 193 255
151 193 255
151 193 255
151 193 255
151 193 255
151 193 255
151 193 255
151 193 255
151 193 255
151 193 255
151 193 255
151 193 255
150 192 255
150 192 255
150 192 255
150 192 255
150 192 255
150 192 255
150 192 255
150 192 255
150 192 255
150 192 255
150 192 255
150 192 255
150 192 255
150 192 255
150 192 255
149 192 255
149 192 255
149 192 255
149 192 255
149 192 255
149 192 255
149 192 255
149 192 255
149 192 255
149 192 255
149 192 255
149 192 255
149 192 255
149 192 255
149 191 255
149 191 255
149 191 255
149 191 255
149 191 255
149 191 255
149 191 255
149 191 255
149 191 255
149 191 255
149 191 255
149 191 255
149 191 255
149 191 255
149 191 255
149 191 255
149 191 255
149 191 255
149 191 255
149 191 255
149 191 255
149 191 255
149 191 255
149 191 255
149 191 255
149 191 255
149 191 255
149 191 255
149 191 255
149 191 255
149 191 255
149 191 255
149 191 255
149 191 255
149 191 255
149 191 255
149 191 255
149 191 255
149 192 255
149 192 255
149 192 255
149 192 255
149 192 255
149 192 255
149 192 255
149 192 255
149 192 255
149 192 255
149 192 255
149 192 255
149 192 255
149 192 255
150 192 255
150 192 255
150 192 255
150 192 255
150 192 255
150 192 255
150 192 255
150 192 255
150 192 255
150 192 255
150 192 255
150 192 255
150 192 255
150 192 255
150 192 255
151 193 255
151 193 255
151 193 255
151 193 255
151 193 255
151 193 255
151 193 255
151 193 255
151 193 255
151 193 255
151 193 255
151 193 255
152 193 255
152 193 255
152 193 255
152 193 255
152 193 255
152 193 255
152 193 255
152 194 255
152 194 255
152 194 255
153 194 255
153 194 255
153 194 255
153 194 255
153 194 255
153 194 255
153 194 255
153 194 255
153 194 255
153 194 255
154 194 255
154 194 255
154 194 255
154 194 255
154 195 255
154 195 255
154 195 255
154 195 255
154 195 255
154 195 255
155 195 255
155 195 255
155 195 255
155 195 255
155 195 255
155 195 255
155 195 255
155 195 255
155 195 255
156 196 255
156 196 255
156 196 255
156 196 255
156 196 255
156 196 255
156 196 255
156 196 255
156 196 255
157 196 255
157 196 255
157 196 255
157 196 255
157 196 255
157 196 255
157 196 255
157 197 255
157 197 255
158 197 255
158 197 255
158 197 255
158 197 255
158 197 255
158 197 255
158 197 255
158 197 255
158 197 255
158 197 255
159 197 255
159 197 255
159 197 255
159 198 255
159 198 255
159 198 255
159 198 255
159 198 255
159 198 255
160 198 255
160 198 255
160 198 255
160 198 255
160 198 255
160 198 255
160 198 255
160 198 255
160 198 255
160 198 255
161 199 255
161 199 255
161 199 255
161 199 255
161 199 255
161 199 255
161 199 255
161 199 255
161 199 255
161 199 255
162 199 255
162 199 255
162 199 255
162 199 255
162 199 255
162 199 255
162 199 255
162 200 255
162 200 255
162 200 255
163 200 255
163 200 255
163 200 255
163 200 255
163 200 255
163 200 255
163 200 255
163 200 255
163 200 255
163 200 255
163 200 255
164 200 255
164 200 255
164 200 255
164 200 255
164 201 255
164 201 255
164 201 255
164 201 255
164 201 255
164 201 255
164 201 255
165 201 255
165 201 255
165 201 255
165 201 255
165 201 255
165 201 255
165 201 255
165 201 255
165 201 255
165 201 255
165 201 255
165 201 255
166 202 255
166 202 255
166 202 255
165 201 255
165 201 255
165 201 255
165 201 255
165 201 255
165 201 255
165 201 255
165 201 255
165 201 255
165 201 255
165 201 255
164 201 255
164 201 255
164 201 255
164 201 255
164 201 255
164 201 255
164 201 255
164 201 255
164 200 255
164 200 255
164 200 255
164 200 255
163 200 255
163 200 255
163 200 255
163 200 255
163 200 255
163 200 255
163 200 255
163 200 255
163 200 255
163 200 255
162 200 255
162 200 255
162 200 255
162 200 255
162 199 255
162 199 255
162 199 255
162 199 255
162 199 255
162 199 255
161 199 255
161 199 255
161 199 255
161 199 255
161 199 255
161 199 255
161 199 255
161 199 255
161 199 255
161 199 255
160 198 255
160 198 255
160 198 255
160 198 255
160 198 255
160 198 255
160 198 255
160 198 255
160 198 255
160 198 255
159 198 255
159 198 255
159 198 255
159 198 255
159 198 255
159 198 255
159 197 255
159 197 255
159 197 255
158 197 255
158 197 255
158 197 255
158 197 255
158 197 255
158 197 255
158 197 255
158 197 255
158 197 255
158 197 255
157 197 255
157 197 255
157 197 255
157 196 255
157 196 255
157 196 255
157 196 255
157 196 255
157 196 255
156 196 255
156 196 255
156 196 255
156 196 255
156 196 255
156 196 255
156 196 255
156 196 255
156 196 255
155 195 255
155 195 255
155 195 255
155 195 255
155 195 255
155 195 255
155 195 255
155 195 255
155 195 255
154 195 255
154 195 255
154 195 255
154 195 255
154 195 255
154 195 255
154 195 255
154 194 255
154 194 255
154 194 255
153 194 255
153 194 255
153 194 255
153 194 255
153 194 255
153 194 255
153 194 255
153 194 255
153 194 255
153 194 255
152 194 255
152 194 255
152 194 255
152 194 255
152 193 255
152 193 255
152 193 255
152 193 255
152 193 255
152 193 255
152 193 255
151 193 255
151 193 255
151 193 255
151 193 255
151 193 255
151 193 255
151 193 255
151 193 255
151 193 255
151 193 255
151 193 255
151 193 255
150 192 255
150 192 255
150 192 255
150 192 255
150 192 255
150 192 255
150 192 255
150 192 255
150 192 255
150 192 255
150 192 255
150 192 255
150 192 255
150 192 255
150 192 255
150 192 255
149 192 255
149 192 255
149 192 255
149 192 255
149 192 255
149 192 255
149 192 255
149 192 255
149 192 255
149 192 255
149 192 255
149 192 255
149 192 255
149 192 255
149 192 255
149 192 255
149 192 255
149 192 255
149 192 255
149 192 255
149 191 255
149 191 255
149 191 255
149 191 255
149 191 255
149 191 255
149 191 255
149 191 255
149 191 255
149 191 255
149 191 255
149 191 255
149 191 255
149 191 255
149 191 255
149 191 255
149 191 255
149 191 255
149 192 255
149 192 255
149 192 255
149 192 255
149 192 255
149 192 255
149 192 255
149 192 255
149 192 255
149 192 255
149 192 255
149 192 255
149 192 255
149 192 255
149 192 255
149 192 255
149 192 255
149 192 255
149 192 255
149 192 255
150 192 255
150 192 255
150 192 255
150 192 255
150 192 255
150 192 255
150 192 255
150 192 255
150 192 255
150 192 255
150 192 255
150 192 255
150 192 255
150 192 255
150 192 255
150 192 255
151 193 255
151 193 255
151 193 255
151 193 255
151 193 255
151 193 255
151 193 255
151 193 255
151 193 255
151 193 255
151 193 255
151 193 255
152 193 255
152 193 255
152 193 255
152 193 255
152 193 255
152 193 255
152 193 255
152 194 255
152 194 255
152 194 255
152 194 255
153 194 255
153 194 255
153 194 255
153 194 255
153 194 255
153 194 255
153 194 255
153 194 255
153 194 255
153 194 255
154 194 255
154 194 255
154 194 255
154 195 255
154 195 255
154 195 255
154 195 255
154 195 255
154 195 255
154 195 255
155 195 255
155 195 255
155 195 255
155 195 255
155 195 255
155 195 255
155 195 255
155 195 255
155 195 255
156 196 255
156 196 255
156 196 255
156 196 255
156 196 255
156 196 255
156 196 255
156 196 255
156 196 255
157 196 255
157 196 255
157 196 255
157 196 255
157 196 255
157 196 255
157 197 255
157 197 255
157 197 255
158 197 255
158 197 255
158 197 255
158 197 255
158 197 255
158 197 255
158 197 255
158 197 255
158 197 255
158 197 255
159 197 255
159 197 255
159 197 255
159 198 255
159 198 255
159 198 255
159 198 255
159 198 255
159 198 255
160 198 255
160 198 255
160 198 255
160 198 255
160 198 255
160 198 255
160 198 255
160 198 255
160 198 255
161 199 255
161 199 255
161 199 255
161 199 255
161 199 255
161 199 255
161 199 255
161 199 255
161 199 255
161 199 255
161 199 255
162 199 255
162 199 255
162 199 255
162 199 255
162 199 255
162 199 255
162 200 255
162 200 255
162 200 255
162 200 255
163 200 255
163 200 255
163 200 255
163 200 255
163 200 255
163 200 255
163 200 255
163 200 255
163 200 255
163 200 255
163 200 255
164 200 255
164 200 255
164 200 255
164 201 255
164 201 255
164 201 255
164 201 255
164 201 255
164 201 255
164 201 255
164 201 255
165 201 255
165 201 255
165 201 255
165 201 255
165 201 255
165 201 255
165 201 255
165 201 255
165 201 255
165 201 255
165 201 255
166 202 255
166 202 255
166 202 255
166 202 255
166 202 255
166 202 255
166 202 255
166 202 255
165 201 255
165 201 255
165 201 255
165 201 255
165 201 255
165 201 255
165 201 255
165 201 255
165 201 255
165 201 255
165 201 255
165 201 255
164 201 255
164 201 255
164 201 255
164 201 255
164 201 255
164 201 255
164 201 255
164 200 255
164 200 255
164 200 255
164 200 255
163 200 255
163 200 255
163 200 255
163 200 255
163 200 255
163 200 255
163 200 255
163 200 255
163 200 255
163 200 255
163 200 255
162 200 255
162 200 255
162 200 255
162 199 255
162 199 255
162 199 255
162 199 255
162 199 255
162 199 255
162 199 255
161 199 255
161 199 255
161 199 255
161 199 255
161 199 255
161 199 255
161 199 255
161 199 255
161 199 255
161 199 255
160 198 255
160 198 255
160 198 255
160 198 255
160 198 255
160 198 255
160 198 255
160 198 255
160 198 255
159 198 255
159 198 255
159 198 255
159 198 255
159 198 255
159 198 255
159 198 255
159 197 255
159 197 255
159 197 255
158 197 255
158 197 255
158 197 255
158 197 255
158 197 255
158 197 255
158 197 255
158 197 255
158 197 255
157 197 255
157 197 255
157 197 255
157 196 255
157 196 255
157 196 255
157 196 255
157 196 255
157 196 255
156 196 255
156 196 255
156 196 255
156 196 255
156 196 255
156 196 255
156 196 255
156 196 255
156 196 255
155 195 255
155 195 255
155 195 255
155 195 255
155 195 255
155 195 255
155 195 255
155 195 255
155 195 255
155 195 255
154 195 255
154 195 255
154 195 255
154 195 255
154 195 255
154 195 255
154 194 255
154 194 255
154 194 255
153 194 255
153 194 255
153 194 255
153 194 255
153 194 255
153 194 255
153 194 255
153 194 255
153 194 255
153 194 255
153 194 255
152 194 255
152 194 255
152 194 255
152 193 255
152 193 255
152 193 255
152 193 255
152 193 255
152 193 255
152 193 255
152 193 255
151 193 255
151 193 255
151 193 255
151 193 255
151 193 255
151 193 255
151 193 255
151 193 255
151 193 255
151 193 255
151 193 255
151 193 255
151 193 255
150 192 255
150 192 255
150 192 255
150 192 255
150 192 255
150 192 255
150 192 255
150 192 255
150 192 255
150 192 255
150 192 255
150 192 255
150 192 255
150 192 255
150 192 255
150 192 255
150 192 255
149 192 255
149 192 255
149 192 255
149 192 255
149 192 255
149 192 255
149 192 255
149 192 255
149 192 255
149 192 255
149 192 255
149 192 255
149 192 255
149 192 255
149 192 255
149 192 255
149 192 255
149 192 255
149 192 255
149 192 255
149 192 255
149 192 255
149 192 255
149 192 255
149 192 255
149 192 255
149 192 255
149 192 255
149 192 255
149 192 255
149 192 255
149 192 255
149 192 255
149 192 255
149 192 255
149 192 255
149 192 255
149 192 255
149 192 255
149 192 255
149 192 255
149 192 255
149 192 255
149 192 255
149 192 255
149 192 255
149 192 255
149 192 255
150 192 255
150 192 255
150 192 255
150 192 255
150 192 255
150 192 255
150 192 255
150 192 255
150 192 255
150 192 255
150 192 255
150 192 255
150 192 255
150 192 255
150 192 255
150 192 255
150 192 255
150 192 255
151 193 255
151 193 255
151 193 255
151 193 255
151 193 255
151 193 255
151 193 255
151 193 255
151 193 255
151 193 255
151 193 255
151 193 255
152 193 255
152 193 255
152 193 255
152 193 255
152 193 255
152 193 255
152 193 255
152 193 255
152 194 255
152 194 255
152 194 255
153 194 255
153 194 255
153 194 255
153 194 255
153 194 255
153 194 255
153 194 255
153 194 255
153 194 255
153 194 255
153 194 255
154 194 255
154 194 255
154 194 255
154 195 255
154 195 255
154 195 255
154 195 255
154 195 255
154 195 255
155 195 255
155 195 255
155 195 255
155 195 255
155 195 255
155 195 255
155 195 255
155 195 255
155 195 255
156 196 255
156 196 255
156 196 255
156 196 255
156 196 255
156 196 255
156 196 255
156 196 255
156 196 255
156 196 255
157 196 255
157 196 255
157 196 255
157 196 255
157 196 255
157 196 255
157 197 255
157 197 255
157 197 255
158 197 255
158 197 255
158 197 255
158 197 255
158 197 255
158 197 255
158 197 255
158 197 255
158 197 255
159 197 255
159 197 255
159 197 255
159 198 255
159 198 255
159 198 255
159 198 255
159 198 255
159 198 255
159 198 255
160 198 255
160 198 255
160 198 255
160 198 255
160 198 255
160 198 255
160 198 255
160 198 255
160 198 255
161 199 255
161 199 255
161 199 255
161 199 255
161 199 255
161 199 255
161 199 255
161 199 255
161 199 255
161 199 255
162 199 255
162 199 255
162 199 255
162 199 255
162 199 255
162 199 255
162 199 255
162 200 255
162 200 255
162 200 255
163 200 255
163 200 255
163 200 255
163 200 255
163 200 255
163 200 255
163 200 255
163 200 255
163 200 255
163 200 255
163 200 255
164 200 255
164 200 255
164 200 255
164 200 255
164 201 255
164 201 255
164 201 255
164 201 255
164 201 255
164 201 255
164 201 255
165 201 255
165 201 255
165 201 255
165 201 255
165 201 255
165 201 255
165 201 255
165 201 255
165 201 255
165 201 255
165 201 255
165 201 255
166 202 255
166 202 255
166 202 255
166 202 255
166 202 255
166 202 255
166 202 255
166 202 255
166 202 255
166 202 255
166 202 255
166 202 255
166 202 255
165 201 255
165 201 255
165 201 255
165 201 255
165 201 255
165 201 255
165 201 255
165 201 255
165 201 255
165 201 255
165 201 255
164 201 255
164 201 255
164 201 255
164 201 255
164 201 255
164 201 255
164 201 255
164 201 255
164 200 255
164 200 255
164 200 255
163 200 255
163 200 255
163 200 255
163 200 255
163 200 255
163 200 255
163 200 255
163 200 255
163 200 255
163 200 255
163 200 255
162 200 255
162 200 255
162 200 255
162 200 255
162 199 255
162 199 255
162 199 255
162 199 255
162 199 255
162 199 255
161 199 255
161 199 255
161 199 255
161 199 255
161 199 255
161 199 255
161 199 255
161 199 255
161 199 255
161 199 255
160 198 255
160 198 255
160 198 255
160 198 255
160 198 255
160 198 255
160 198 255
160 198 255
160 198 255
159 198 255
159 198 255
159 198 255
159 198 255
159 198 255
159 198 255
159 198 255
159 197 255
159 197 255
159 197 255
158 197 255
158 197 255
158 197 255
158 197 255
158 197 255
158 197 255
158 197 255
158 197 255
158 197 255
157 197 255
157 197 255
157 197 255
157 196 255
157 196 255
157 196 255
157 196 255
157 196 255
157 196 255
156 196 255
156 196 255
156 196 255
156 196 255
156 196 255
156 196 255
156 196 255
156 196 255
156 196 255
156 196 255
155 195 255
155 195 255
155 195 255
155 195 255
155 195 255
155 195 255
155 195 255
155 195 255
155 195 255
154 195 255
154 195 255
154 195 255
154 195 255
154 195 255
154 195 255
154 195 255
154 194 255
154 194 255
154 194 255
153 194 255
153 194 255
153 194 255
153 194 255
153 194 255
153 194 255
153 194 255
153 194 255
153 194 255
153 194 255
152 194 255
152 194 255
152 194 255
152 194 255
152 193 255
152 193 255
152 193 255
152 193 255
152 193 255
152 193 255
152 193 255
152 193 255
151 193 255
151 193 255
151 193 255
151 193 255
151 193 255
151 193 255
151 193 255
151 193 255
151 193 255
151 193 255
151 193 255
151 193 255
151 193 255
150 192 255
150 192 255
150 192 255
150 192 255
150 192 255
150 192 255
150 192 255
150 192 255
150 192 255
150 192 255
150 192 255
150 192 255
150 192 255
150 192 255
150 192 255
150 192 255
150 192 255
150 192 255
150 192 255
150 192 255
150 192 255
149 192 255
149 192 255
149 192 255
149 192 255
149 192 255
149 192 255
149 192 255
149 192 255
149 192 255
149 192 255
149 192 255
149 192 255
149 192 255
149 192 255
149 192 255
149 192 255
149 192 255
149 192 255
149 192 255
149 192 255
149 192 255
149 192 255
149 192 255
149 192 255
149 192 255
149 192 255
149 192 255
149 192 255
149 192 255
149 192 255
149 192 255
149 192 255
149 192 255
149 192 255
149 192 255
150 192 255
150 192 255
150 192 255
150 192 255
150 192 255
150 192 255
150 192 255
150 192 255
150 192 255
150 192 255
150 192 255
150 192 255
150 192 255
150 192 255
150 192 255
150 192 255
150 192 255
150 192 255
150 192 255
150 192 255
151 193 255
151 193 255
151 193 255
151 193 255
151 193 255
151 193 255
151 193 255
151 193 255
151 193 255
151 193 255
151 193 255
151 193 255
151 193 255
152 193 255
152 193 255
152 193 255
152 193 255
152 193 255
152 193 255
152 193 255
152 193 255
152 194 255
152 194 255
152 194 255
152 194 255
153 194 255
153 194 255
153 194 255
153 194 255
153 194 255
153 194 255
153 194 255
153 194 255
153 194 255
153 194 255
154 194 255
154 194 255
154 194 255
154 195 255
154 195 255
154 195 255
154 195 255
154 195 255
154 195 255
154 195 255
155 195 255
155 195 255
155 195 255
155 195 255
155 195 255
155 195 255
155 195 255
155 195 255
155 195 255
156 196 255
156 196 255
156 196 255
156 196 255
156 196 255
156 196 255
156 196 255
156 196 255
156 196 255
156 196 255
157 196 255
157 196 255
157 196 255
157 196 255
157 196 255
157 196 255
157 197 255
157 197 255
157 197 255
158 197 255
158 197 255
158 197 255
158 197 255
158 197 255
158 197 255
158 197 255
158 197 255
158 197 255
159 197 255
159 197 255
159 197 255
159 198 255
159 198 255
159 198 255
159 198 255
159 198 255
159 198 255
160 198 255
160 198 255
160 198 255
160 198 255
160 198 255
160 198 255
160 198 255
160 198 255
160 198 255
160 198 255
161 199 255
161 199 255
161 199 255
161 199 255
161 199 255
161 199 255
161 199 255
161 199 255
161 199 255
161 199 255
162 199 255
162 199 255
162 199 255
162 199 255
162 199 255
162 199 255
162 199 255
162 200 255
162 200 255
162 200 255
163 200 255
163 200 255
163 200 255
163 200 255
163 200 255
163 200 255
163 200 255
163 200 255
163 200 255
163 200 255
163 200 255
164 200 255
164 200 255
164 200 255
164 201 255
164 201 255
164 201 255
164 201 255
164 201 255
164 201 255
164 201 255
164 201 255
165 201 255
165 201 255
165 201 255
165 201 255
165 201 255
165 201 255
165 201 255
165 201 255
165 201 255
165 201 255
165 201 255
166 202 255
166 202 255
166 202 255
166 202 255
166 202 255
166 202 255
166 202 255
166 202 255
166 202 255
166 202 255
166 202 255
166 202 255
166 202 255
166 202 255
166 202 255
166 202 255
166 202 255
166 202 255
165 201 255
165 201 255
165 201 255
165 201 255
165 201 255
165 201 255
165 201 255
165 201 255
165 201 255
165 201 255
165 201 255
165 201 255
164 201 255
164 201 255
164 201 255
164 201 255
164 201 255
164 201 255
164 201 255
164 200 255
164 200 255
164 200 255
164 200 255
163 200 255
163 200 255
163 200 255
163 200 255
163 200 255
163 200 255
163 200 255
163 200 255
163 200 255
163 200 255
162 200 255
162 200 255
162 200 255
162 200 255
162 199 255
162 199 255
162 199 255
162 199 255
162 199 255
162 199 255
162 199 255
161 199 255
161 199 255
161 199 255
161 199 255
161 199 255
161 199 255
161 199 255
161 199 255
161 199 255
160 198 255
160 198 255
160 198 255
160 198 255
160 198 255
160 198 255
160 198 255
160 198 255
160 198 255
160 198 255
159 198 255
159 198 255
159 198 255
159 198 255
159 198 255
159 198 255
159 197 255
159 197 255
159 197 255
158 197 255
158 197 255
158 197 255
158 197 255
158 197 255
158 197 255
158 197 255
158 197 255
158 197 255
158 197 255
157 197 255
157 197 255
157 196 255
157 196 255
157 196 255
157 196 255
157 196 255
157 196 255
157 196 255
156 196 255
156 196 255
156 196 255
156 196 255
156 196 255
156 196 255
156 196 255
156 196 255
156 196 255
155 195 255
155 195 255
155 195 255
155 195 255
155 195 255
155 195 255
155 195 255
155 195 255
155 195 255
155 195 255
154 195 255
154 195 255
154 195 255
154 195 255
154 195 255
154 195 255
154 194 255
154 194 255
154 194 255
153 194 255
153 194 255
153 194 255
153 194 255
153 194 255
153 194 255
153 194 255
153 194 255
153 194 255
153 194 255
153 194 255
152 194 255
152 194 255
152 194 255
152 194 255
152 193 255
152 193 255
152 193 255
152 193 255
152 193 255
152 193 255
152 193 255
152 193 255
151 193 255
151 193 255
151 193 255
151 193 255
151 193 255
151 193 255
151 193 255
151 193 255
151 193 255
151 193 255
151 193 255
151 193 255
151 193 255
151 193 255
150 192 255
150 192 255
150 192 255
150 192 255
150 192 255
150 192 255
150 192 255
150 192 255
150 192 255
150 192 255
150 192 255
150 192 255
150 192 255
150 192 255
150 192 255
150 192 255
150 192 255
150 192 255
150 192 255
150 192 255
150 192 255
150 192 255
150 192 255
150 192 255
150 192 255
150 192 255
150 192 255
149 192 255
149 192 255
149 192 255
149 192 255
149 192 255
149 192 255
149 192 255
149 192 255
149 192 255
149 192 255
149 192 255
149 192 255
149 192 255
150 192 255
150 192 255
150 192 255
150 192 255
150 192 255
150 192 255
150 192 255
150 192 255
150 192 255
150 192 255
150 192 255
150 192 255
150 192 255
150 192 255
150 192 255
150 192 255
150 192 255
150 192 255
150 192 255
150 192 255
150 192 255
150 192 255
150 192 255
150 192 255
150 192 255
150 192 255
150 192 255
150 192 255
151 193 255
151 193 255
151 193 255
151 193 255
151 193 255
151 193 255
151 193 255
151 193 255
151 193 255
151 193 255
151 193 255
151 193 255
151 193 255
151 193 255
152 193 255
152 193 255
152 193 255
152 193 255
152 193 255
152 193 255
152 193 255
152 193 255
152 194 255
152 194 255
152 194 255
152 194 255
153 194 255
153 194 255
153 194 255
153 194 255
153 194 255
153 194 255
153 194 255
153 194 255
153 194 255
153 194 255
153 194 255
154 194 255
154 194 255
154 194 255
154 195 255
154 195 255
154 195 255
154 195 255
154 195 255
154 195 255
155 195 255
155 195 255
155 195 255
155 195 255
155 195 255
155 195 255
155 195 255
155 195 255
155 195 255
155 195 255
156 196 255
156 196 255
156 196 255
156 196 255
156 196 255
156 196 255
156 196 255
156 196 255
156 196 255
157 196 255
157 196 255
157 196 255
157 196 255
157 196 255
157 196 255
157 197 255
157 197 255
157 197 255
158 197 255
158 197 255
158 197 255
158 197 255
158 197 255
158 197 255
158 197 255
158 197 255
158 197 255
158 197 255
159 197 255
159 197 255
159 197 255
159 198 255
159 198 255
159 198 255
159 198 255
159 198 255
159 198 255
160 198 255
160 198 255
160 198 255
160 198 255
160 198 255
160 198 255
160 198 255
160 198 255
160 198 255
160 198 255
161 199 255
161 199 255
161 199 255
161 199 255
161 199 255
161 199 255
161 199 255
161 199 255
161 199 255
162 199 255
162 199 255
162 199 255
162 199 255
162 199 255
162 199 255
162 199 255
162 200 255
162 200 255
162 200 255
163 200 255
163 200 255
163 200 255
163 200 255
163 200 255
163 200 255
163 200 255
163 200 255
163 200 255
163 200 255
163 200 255
164 200 255
164 200 255
164 200 255
164 200 255
164 201 255
164 201 255
164 201 255
164 201 255
164 201 255
164 201 255
164 201 255
165 201 255
165 201 255
165 201 255
165 201 255
165 201 255
165 201 255
165 201 255
165 201 255
165 201 255
165 201 255
165 201 255
166 202 255
166 202 255
166 202 255
166 202 255
166 202 255
166 202 255
166 202 255
166 202 255
166 202 255
166 202 255
166 202 255
167 202 255
166 202 255
166 202 255
166 202 255
166 202 255
166 202 255
166 202 255
166 202 255
166 202 255
166 202 255
166 202 255
166 202 255
166 202 255
165 201 255
165 201 255
165 201 255
165 201 255
165 201 255
165 201 255
165 201 255
165 201 255
165 201 255
165 201 255
165 201 255
164 201 255
164 201 255
164 201 255
164 201 255
164 201 255
164 201 255
164 201 255
164 201 255
164 200 255
164 200 255
164 200 255
163 200 255
163 200 255
163 200 255
163 200 255
163 200 255
163 200 255
163 200 255
163 200 255
163 200 255
163 200 255
163 200 255
162 200 255
162 200 255
162 200 255
162 199 255
162 199 255
162 199 255
162 199 255
162 199 255
162 199 255
162 199 255
161 199 255
161 199 255
161 199 255
161 199 255
161 199 255
161 199 255
161 199 255
161 199 255
161 199 255
161 199 255
160 198 255
160 198 255
160 198 255
160 198 255
160 198 255
160 198 255
160 198 255
160 198 255
160 198 255
159 198 255
159 198 255
159 198 255
159 198 255
159 198 255
159 198 255
159 198 255
159 197 255
159 197 255
159 197 255
158 197 255
158 197 255
158 197 255
158 197 255
158 197 255
158 197 255
158 197 255
158 197 255
158 197 255
157 197 255
157 197 255
157 197 255
157 196 255
157 196 255
157 196 255
157 196 255
157 196 255
157 196 255
156 196 255
156 196 255
156 196 255
156 196 255
156 196 255
156 196 255
156 196 255
156 196 255
156 196 255
155 195 255
155 195 255
155 195 255
155 195 255
155 195 255
155 195 255
155 195 255
155 195 255
155 195 255
155 195 255
154 195 255
154 195 255
154 195 255
154 195 255
154 195 255
154 195 255
154 195 255
154 194 255
154 194 255
154 194 255
153 194 255
153 194 255
153 194 255
153 194 255
153 194 255
153 194 255
153 194 255
153 194 255
153 194 255
153 194 255
153 194 255
152 194 255
152 194 255
152 194 255
152 194 255
152 193 255
152 193 255
152 193 255
152 193 255
152 193 255
152 193 255
152 193 255
152 193 255
151 193 255
151 193 255
151 193 255
151 193 255
151 193 255
151 193 255
151 193 255
151 193 255
151 193 255
151 193 255
151 193 255
151 193 255
151 193 255
151 193 255
151 193 255
151 193 255
150 192 255
150 192 255
150 192 255
150 192 255
150 192 255
150 192 255
150 192 255
150 192 255
150 192 255
150 192 255
150 192 255
150 192 255
150 192 255
150 192 255
150 192 255
150 192 255
150 192 255
150 192 255
150 192 255
150 192 255
150 192 255
150 192 255
150 192 255
150 192 255
150 192 255
150 192 255
150 192 255
150 192 255
150 192 255
150 192 255
150 192 255
150 192 255
150 192 255
150 192 255
150 192 255
150 192 255
150 192 255
150 192 255
150 192 255
150 192 255
150 192 255
150 192 255
150 192 255
150 192 255
150 192 255
150 192 255
150 192 255
150 192 255
150 192 255
150 192 255
150 192 255
150 192 255
150 192 255
150 192 255
150 192 255
150 192 255
150 192 255
150 192 255
151 193 255
151 193 255
151 193 255
151 193 255
151 193 255
151 193 255
151 193 255
151 193 255
151 193 255
151 193 255
151 193 255
151 193 255
151 193 255
151 193 255
151 193 255
151 193 255
152 193 255
152 193 255
152 193 255
152 193 255
152 193 255
152 193 255
152 193 255
152 193 255
152 194 255
152 194 255
152 194 255
152 194 255
153 194 255
153 194 255
153 194 255
153 194 255
153 194 255
153 194 255
153 194 255
153 194 255
153 194 255
153 194 255
153 194 255
154 194 255
154 194 255
154 194 255
154 194 255
154 195 255
154 195 255
154 195 255
154 195 255
154 195 255
154 195 255
155 195 255
155 195 255
155 195 255
155 195 255
155 195 255
155 195 255
155 195 255
155 195 255
155 195 255
155 195 255
156 196 255
156 196 255
156 196 255
156 196 255
156 196 255
156 196 255
156 196 255
156 196 255
156 196 255
157 196 255
157 196 255
157 196 255
157 196 255
157 196 255
157 196 255
157 197 255
157 197 255
157 197 255
158 197 255
158 197 255
158 197 255
158 197 255
158 197 255
158 197 255
158 197 255
158 197 255
158 197 255
159 197 255
159 197 255
159 197 255
159 197 255
159 198 255
159 198 255
159 198 255
159 198 255
159 198 255
159 198 255
160 198 255
160 198 255
160 198 255
160 198 255
160 198 255
160 198 255
160 198 255
160 198 255
160 198 255
161 199 255
161 199 255
161 199 255
161 199 255
161 199 255
161 199 255
161 199 255
161 199 255
161 199 255
161 199 255
162 199 255
162 199 255
162 199 255
162 199 255
162 199 255
162 199 255
162 199 255
162 200 255
162 200 255
162 200 255
163 200 255
163 200 255
163 200 255
163 200 255
163 200 255
163 200 255
163 200 255
163 200 255
163 200 255
163 200 255
163 200 255
164 200 255
164 200 255
164 200 255
164 201 255
164 201 255
164 201 255
164 201 255
164 201 255
164 201 255
164 201 255
164 201 255
165 201 255
165 201 255
165 201 255
165 201 255
165 201 255
165 201 255
165 201 255
165 201 255
165 201 255
165 201 255
165 201 255
166 202 255
166 202 255
166 202 255
166 202 255
166 202 255
166 202 255
166 202 255
166 202 255
166 202 255
166 202 255
166 202 255
166 202 255
167 202 255
167 202 255
167 202 255
167 202 255
167 202 255
166 202 255
166 202 255
166 202 255
166 202 255
166 202 255
166 202 255
166 202 255
166 202 255
166 202 255
166 202 255
166 202 255
166 202 255
165 201 255
165 201 255
165 201 255
165 201 255
165 201 255
165 201 255
165 201 255
165 201 255
165 201 255
165 201 255
165 201 255
164 201 255
164 201 255
164 201 255
164 201 255
164 201 255
164 201 255
164 201 255
164 200 255
164 200 255
164 200 255
164 200 255
163 200 255
163 200 255
163 200 255
163 200 255
163 200 255
163 200 255
163 200 255
163 200 255
163 200 255
163 200 255
162 200 255
162 200 255
162 200 255
162 200 255
162 199 255
162 199 255
162 199 255
162 199 255
162 199 255
162 199 255
161 199 255
161 199 255
161 199 255
161 199 255
161 199 255
161 199 255
161 199 255
161 199 255
161 199 255
161 199 255
160 198 255
160 198 255
160 198 255
160 198 255
160 198 255
160 198 255
160 198 255
160 198 255
160 198 255
159 198 255
159 198 255
159 198 255
159 198 255
159 198 255
159 198 255
159 198 255
159 197 255
159 197 255
159 197 255
158 197 255
158 197 255
158 197 255
158 197 255
158 197 255
158 197 255
158 197 255
158 197 255
158 197 255
157 197 255
157 197 255
157 197 255
157 196 255
157 196 255
157 196 255
157 196 255
157 196 255
157 196 255
156 196 255
156 196 255
156 196 255
156 196 255
156 196 255
156 196 255
156 196 255
156 196 255
156 196 255
156 196 255
155 195 255
155 195 255
155 195 255
155 195 255
155 195 255
155 195 255
155 195 255
155 195 255
155 195 255
154 195 255
154 195 255
154 195 255
154 195 255
154 195 255
154 195 255
154 195 255
154 194 255
154 194 255
154 194 255
154 194 255
153 194 255
153 194 255
153 194 255
153 194 255
153 194 255
153 194 255
153 194 255
153 194 255
153 194 255
153 194 255
153 194 255
152 194 255
152 194 255
152 194 255
152 194 255
152 193 255
152 193 255
152 193 255
152 193 255
152 193 255
152 193 255
152 193 255
152 193 255
152 193 255
151 193 255
151 193 255
151 193 255
151 193 255
151 193 255
151 193 255
151 193 255
151 193 255
151 193 255
151 193 255
151 193 255
151 193 255
151 193 255
151 193 255
151 193 255
151 193 255
151 193 255
150 192 255
150 192 255
150 192 255
150 192 255
150 192 255
150 192 255
150 192 255
150 192 255
150 192 255
150 192 255
150 192 255
150 192 255
150 192 255
150 192 255
150 192 255
150 192 255
150 192 255
150 192 255
150 192 255
150 192 255
150 192 255
150 192 255
150 192 255
150 192 255
150 192 255
150 192 255
150 192 255
150 192 255
150 192 255
150 192 255
150 192 255
150 192 255
150 192 255
150 192 255
150 192 255
150 192 255
150 192 255
150 192 255
150 192 255
150 192 255
150 192 255
150 192 255
150 192 255
150 192 255
150 192 255
150 192 255
150 192 255
150 192 255
151 193 255
151 193 255
151 193 255
151 193 255
151 193 255
151 193 255
151 193 255
151 193 255
151 193 255
151 193 255
151 193 255
151 193 255
151 193 255
151 193 255
151 193 255
151 193 255
151 193 255
152 193 255
152 193 255
152 193 255
152 193 255
152 193 255
152 193 255
152 193 255
152 193 255
152 193 255
152 194 255
152 194 255
152 194 255
152 194 255
153 194 255
153 194 255
153 194 255
153 194 255
153 194 255
153 194 255
153 194 255
153 194 255
153 194 255
153 194 255
153 194 255
154 194 255
154 194 255
154 194 255
154 194 255
154 195 255
154 195 255
154 195 255
154 195 255
154 195 255
154 195 255
155 195 255
155 195 255
155 195 255
155 195 255
155 195 255
155 195 255
155 195 255
155 195 255
155 195 255
155 195 255
156 196 255
156 196 255
156 196 255
156 196 255
156 196 255
156 196 255
156 196 255
156 196 255
156 196 255
156 196 255
157 196 255
157 196 255
157 196 255
157 196 255
157 196 255
157 196 255
157 197 255
157 197 255
157 197 255
158 197 255
158 197 255
158 197 255
158 197 255
158 197 255
158 197 255
158 197 255
158 197 255
158 197 255
159 197 255
159 197 255
159 197 255
159 198 255
159 198 255
159 198 255
159 198 255
159 198 255
159 198 255
159 198 255
160 198 255
160 198 255
160 198 255
160 198 255
160 198 255
160 198 255
160 198 255
160 198 255
160 198 255
161 199 255
161 199 255
161 199 255
161 199 255
161 199 255
161 199 255
161 199 255
161 199 255
161 199 255
161 199 255
162 199 255
162 199 255
162 199 255
162 199 255
162 199 255
162 199 255
162 200 255
162 200 255
162 200 255
162 200 255
163 200 255
163 200 255
163 200 255
163 200 255
163 200 255
163 200 255
163 200 255
163 200 255
163 200 255
163 200 255
164 200 255
164 200 255
164 200 255
164 200 255
164 201 255
164 201 255
164 201 255
164 201 255
164 201 255
164 201 255
164 201 255
165 201 255
165 201 255
165 201 255
165 201 255
165 201 255
165 201 255
165 201 255
165 201 255
165 201 255
165 201 255
165 201 255
166 202 255
166 202 255
166 202 255
166 202 255
166 202 255
166 202 255
166 202 255
166 202 255
166 202 255
166 202 255
166 202 255
166 202 255
167 202 255
167 202 255
167 202 255
167 202 255
167 202 255
167 202 255
167 202 255
167 202 255
167 202 255
167 202 255
166 202 255
166 202 255
166 202 255
166 202 255
166 202 255
166 202 255
166 202 255
166 202 255
166 202 255
166 202 255
166 202 255
166 202 255
165 201 255
165 201 255
165 201 255
165 201 255
165 201 255
165 201 255
165 201 255
165 201 255
165 201 255
165 201 255
165 201 255
165 201 255
164 201 255
164 201 255
164 201 255
164 201 255
164 201 255
164 201 255
164 201 255
164 200 255
164 200 255
164 200 255
163 200 255
163 200 255
163 200 255
163 200 255
163 200 255
163 200 255
163 200 255
163 200 255
163 200 255
163 200 255
163 200 255
162 200 255
162 200 255
162 200 255
162 199 255
162 199 255
162 199 255
162 199 255
162 199 255
162 199 255
162 199 255
161 199 255
161 199 255
161 199 255
161 199 255
161 199 255
161 199 255
161 199 255
161 199 255
161 199 255
160 198 255
160 198 255
160 198 255
160 198 255
160 198 255
160 198 255
160 198 255
160 198 255
160 198 255
160 198 255
159 198 255
159 198 255
159 198 255
159 198 255
159 198 255
159 198 255
159 197 255
159 197 255
159 197 255
158 197 255
158 197 255
158 197 255
158 197 255
158 197 255
158 197 255
158 197 255
158 197 255
158 197 255
158 197 255
157 197 255
157 197 255
157 197 255
157 196 255
157 196 255
157 196 255
157 196 255
157 196 255
157 196 255
156 196 255
156 196 255
156 196 255
156 196 255
156 196 255
156 196 255
156 196 255
156 196 255
156 196 255
155 195 255
155 195 255
155 195 255
155 195 255
155 195 255
155 195 255
155 195 255
155 195 255
155 195 255
155 195 255
154 195 255
154 195 255
154 195 255
154 195 255
154 195 255
154 195 255
154 195 255
154 194 255
154 194 255
154 194 255
153 194 255
153 194 255
153 194 255
153 194 255
153 194 255
153 194 255
153 194 255
153 194 255
153 194 255
153 194 255
153 194 255
153 194 255
152 194 255
152 194 255
152 194 255
152 194 255
152 193 255
152 193 255
152 193 255
152 193 255
152 193 255
152 193 255
152 193 255
152 193 255
152 193 255
152 193 255
151 193 255
151 193 255
151 193 255
151 193 255
151 193 255
151 193 255
151 193 255
151 193 255
151 193 255
151 193 255
151 193 255
151 193 255
151 193 255
151 193 255
151 193 255
151 193 255
151 193 255
151 193 255
151 193 255
150 192 255
150 192 255
150 192 255
150 192 255
150 192 255
150 192 255
150 192 255
150 192 255
150 192 255
150 192 255
150 192 255
150 192 255
150 192 255
150 192 255
150 192 255
150 192 255
150 192 255
150 192 255
150 192 255
150 192 255
150 192 255
150 192 255
150 192 255
150 192 255
150 192 255
150 192 255
150 192 255
150 192 255
150 192 255
150 192 255
150 192 255
150 192 255
150 192 255
150 192 255
150 192 255
151 193 255
151 193 255
151 193 255
151 193 255
151 193 255
151 193 255
151 193 255
151 193 255
151 193 255
151 193 255
151 193 255
151 193 255
151 193 255
151 193 255
151 193 255
151 193 255
151 193 255
151 193 255
151 193 255
151 193 255
151 193 255
152 193 255
152 193 255
152 193 255
152 193 255
152 193 255
152 193 255
152 193 255
152 193 255
152 193 255
152 194 255
152 194 255
152 194 255
152 194 255
153 194 255
153 194 255
153 194 255
153 194 255
153 194 255
153 194 255
153 194 255
153 194 255
153 194 255
153 194 255
153 194 255
153 194 255
154 194 255
154 194 255
154 194 255
154 195 255
154 195 255
154 195 255
154 195 255
154 195 255
154 195 255
154 195 255
155 195 255
155 195 255
155 195 255
155 195 255
155 195 255
155 195 255
155 195 255
155 195 255
155 195 255
155 195 255
156 196 255
156 196 255
156 196 255
156 196 255
156 196 255
156 196 255
156 196 255
156 196 255
156 196 255
157 196 255
157 196 255
157 196 255
157 196 255
157 196 255
157 196 255
157 197 255
157 197 255
157 197 255
157 197 255
158 197 255
158 197 255
158 197 255
158 197 255
158 197 255
158 197 255
158 197 255
158 197 255
158 197 255
159 197 255
159 197 255
159 197 255
159 198 255
159 198 255
159 198 255
159 198 255
159 198 255
159 198 255
160 198 255
160 198 255
160 198 255
160 198 255
160 198 255
160 198 255
160 198 255
160 198 255
160 198 255
160 198 255
161 199 255
161 199 255
161 199 255
161 199 255
161 199 255
161 199 255
161 199 255
161 199 255
161 199 255
162 199 255
162 199 255
162 199 255
162 199 255
162 199 255
162 199 255
162 199 255
162 200 255
162 200 255
162 200 255
163 200 255
163 200 255
163 200 255
163 200 255
163 200 255
163 200 255
163 200 255
163 200 255
163 200 255
163 200 255
164 200 255
164 200 255
164 200 255
164 200 255
164 201 255
164 201 255
164 201 255
164 201 255
164 201 255
164 201 255
164 201 255
165 201 255
165 201 255
165 201 255
165 201 255
165 201 255
165 201 255
165 201 255
165 201 255
165 201 255
165 201 255
165 201 255
165 201 255
166 202 255
166 202 255
166 202 255
166 202 255
166 202 255
166 202 255
166 202 255
166 202 255
166 202 255
166 202 255
166 202 255
166 202 255
167 202 255
167 202 255
167 202 255
167 202 255
167 202 255
167 202 255
167 203 255
167 202 255
167 202 255
167 202 255
167 202 255
167 202 255
167 202 255
167 202 255
167 202 255
166 202 255
166 202 255
166 202 255
166 202 255
166 202 255
166 202 255
166 202 255
166 202 255
166 202 255
166 202 255
166 202 255
166 202 255
165 201 255
165 201 255
165 201 255
165 201 255
165 201 255
165 201 255
165 201 255
165 201 255
165 201 255
165 201 255
165 201 255
164 201 255
164 201 255
164 201 255
164 201 255
164 201 255
164 201 255
164 201 255
164 200 255
164 200 255
164 200 255
164 200 255
163 200 255
163 200 255
163 200 255
163 200 255
163 200 255
163 200 255
163 200 255
163 200 255
163 200 255
163 200 255
162 200 255
162 200 255
162 200 255
162 200 255
162 199 255
162 199 255
162 199 255
162 199 255
162 199 255
162 199 255
161 199 255
161 199 255
161 199 255
161 199 255
161 199 255
161 199 255
161 199 255
161 199 255
161 199 255
161 199 255
160 198 255
160 198 255
160 198 255
160 198 255
160 198 255
160 198 255
160 198 255
160 198 255
160 198 255
159 198 255
159 198 255
159 198 255
159 198 255
159 198 255
159 198 255
159 198 255
159 197 255
159 197 255
159 197 255
158 197 255
158 197 255
158 197 255
158 197 255
158 197 255
158 197 255
158 197 255
158 197 255
158 197 255
157 197 255
157 197 255
157 197 255
157 196 255
157 196 255
157 196 255
157 196 255
157 196 255
157 196 255
156 196 255
156 196 255
156 196 255
156 196 255
156 196 255
156 196 255
156 196 255
156 196 255
156 196 255
156 196 255
155 195 255
155 195 255
155 195 255
155 195 255
155 195 255
155 195 255
155 195 255
155 195 255
155 195 255
155 195 255
154 195 255
154 195 255
154 195 255
154 195 255
154 195 255
154 195 255
154 195 255
154 194 255
154 194 255
154 194 255
153 194 255
153 194 255
153 194 255
153 194 255
153 194 255
153 194 255
153 194 255
153 194 255
153 194 255
153 194 255
153 194 255
153 194 255
152 194 255
152 194 255
152 194 255
152 194 255
152 193 255
152 193 255
152 193 255
152 193 255
152 193 255
152 193 255
152 193 255
152 193 255
152 193 255
152 193 255
151 193 255
151 193 255
151 193 255
151 193 255
151 193 255
151 193 255
151 193 255
151 193 255
151 193 255
151 193 255
151 193 255
151 193 255
151 193 255
151 193 255
151 193 255
151 193 255
151 193 255
151 193 255
151 193 255
151 193 255
151 193 255
151 193 255
151 193 255
151 193 255
151 193 255
151 193 255
151 193 255
151 193 255
150 192 255
150 192 255
150 192 255
150 192 255
150 192 255
150 192 255
150 192 255
150 192 255
150 192 255
150 192 255
150 192 255
150 192 255
151 193 255
151 193 255
151 193 255
151 193 255
151 193 255
151 193 255
151 193 255
151 193 255
151 193 255
151 193 255
151 193 255
151 193 255
151 193 255
151 193 255
151 193 255
151 193 255
151 193 255
151 193 255
151 193 255
151 193 255
151 193 255
151 193 255
151 193 255
151 193 255
151 193 255
151 193 255
151 193 255
151 193 255
152 193 255
152 193 255
152 193 255
152 193 255
152 193 255
152 193 255
152 193 255
152 193 255
152 193 255
152 193 255
152 194 255
152 194 255
152 194 255
152 194 255
153 194 255
153 194 255
153 194 255
153 194 255
153 194 255
153 194 255
153 194 255
153 194 255
153 194 255
153 194 255
153 194 255
153 194 255
154 194 255
154 194 255
154 194 255
154 194 255
154 195 255
154 195 255
154 195 255
154 195 255
154 195 255
154 195 255
155 195 255
155 195 255
155 195 255
155 195 255
155 195 255
155 195 255
155 195 255
155 195 255
155 195 255
155 195 255
156 196 255
156 196 255
156 196 255
156 196 255
156 196 255
156 196 255
156 196 255
156 196 255
156 196 255
156 196 255
157 196 255
157 196 255
157 196 255
157 196 255
157 196 255
157 196 255
157 197 255
157 197 255
157 197 255
158 197 255
158 197 255
158 197 255
158 197 255
158 197 255
158 197 255
158 197 255
158 197 255
158 197 255
159 197 255
159 197 255
159 197 255
159 197 255
159 198 255
159 198 255
159 198 255
159 198 255
159 198 255
159 198 255
160 198 255
160 198 255
160 198 255
160 198 255
160 198 255
160 198 255
160 198 255
160 198 255
160 198 255
161 199 255
161 199 255
161 199 255
161 199 255
161 199 255
161 199 255
161 199 255
161 199 255
161 199 255
161 199 255
162 199 255
162 199 255
162 199 255
162 199 255
162 199 255
162 199 255
162 199 255
162 200 255
162 200 255
162 200 255
163 200 255
163 200 255
163 200 255
163 200 255
163 200 255
163 200 255
163 200 255
163 200 255
163 200 255
163 200 255
164 200 255
164 200 255
164 200 255
164 200 255
164 201 255
164 201 255
164 201 255
164 201 255
164 201 255
164 201 255
164 201 255
165 201 255
165 201 255
165 201 255
165 201 255
165 201 255
165 201 255
165 201 255
165 201 255
165 201 255
165 201 255
165 201 255
166 202 255
166 202 255
166 202 255
166 202 255
166 202 255
166 202 255
166 202 255
166 202 255
166 202 255
166 202 255
166 202 255
166 202 255
167 202 255
167 202 255
167 202 255
167 202 255
167 202 255
167 202 255
167 202 255
167 202 255
167 203 255
167 203 255
167 203 255
167 203 255
167 203 255
167 202 255
167 202 255
167 202 255
167 202 255
167 202 255
167 202 255
167 202 255
167 202 255
166 202 255
166 202 255
166 202 255
166 202 255
166 202 255
166 202 255
166 202 255
166 202 255
166 202 255
166 202 255
166 202 255
166 202 255
165 201 255
165 201 255
165 201 255
165 201 255
165 201 255
165 201 255
165 201 255
165 201 255
165 201 255
165 201 255
165 201 255
164 201 255
164 201 255
164 201 255
164 201 255
164 201 255
164 201 255
164 201 255
164 200 255
164 200 255
164 200 255
163 200 255
163 200 255
163 200 255
163 200 255
163 200 255
163 200 255
163 200 255
163 200 255
163 200 255
163 200 255
163 200 255
162 200 255
162 200 255
162 200 255
162 199 255
162 199 255
162 199 255
162 199 255
162 199 255
162 199 255
162 199 255
161 199 255
161 199 255
161 199 255
161 199 255
161 199 255
161 199 255
161 199 255
161 199 255
161 199 255
160 198 255
160 198 255
160 198 255
160 198 255
160 198 255
160 198 255
160 198 255
160 198 255
160 198 255
160 198 255
159 198 255
159 198 255
159 198 255
159 198 255
159 198 255
159 198 255
159 197 255
159 197 255
159 197 255
158 197 255
158 197 255
158 197 255
158 197 255
158 197 255
158 197 255
158 197 255
158 197 255
158 197 255
157 197 255
157 197 255
157 197 255
157 196 255
157 196 255
157 196 255
157 196 255
157 196 255
157 196 255
157 196 255
156 196 255
156 196 255
156 196 255
156 196 255
156 196 255
156 196 255
156 196 255
156 196 255
156 196 255
156 195 255
155 195 255
155 195 255
155 195 255
155 195 255
155 195 255
155 195 255
155 195 255
155 195 255
155 195 255
154 195 255
154 195 255
154 195 255
154 195 255
154 195 255
154 195 255
154 195 255
154 195 255
154 194 255
154 194 255
154 194 255
153 194 255
153 194 255
153 194 255
153 194 255
153 194 255
153 194 255
153 194 255
153 194 255
153 194 255
153 194 255
153 194 255
153 194 255
153 194 255
152 194 255
152 194 255
152 194 255
152 194 255
152 193 255
152 193 255
152 193 255
152 193 255
152 193 255
152 193 255
152 193 255
152 193 255
152 193 255
152 193 255
152 193 255
151 193 255
151 193 255
151 193 255
151 193 255
151 193 255
151 193 255
151 193 255
151 193 255
151 193 255
151 193 255
151 193 255
151 193 255
151 193 255
151 193 255
151 193 255
151 193 255
151 193 255
151 193 255
151 193 255
151 193 255
151 193 255
151 193 255
151 193 255
151 193 255
151 193 255
151 193 255
151 193 255
151 193 255
151 193 255
151 193 255
151 193 255
151 193 255
151 193 255
151 193 255
151 193 255
151 193 255
151 193 255
151 193 255
151 193 255
151 193 255
151 193 255
151 193 255
151 193 255
151 193 255
151 193 255
151 193 255
151 193 255
151 193 255
151 193 255
151 193 255
151 193 255
151 193 255
151 193 255
151 193 255
151 193 255
151 193 255
151 193 255
151 193 255
152 193 255
152 193 255
152 193 255
152 193 255
152 193 255
152 193 255
152 193 255
152 193 255
152 193 255
152 193 255
152 193 255
152 194 255
152 194 255
152 194 255
152 194 255
152 194 255
153 194 255
153 194 255
153 194 255
153 194 255
153 194 255
153 194 255
153 194 255
153 194 255
153 194 255
153 194 255
153 194 255
153 194 255
154 194 255
154 194 255
154 194 255
154 195 255
154 195 255
154 195 255
154 195 255
154 195 255
154 195 255
154 195 255
154 195 255
155 195 255
155 195 255
155 195 255
155 195 255
155 195 255
155 195 255
155 195 255
155 195 255
155 195 255
155 195 255
156 196 255
156 196 255
156 196 255
156 196 255
156 196 255
156 196 255
156 196 255
156 196 255
156 196 255
157 196 255
157 196 255
157 196 255
157 196 255
157 196 255
157 196 255
157 196 255
157 197 255
157 197 255
157 197 255
158 197 255
158 197 255
158 197 255
158 197 255
158 197 255
158 197 255
158 197 255
158 197 255
158 197 255
159 197 255
159 197 255
159 197 255
159 198 255
159 198 255
159 198 255
159 198 255
159 198 255
159 198 255
160 198 255
160 198 255
160 198 255
160 198 255
160 198 255
160 198 255
160 198 255
160 198 255
160 198 255
160 198 255
161 199 255
161 199 255
161 199 255
161 199 255
161 199 255
161 199 255
161 199 255
161 199 255
161 199 255
162 199 255
162 199 255
162 199 255
162 199 255
162 199 255
162 199 255
162 199 255
162 200 255
162 200 255
162 200 255
163 200 255
163 200 255
163 200 255
163 200 255
163 200 255
163 200 255
163 200 255
163 200 255
163 200 255
163 200 255
163 200 255
164 200 255
164 200 255
164 200 255
164 201 255
164 201 255
164 201 255
164 201 255
164 201 255
164 201 255
164 201 255
165 201 255
165 201 255
165 201 255
165 201 255
165 201 255
165 201 255
165 201 255
165 201 255
165 201 255
165 201 255
165 201 255
166 202 255
166 202 255
166 202 255
166 202 255
166 202 255
166 202 255
166 202 255
166 202 255
166 202 255
166 202 255
166 202 255
166 202 255
167 202 255
167 202 255
167 202 255
167 202 255
167 202 255
167 202 255
167 202 255
167 202 255
167 203 255
167 203 255
167 203 255
167 203 255
168 203 255
168 203 255
167 203 255
167 203 255
167 203 255
167 203 255
167 203 255
167 202 255
167 202 255
167 202 255
167 202 255
167 202 255
167 202 255
167 202 255
167 202 255
166 202 255
166 202 255
166 202 255
166 202 255
166 202 255
166 202 255
166 202 255
166 202 255
166 202 255
166 202 255
166 202 255
165 201 255
165 201 255
165 201 255
165 201 255
165 201 255
165 201 255
165 201 255
165 201 255
165 201 255
165 201 255
165 201 255
164 201 255
164 201 255
164 201 255
164 201 255
164 201 255
164 201 255
164 201 255
164 201 255
164 200 255
164 200 255
164 200 255
163 200 255
163 200 255
163 200 255
163 200 255
163 200 255
163 200 255
163 200 255
163 200 255
163 200 255
163 200 255
162 200 255
162 200 255
162 200 255
162 199 255
162 199 255
162 199 255
162 199 255
162 199 255
162 199 255
162 199 255
161 199 255
161 199 255
161 199 255
161 199 255
161 199 255
161 199 255
161 199 255
161 199 255
161 199 255
161 199 255
160 198 255
160 198 255
160 198 255
160 198 255
160 198 255
160 198 255
160 198 255
160 198 255
160 198 255
159 198 255
159 198 255
159 198 255
159 198 255
159 198 255
159 198 255
159 198 255
159 197 255
159 197 255
158 197 255
158 197 255
158 197 255
158 197 255
158 197 255
158 197 255
158 197 255
158 197 255
158 197 255
158 197 255
157 197 255
157 197 255
157 197 255
157 196 255
157 196 255
157 196 255
157 196 255
157 196 255
157 196 255
156 196 255
156 196 255
156 196 255
156 196 255
156 196 255
156 196 255
156 196 255
156 196 255
156 196 255
156 196 255
155 195 255
155 195 255
155 195 255
155 195 255
155 195 255
155 195 255
155 195 255
155 195 255
155 195 255
155 195 255
154 195 255
154 195 255
154 195 255
154 195 255
154 195 255
154 195 255
154 195 255
154 194 255
154 194 255
154 194 255
154 194 255
153 194 255
153 194 255
153 194 255
153 194 255
153 194 255
153 194 255
153 194 255
153 194 255
153 194 255
153 194 255
153 194 255
153 194 255
153 194 255
152 194 255
152 194 255
152 194 255
152 194 255
152 194 255
152 193 255
152 193 255
152 193 255
152 193 255
152 193 255
152 193 255
152 193 255
152 193 255
152 193 255
152 193 255
152 193 255
152 193 255
151 193 255
151 193 255
151 193 255
151 193 255
151 193 255
151 193 255
151 193 255
151 193 255
151 193 255
151 193 255
151 193 255
151 193 255
151 193 255
151 193 255
151 193 255
151 193 255
151 193 255
151 193 255
151 193 255
151 193 255
151 193 255
151 193 255
151 193 255
151 193 255
151 193 255
151 193 255
151 193 255
151 193 255
151 193 255
151 193 255
151 193 255
151 193 255
151 193 255
151 193 255
151 193 255
151 193 255
151 193 255
151 193 255
151 193 255
151 193 255
151 193 255
151 193 255
151 193 255
151 193 255
151 193 255
151 193 255
151 193 255
151 193 255
152 193 255
152 193 255
152 193 255
152 193 255
152 193 255
152 193 255
152 193 255
152 193 255
152 193 255
152 193 255
152 193 255
152 193 255
152 194 255
152 194 255
152 194 255
152 194 255
152 194 255
153 194 255
153 194 255
153 194 255
153 194 255
153 194 255
153 194 255
153 194 255
153 194 255
153 194 255
153 194 255
153 194 255
153 194 255
153 194 255
154 194 255
154 194 255
154 194 255
154 194 255
154 195 255
154 195 255
154 195 255
154 195 255
154 195 255
154 195 255
154 195 255
155 195 255
155 195 255
155 195 255
155 195 255
155 195 255
155 195 255
155 195 255
155 195 255
155 195 255
155 195 255
156 196 255
156 196 255
156 196 255
156 196 255
156 196 255
156 196 255
156 196 255
156 196 255
156 196 255
156 196 255
157 196 255
157 196 255
157 196 255
157 196 255
157 196 255
157 196 255
157 197 255
157 197 255
157 197 255
158 197 255
158 197 255
158 197 255
158 197 255
158 197 255
158 197 255
158 197 255
158 197 255
158 197 255
158 197 255
159 197 255
159 197 255
159 197 255
159 198 255
159 198 255
159 198 255
159 198 255
159 198 255
159 198 255
160 198 255
160 198 255
160 198 255
160 198 255
160 198 255
160 198 255
160 198 255
160 198 255
160 198 255
161 199 255
161 199 255
161 199 255
161 199 255
161 199 255
161 199 255
161 199 255
161 199 255
161 199 255
161 199 255
162 199 255
162 199 255
162 199 255
162 199 255
162 199 255
162 199 255
162 199 255
162 200 255
162 200 255
162 200 255
163 200 255
163 200 255
163 200 255
163 200 255
163 200 255
163 200 255
163 200 255
163 200 255
163 200 255
163 200 255
164 200 255
164 200 255
164 200 255
164 200 255
164 201 255
164 201 255
164 201 255
164 201 255
164 201 255
164 201 255
164 201 255
165 201 255
165 201 255
165 201 255
165 201 255
165 201 255
165 201 255
165 201 255
165 201 255
165 201 255
165 201 255
165 201 255
166 202 255
166 202 255
166 202 255
166 202 255
166 202 255
166 202 255
166 202 255
166 202 255
166 202 255
166 202 255
166 202 255
167 202 255
167 202 255
167 202 255
167 202 255
167 202 255
167 202 255
167 202 255
167 202 255
167 203 255
167 203 255
167 203 255
167 203 255
167 203 255
168 203 255
168 203 255
168 203 255
168 203 255
168 203 255
168 203 255
168 203 255
167 203 255
167 203 255
167 203 255
167 203 255
167 202 255
167 202 255
167 202 255
167 202 255
167 202 255
167 202 255
167 202 255
167 202 255
167 202 255
166 202 255
166 202 255
166 202 255
166 202 255
166 202 255
166 202 255
166 202 255
166 202 255
166 202 255
166 202 255
166 202 255
165 201 255
165 201 255
165 201 255
165 201 255
165 201 255
165 201 255
165 201 255
165 201 255
165 201 255
165 201 255
165 201 255
164 201 255
164 201 255
164 201 255
164 201 255
164 201 255
164 201 255
164 201 255
164 200 255
164 200 255
164 200 255
163 200 255
163 200 255
163 200 255
163 200 255
163 200 255
163 200 255
163 200 255
163 200 255
163 200 255
163 200 255
163 200 255
162 200 255
162 200 255
162 200 255
162 199 255
162 199 255
162 199 255
162 199 255
162 199 255
162 199 255
162 199 255
161 199 255
161 199 255
161 199 255
161 199 255
161 199 255
161 199 255
161 199 255
161 199 255
161 199 255
160 198 255
160 198 255
160 198 255
160 198 255
160 198 255
160 198 255
160 198 255
160 198 255
160 198 255
160 198 255
159 198 255
159 198 255
159 198 255
159 198 255
159 198 255
159 198 255
159 197 255
159 197 255
159 197 255
158 197 255
158 197 255
158 197 255
158 197 255
158 197 255
158 197 255
158 197 255
158 197 255
158 197 255
157 197 255
157 197 255
157 197 255
157 196 255
157 196 255
157 196 255
157 196 255
157 196 255
157 196 255
157 196 255
156 196 255
156 196 255
156 196 255
156 196 255
156 196 255
156 196 255
156 196 255
156 196 255
156 196 255
156 196 255
155 195 255
155 195 255
155 195 255
155 195 255
155 195 255
155 195 255
155 195 255
155 195 255
155 195 255
155 195 255
154 195 255
154 195 255
154 195 255
154 195 255
154 195 255
154 195 255
154 195 255
154 195 255
154 194 255
154 194 255
154 194 255
154 194 255
153 194 255
153 194 255
153 194 255
153 194 255
153 194 255
153 194 255
153 194 255
153 194 255
153 194 255
153 194 255
153 194 255
153 194 255
153 194 255
152 194 255
152 194 255
152 194 255
152 194 255
152 194 255
152 193 255
152 193 255
152 193 255
152 193 255
152 193 255
152 193 255
152 193 255
152 193 255
152 193 255
152 193 255
152 193 255
152 193 255
152 193 255
152 193 255
152 193 255
152 193 255
151 193 255
151 193 255
151 193 255
151 193 255
151 193 255
151 193 255
151 193 255
151 193 255
151 193 255
151 193 255
151 193 255
151 193 255
151 193 255
151 193 255
151 193 255
151 193 255
151 193 255
151 193 255
151 193 255
151 193 255
151 193 255
151 193 255
151 193 255
151 193 255
151 193 255
151 193 255
151 193 255
151 193 255
151 193 255
151 193 255
151 193 255
151 193 255
151 193 255
152 193 255
152 193 255
152 193 255
152 193 255
152 193 255
152 193 255
152 193 255
152 193 255
152 193 255
152 193 255
152 193 255
152 193 255
152 193 255
152 193 255
152 193 255
152 194 255
152 194 255
152 194 255
152 194 255
152 194 255
153 194 255
153 194 255
153 194 255
153 194 255
153 194 255
153 194 255
153 194 255
153 194 255
153 194 255
153 194 255
153 194 255
153 194 255
153 194 255
154 194 255
154 194 255
154 194 255
154 194 255
154 194 255
154 195 255
154 195 255
154 195 255
154 195 255
154 195 255
154 195 255
154 195 255
155 195 255
155 195 255
155 195 255
155 195 255
155 195 255
155 195 255
155 195 255
155 195 255
155 195 255
155 195 255
156 196 255
156 196 255
156 196 255
156 196 255
156 196 255
156 196 255
156 196 255
156 196 255
156 196 255
156 196 255
157 196 255
157 196 255
157 196 255
157 196 255
157 196 255
157 196 255
157 196 255
157 197 255
157 197 255
157 197 255
158 197 255
158 197 255
158 197 255
158 197 255
158 197 255
158 197 255
158 197 255
158 197 255
158 197 255
159 197 255
159 197 255
159 197 255
159 198 255
159 198 255
159 198 255
159 198 255
159 198 255
159 198 255
160 198 255
160 198 255
160 198 255
160 198 255
160 198 255
160 198 255
160 198 255
160 198 255
160 198 255
160 198 255
161 199 255
161 199 255
161 199 255
161 199 255
161 199 255
161 199 255
161 199 255
161 199 255
161 199 255
161 199 255
162 199 255
162 199 255
162 199 255
162 199 255
162 199 255
162 199 255
162 200 255
162 200 255
162 200 255
163 200 255
163 200 255
163 200 255
163 200 255
163 200 255
163 200 255
163 200 255
163 200 255
163 200 255
163 200 255
164 200 255
164 200 255
164 200 255
164 200 255
164 201 255
164 201 255
164 201 255
164 201 255
164 201 255
164 201 255
164 201 255
165 201 255
165 201 255
165 201 255
165 201 255
165 201 255
165 201 255
165 201 255
165 201 255
165 201 255
165 201 255
165 201 255
166 202 255
166 202 255
166 202 255
166 202 255
166 202 255
166 202 255
166 202 255
166 202 255
166 202 255
166 202 255
166 202 255
167 202 255
167 202 255
167 202 255
167 202 255
167 202 255
167 202 255
167 202 255
167 202 255
167 202 255
167 203 255
167 203 255
167 203 255
167 203 255
168 203 255
168 203 255
168 203 255
168 203 255
168 203 255
168 203 255
168 203 255
168 203 255
168 203 255
168 203 255
168 203 255
168 203 255
168 203 255
167 203 255
167 203 255
167 203 255
167 203 255
167 202 255
167 202 255
167 202 255
167 202 255
167 202 255
167 202 255
167 202 255
167 202 255
166 202 255
166 202 255
166 202 255
166 202 255
166 202 255
166 202 255
166 202 255
166 202 255
166 202 255
166 202 255
166 202 255
166 202 255
165 201 255
165 201 255
165 201 255
165 201 255
165 201 255
165 201 255
165 201 255
165 201 255
165 201 255
165 201 255
165 201 255
164 201 255
164 201 255
164 201 255
164 201 255
164 201 255
164 201 255
164 201 255
164 200 255
164 200 255
164 200 255
163 200 255
163 200 255
163 200 255
163 200 255
163 200 255
163 200 255
163 200 255
163 200 255
163 200 255
163 200 255
162 200 255
162 200 255
162 200 255
162 200 255
162 199 255
162 199 255
162 199 255
162 199 255
162 199 255
162 199 255
161 199 255
161 199 255
161 199 255
161 199 255
161 199 255
161 199 255
161 199 255
161 199 255
161 199 255
161 199 255
160 198 255
160 198 255
160 198 255
160 198 255
160 198 255
160 198 255
160 198 255
160 198 255
160 198 255
159 198 255
159 198 255
159 198 255
159 198 255
159 198 255
159 198 255
159 197 255
159 197 255
159 197 255
159 197 255
158 197 255
158 197 255
158 197 255
158 197 255
158 197 255
158 197 255
158 197 255
158 197 255
158 197 255
157 197 255
157 197 255
157 197 255
157 196 255
157 196 255
157 196 255
157 196 255
157 196 255
157 196 255
157 196 255
156 196 255
156 196 255
156 196 255
156 196 255
156 196 255
156 196 255
156 196 255
156 196 255
156 196 255
156 196 255
155 195 255
155 195 255
155 195 255
155 195 255
155 195 255
155 195 255
155 195 255
155 195 255
155 195 255
155 195 255
154 195 255
154 195 255
154 195 255
154 195 255
154 195 255
154 195 255
154 195 255
154 195 255
154 194 255
154 194 255
154 194 255
154 194 255
153 194 255
153 194 255
153 194 255
153 194 255
153 194 255
153 194 255
153 194 255
153 194 255
153 194 255
153 194 255
153 194 255
153 194 255
153 194 255
153 194 255
152 194 255
152 194 255
152 194 255
152 194 255
152 194 255
152 194 255
152 194 255
152 193 255
152 193 255
152 193 255
152 193 255
152 193 255
152 193 255
152 193 255
152 193 255
152 193 255
152 193 255
152 193 255
152 193 255
152 193 255
152 193 255
152 193 255
152 193 255
152 193 255
152 193 255
152 193 255
152 193 255
152 193 255
152 193 255
152 193 255
152 193 255
152 193 255
152 193 255
152 193 255
152 193 255
152 193 255
152 193 255
152 193 255
152 193 255
152 193 255
152 193 255
152 193 255
152 193 255
152 193 255
152 193 255
152 193 255
152 193 255
152 193 255
152 193 255
152 193 255
152 193 255
152 193 255
152 193 255
152 193 255
152 193 255
152 193 255
152 193 255
152 193 255
152 193 255
152 194 255
152 194 255
152 194 255
152 194 255
152 194 255
152 194 255
152 194 255
153 194 255
153 194 255
153 194 255
153 194 255
153 194 255
153 194 255
153 194 255
153 194 255
153 194 255
153 194 255
153 194 255
153 194 255
153 194 255
153 194 255
154 194 255
154 194 255
154 194 255
154 194 255
154 195 255
154 195 255
154 195 255
154 195 255
154 195 255
154 195 255
154 195 255
154 195 255
155 195 255
155 195 255
155 195 255
155 195 255
155 195 255
155 195 255
155 195 255
155 195 255
155 195 255
155 195 255
155 195 255
156 196 255
156 196 255
156 196 255
156 196 255
156 196 255
156 196 255
156 196 255
156 196 255
156 196 255
156 196 255
157 196 255
157 196 255
157 196 255
157 196 255
157 196 255
157 196 255
157 197 255
157 197 255
157 197 255
158 197 255
158 197 255
158 197 255
158 197 255
158 197 255
158 197 255
158 197 255
158 197 255
158 197 255
159 197 255
159 197 255
159 197 255
159 197 255
159 198 255
159 198 255
159 198 255
159 198 255
159 198 255
159 198 255
160 198 255
160 198 255
160 198 255
160 198 255
160 198 255
160 198 255
160 198 255
160 198 255
160 198 255
161 199 255
161 199 255
161 199 255
161 199 255
161 199 255
161 199 255
161 199 255
161 199 255
161 199 255
161 199 255
162 199 255
162 199 255
162 199 255
162 199 255
162 199 255
162 199 255
162 200 255
162 200 255
162 200 255
162 200 255
163 200 255
163 200 255
163 200 255
163 200 255
163 200 255
163 200 255
163 200 255
163 200 255
163 200 255
163 200 255
164 200 255
164 200 255
164 200 255
164 201 255
164 201 255
164 201 255
164 201 255
164 201 255
164 201 255
164 201 255
165 201 255
165 201 255
165 201 255
165 201 255
165 201 255
165 201 255
165 201 255
165 201 255
165 201 255
165 201 255
165 201 255
166 202 255
166 202 255
166 202 255
166 202 255
166 202 255
166 202 255
166 202 255
166 202 255
166 202 255
166 202 255
166 202 255
166 202 255
167 202 255
167 202 255
167 202 255
167 202 255
167 202 255
167 202 255
167 202 255
167 202 255
167 203 255
167 203 255
167 203 255
167 203 255
168 203 255
168 203 255
168 203 255
168 203 255
168 203 255
168 203 255
168 203 255
168 203 255
168 203 255
168 203 255
168 203 255
168 203 255
168 203 255
168 203 255
168 203 255
168 203 255
168 203 255
168 203 255
168 203 255
167 203 255
167 203 255
167 203 255
167 203 255
167 202 255
167 202 255
167 202 255
167 202 255
167 202 255
167 202 255
167 202 255
167 202 255
166 202 255
166 202 255
166 202 255
166 202 255
166 202 255
166 202 255
166 202 255
166 202 255
166 202 255
166 202 255
166 202 255
165 201 255
165 201 255
165 201 255
165 201 255
165 201 255
165 201 255
165 201 255
165 201 255
165 201 255
165 201 255
165 201 255
164 201 255
164 201 255
164 201 255
164 201 255
164 201 255
164 201 255
164 201 255
164 200 255
164 200 255
164 200 255
164 200 255
163 200 255
163 200 255
163 200 255
163 200 255
163 200 255
163 200 255
163 200 255
163 200 255
163 200 255
163 200 255
162 200 255
162 200 255
162 200 255
162 199 255
162 199 255
162 199 255
162 199 255
162 199 255
162 199 255
162 199 255
161 199 255
161 199 255
161 199 255
161 199 255
161 199 255
161 199 255
161 199 255
161 199 255
161 199 255
160 198 255
160 198 255
160 198 255
160 198 255
160 198 255
160 198 255
160 198 255
160 198 255
160 198 255
160 198 255
159 198 255
159 198 255
159 198 255
159 198 255
159 198 255
159 198 255
159 197 255
159 197 255
159 197 255
158 197 255
158 197 255
158 197 255
158 197 255
158 197 255
158 197 255
158 197 255
158 197 255
158 197 255
157 197 255
157 197 255
157 197 255
157 197 255
157 196 255
157 196 255
157 196 255
157 196 255
157 196 255
157 196 255
156 196 255
156 196 255
156 196 255
156 196 255
156 196 255
156 196 255
156 196 255
156 196 255
156 196 255
156 196 255
155 195 255
155 195 255
155 195 255
155 195 255
155 195 255
155 195 255
155 195 255
155 195 255
155 195 255
155 195 255
155 195 255
154 195 255
154 195 255
154 195 255
154 195 255
154 195 255
154 195 255
154 195 255
154 195 255
154 194 255
154 194 255
154 194 255
154 194 255
154 194 255
153 194 255
153 194 255
153 194 255
153 194 255
153 194 255
153 194 255
153 194 255
153 194 255
153 194 255
153 194 255
153 194 255
153 194 255
153 194 255
153 194 255
153 194 255
152 194 255
152 194 255
152 194 255
152 194 255
152 194 255
152 194 255
152 194 255
152 194 255
152 193 255
152 193 255
152 193 255
152 193 255
152 193 255
152 193 255
152 193 255
152 193 255
152 193 255
152 193 255
152 193 255
152 193 255
152 193 255
152 193 255
152 193 255
152 193 255
152 193 255
152 193 255
152 193 255
152 193 255
152 193 255
152 193 255
152 193 255
152 193 255
152 193 255
152 193 255
152 193 255
152 193 255
152 193 255
152 193 255
152 193 255
152 193 255
152 193 255
152 193 255
152 193 255
152 193 255
152 193 255
152 193 255
152 193 255
152 193 255
152 194 255
152 194 255
152 194 255
152 194 255
152 194 255
152 194 255
152 194 255
153 194 255
153 194 255
153 194 255
153 194 255
153 194 255
153 194 255
153 194 255
153 194 255
153 194 255
153 194 255
153 194 255
153 194 255
153 194 255
153 194 255
153 194 255
153 194 255
154 194 255
154 194 255
154 194 255
154 194 255
154 194 255
154 195 255
154 195 255
154 195 255
154 195 255
154 195 255
154 195 255
154 195 255
154 195 255
155 195 255
155 195 255
155 195 255
155 195 255
155 195 255
155 195 255
155 195 255
155 195 255
155 195 255
155 195 255
155 195 255
156 196 255
156 196 255
156 196 255
156 196 255
156 196 255
156 196 255
156 196 255
156 196 255
156 196 255
156 196 255
157 196 255
157 196 255
157 196 255
157 196 255
157 196 255
157 196 255
157 197 255
157 197 255
157 197 255
158 197 255
158 197 255
158 197 255
158 197 255
158 197 255
158 197 255
158 197 255
158 197 255
158 197 255
158 197 255
159 197 255
159 197 255
159 197 255
159 198 255
159 198 255
159 198 255
159 198 255
159 198 255
159 198 255
160 198 255
160 198 255
160 198 255
160 198 255
160 198 255
160 198 255
160 198 255
160 198 255
160 198 255
160 198 255
161 199 255
161 199 255
161 199 255
161 199 255
161 199 255
161 199 255
161 199 255
161 199 255
161 199 255
162 199 255
162 199 255
162 199 255
162 199 255
162 199 255
162 199 255
162 199 255
162 200 255
162 200 255
162 200 255
163 200 255
163 200 255
163 200 255
163 200 255
163 200 255
163 200 255
163 200 255
163 200 255
163 200 255
163 200 255
164 200 255
164 200 255
164 200 255
164 200 255
164 201 255
164 201 255
164 201 255
164 201 255
164 201 255
164 201 255
164 201 255
165 201 255
165 201 255
165 201 255
165 201 255
165 201 255
165 201 255
165 201 255
165 201 255
165 201 255
165 201 255
165 201 255
166 202 255
166 202 255
166 202 255
166 202 255
166 202 255
166 202 255
166 202 255
166 202 255
166 202 255
166 202 255
166 202 255
167 202 255
167 202 255
167 202 255
167 202 255
167 202 255
167 202 255
167 202 255
167 202 255
167 203 255
167 203 255
167 203 255
167 203 255
168 203 255
168 203 255
168 203 255
168 203 255
168 203 255
168 203 255
168 203 255
168 203 255
168 203 255
168 203 255
168 203 255
169 203 255
168 203 255
168 203 255
168 203 255
168 203 255
168 203 255
168 203 255
168 203 255
168 203 255
168 203 255
168 203 255
168 203 255
168 203 255
168 203 255
167 203 255
167 203 255
167 203 255
167 203 255
167 202 255
167 202 255
167 202 255
167 202 255
167 202 255
167 202 255
167 202 255
167 202 255
166 202 255
166 202 255
166 202 255
166 202 255
166 202 255
166 202 255
166 202 255
166 202 255
166 202 255
166 202 255
166 202 255
165 201 255
165 201 255
165 201 255
165 201 255
165 201 255
165 201 255
165 201 255
165 201 255
165 201 255
165 201 255
165 201 255
164 201 255
164 201 255
164 201 255
164 201 255
164 201 255
164 201 255
164 201 255
164 200 255
164 200 255
164 200 255
163 200 255
163 200 255
163 200 255
163 200 255
163 200 255
163 200 255
163 200 255
163 200 255
163 200 255
163 200 255
162 200 255
162 200 255
162 200 255
162 200 255
162 199 255
162 199 255
162 199 255
162 199 255
162 199 255
162 199 255
161 199 255
161 199 255
161 199 255
161 199 255
161 199 255
161 199 255
161 199 255
161 199 255
161 199 255
161 199 255
160 198 255
160 198 255
160 198 255
160 198 255
160 198 255
160 198 255
160 198 255
160 198 255
160 198 255
159 198 255
159 198 255
159 198 255
159 198 255
159 198 255
159 198 255
159 197 255
159 197 255
159 197 255
159 197 255
158 197 255
158 197 255
158 197 255
158 197 255
158 197 255
158 197 255
158 197 255
158 197 255
158 197 255
157 197 255
157 197 255
157 197 255
157 196 255
157 196 255
157 196 255
157 196 255
157 196 255
157 196 255
157 196 255
156 196 255
156 196 255
156 196 255
156 196 255
156 196 255
156 196 255
156 196 255
156 196 255
156 196 255
156 196 255
155 195 255
155 195 255
155 195 255
155 195 255
155 195 255
155 195 255
155 195 255
155 195 255
155 195 255
155 195 255
155 195 255
155 195 255
154 195 255
154 195 255
154 195 255
154 195 255
154 195 255
154 195 255
154 195 255
154 195 255
154 194 255
154 194 255
154 194 255
154 194 255
153 194 255
153 194 255
153 194 255
153 194 255
153 194 255
153 194 255
153 194 255
153 194 255
153 194 255
153 194 255
153 194 255
153 194 255
153 194 255
153 194 255
153 194 255
153 194 255
153 194 255
153 194 255
153 194 255
152 194 255
152 194 255
152 194 255
152 194 255
152 194 255
152 194 255
152 194 255
152 194 255
152 194 255
152 194 255
152 194 255
152 193 255
152 193 255
152 193 255
152 193 255
152 193 255
152 193 255
152 193 255
152 193 255
152 193 255
152 193 255
152 193 255
152 193 255
152 193 255
152 193 255
152 193 255
152 193 255
152 193 255
152 193 255
152 193 255
152 193 255
152 194 255
152 194 255
152 194 255
152 194 255
152 194 255
152 194 255
152 194 255
152 194 255
152 194 255
152 194 255
152 194 255
152 194 255
153 194 255
153 194 255
153 194 255
153 194 255
153 194 255
153 194 255
153 194 255
153 194 255
153 194 255
153 194 255
153 194 255
153 194 255
153 194 255
153 194 255
153 194 255
153 194 255
153 194 255
153 194 255
154 194 255
154 194 255
154 194 255
154 194 255
154 195 255
154 195 255
154 195 255
154 195 255
154 195 255
154 195 255
154 195 255
154 195 255
154 195 255
155 195 255
155 195 255
155 195 255
155 195 255
155 195 255
155 195 255
155 195 255
155 195 255
155 195 255
155 195 255
155 195 255
156 196 255
156 196 255
156 196 255
156 196 255
156 196 255
156 196 255
156 196 255
156 196 255
156 196 255
156 196 255
157 196 255
157 196 255
157 196 255
157 196 255
157 196 255
157 196 255
157 196 255
157 197 255
157 197 255
157 197 255
158 197 255
158 197 255
158 197 255
158 197 255
158 197 255
158 197 255
158 197 255
158 197 255
158 197 255
159 197 255
159 197 255
159 197 255
159 197 255
159 198 255
159 198 255
159 198 255
159 198 255
159 198 255
159 198 255
160 198 255
160 198 255
160 198 255
160 198 255
160 198 255
160 198 255
160 198 255
160 198 255
160 198 255
161 199 255
161 199 255
161 199 255
161 199 255
161 199 255
161 199 255
161 199 255
161 199 255
161 199 255
161 199 255
162 199 255
162 199 255
162 199 255
162 199 255
162 199 255
162 199 255
162 200 255
162 200 255
162 200 255
162 200 255
163 200 255
163 200 255
163 200 255
163 200 255
163 200 255
163 200 255
163 200 255
163 200 255
163 200 255
163 200 255
164 200 255
164 200 255
164 200 255
164 201 255
164 201 255
164 201 255
164 201 255
164 201 255
164 201 255
164 201 255
165 201 255
165 201 255
165 201 255
165 201 255
165 201 255
165 201 255
165 201 255
165 201 255
165 201 255
165 201 255
165 201 255
166 202 255
166 202 255
166 202 255
166 202 255
166 202 255
166 202 255
166 202 255
166 202 255
166 202 255
166 202 255
166 202 255
167 202 255
167 202 255
167 202 255
167 202 255
167 202 255
167 202 255
167 202 255
167 202 255
167 203 255
167 203 255
167 203 255
167 203 255
168 203 255
168 203 255
168 203 255
168 203 255
168 203 255
168 203 255
168 203 255
168 203 255
168 203 255
168 203 255
168 203 255
168 203 255
168 203 255
169 203 255
169 203 255
169 203 255
169 203 255
169 203 255
168 203 255
168 203 255
168 203 255
168 203 255
168 203 255
168 203 255
168 203 255
168 203 255
168 203 255
168 203 255
168 203 255
168 203 255
168 203 255
167 203 255
167 203 255
167 203 255
167 203 255
167 202 255
167 202 255
167 202 255
167 202 255
167 202 255
167 202 255
167 202 255
166 202 255
166 202 255
166 202 255
166 202 255
166 202 255
166 202 255
166 202 255
166 202 255
166 202 255
166 202 255
166 202 255
166 202 255
165 201 255
165 201 255
165 201 255
165 201 255
165 201 255
165 201 255
165 201 255
165 201 255
165 201 255
165 201 255
165 201 255
164 201 255
164 201 255
164 201 255
164 201 255
164 201 255
164 201 255
164 200 255
164 200 255
164 200 255
164 200 255
163 200 255
163 200 255
163 200 255
163 200 255
163 200 255
163 200 255
163 200 255
163 200 255
163 200 255
163 200 255
162 200 255
162 200 255
162 200 255
162 199 255
162 199 255
162 199 255
162 199 255
162 199 255
162 199 255
162 199 255
161 199 255
161 199 255
161 199 255
161 199 255
161 199 255
161 199 255
161 199 255
161 199 255
161 199 255
160 198 255
160 198 255
160 198 255
160 198 255
160 198 255
160 198 255
160 198 255
160 198 255
160 198 255
160 198 255
159 198 255
159 198 255
159 198 255
159 198 255
159 198 255
159 198 255
159 197 255
159 197 255
159 197 255
158 197 255
158 197 255
158 197 255
158 197 255
158 197 255
158 197 255
158 197 255
158 197 255
158 197 255
158 197 255
157 197 255
157 197 255
157 197 255
157 196 255
157 196 255
157 196 255
157 196 255
157 196 255
157 196 255
157 196 255
156 196 255
156 196 255
156 196 255
156 196 255
156 196 255
156 196 255
156 196 255
156 196 255
156 196 255
156 196 255
155 195 255
155 195 255
155 195 255
155 195 255
155 195 255
155 195 255
155 195 255
155 195 255
155 195 255
155 195 255
155 195 255
155 195 255
154 195 255
154 195 255
154 195 255
154 195 255
154 195 255
154 195 255
154 195 255
154 195 255
154 195 255
154 194 255
154 194 255
154 194 255
154 194 255
154 194 255
153 194 255
153 194 255
153 194 255
153 194 255
153 194 255
153 194 255
153 194 255
153 194 255
153 194 255
153 194 255
153 194 255
153 194 255
153 194 255
153 194 255
153 194 255
153 194 255
153 194 255
153 194 255
153 194 255
153 194 255
153 194 255
153 194 255
152 194 255
152 194 255
152 194 255
152 194 255
152 194 255
152 194 255
152 194 255
152 194 255
152 194 255
152 194 255
152 194 255
152 194 255
152 194 255
152 194 255
152 194 255
152 194 255
152 194 255
152 194 255
152 194 255
152 194 255
152 194 255
152 194 255
152 194 255
152 194 255
152 194 255
152 194 255
153 194 255
153 194 255
153 194 255
153 194 255
153 194 255
153 194 255
153 194 255
153 194 255
153 194 255
153 194 255
153 194 255
153 194 255
153 194 255
153 194 255
153 194 255
153 194 255
153 194 255
153 194 255
153 194 255
153 194 255
153 194 255
153 194 255
154 194 255
154 194 255
154 194 255
154 194 255
154 194 255
154 195 255
154 195 255
154 195 255
154 195 255
154 195 255
154 195 255
154 195 255
154 195 255
154 195 255
155 195 255
155 195 255
155 195 255
155 195 255
155 195 255
155 195 255
155 195 255
155 195 255
155 195 255
155 195 255
155 195 255
155 195 255
156 196 255
156 196 255
156 196 255
156 196 255
156 196 255
156 196 255
156 196 255
156 196 255
156 196 255
156 196 255
157 196 255
157 196 255
157 196 255
157 196 255
157 196 255
157 196 255
157 196 255
157 197 255
157 197 255
157 197 255
158 197 255
158 197 255
158 197 255
158 197 255
158 197 255
158 197 255
158 197 255
158 197 255
158 197 255
158 197 255
159 197 255
159 197 255
159 197 255
159 198 255
159 198 255
159 198 255
159 198 255
159 198 255
159 198 255
160 198 255
160 198 255
160 198 255
160 198 255
160 198 255
160 198 255
160 198 255
160 198 255
160 198 255
160 198 255
161 199 255
161 199 255
161 199 255
161 199 255
161 199 255
161 199 255
161 199 255
161 199 255
161 199 255
162 199 255
162 199 255
162 199 255
162 199 255
162 199 255
162 199 255
162 199 255
162 200 255
162 200 255
162 200 255
163 200 255
163 200 255
163 200 255
163 200 255
163 200 255
163 200 255
163 200 255
163 200 255
163 200 255
163 200 255
164 200 255
164 200 255
164 200 255
164 201 255
164 201 255
164 201 255
164 201 255
164 201 255
164 201 255
164 201 255
165 201 255
165 201 255
165 201 255
165 201 255
165 201 255
165 201 255
165 201 255
165 201 255
165 201 255
165 201 255
165 201 255
166 202 255
166 202 255
166 202 255
166 202 255
166 202 255
166 202 255
166 202 255
166 202 255
166 202 255
166 202 255
166 202 255
167 202 255
167 202 255
167 202 255
167 202 255
167 202 255
167 202 255
167 202 255
167 202 255
167 203 255
167 203 255
167 203 255
167 203 255
168 203 255
168 203 255
168 203 255
168 203 255
168 203 255
168 203 255
168 203 255
168 203 255
168 203 255
168 203 255
168 203 255
168 203 255
168 203 255
169 203 255
169 203 255
169 203 255
169 203 255
169 204 255
169 204 255
169 204 255
169 203 255
169 203 255
169 203 255
169 203 255
168 203 255
168 203 255
168 203 255
168 203 255
168 203 255
168 203 255
168 203 255
168 203 255
168 203 255
168 203 255
168 203 255
168 203 255
168 203 255
167 203 255
167 203 255
167 203 255
167 203 255
167 202 255
167 202 255
167 202 255
167 202 255
167 202 255
167 202 255
167 202 255
166 202 255
166 202 255
166 202 255
166 202 255
166 202 255
166 202 255
166 202 255
166 202 255
166 202 255
166 202 255
166 202 255
166 202 255
165 201 255
165 201 255
165 201 255
165 201 255
165 201 255
165 201 255
165 201 255
165 201 255
165 201 255
165 201 255
164 201 255
164 201 255
164 201 255
164 201 255
164 201 255
164 201 255
164 201 255
164 200 255
164 200 255
164 200 255
164 200 255
163 200 255
163 200 255
163 200 255
163 200 255
163 200 255
163 200 255
163 200 255
163 200 255
163 200 255
163 200 255
162 200 255
162 200 255
162 200 255
162 199 255
162 199 255
162 199 255
162 199 255
162 199 255
162 199 255
161 199 255
161 199 255
161 199 255
161 199 255
161 199 255
161 199 255
161 199 255
161 199 255
161 199 255
161 199 255
160 198 255
160 198 255
160 198 255
160 198 255
160 198 255
160 198 255
160 198 255
160 198 255
160 198 255
159 198 255
159 198 255
159 198 255
159 198 255
159 198 255
159 198 255
159 198 255
159 197 255
159 197 255
159 197 255
158 197 255
158 197 255
158 197 255
158 197 255
158 197 255
158 197 255
158 197 255
158 197 255
158 197 255
157 197 255
157 197 255
157 197 255
157 197 255
157 196 255
157 196 255
157 196 255
157 196 255
157 196 255
157 196 255
157 196 255
156 196 255
156 196 255
156 196 255
156 196 255
156 196 255
156 196 255
156 196 255
156 196 255
156 196 255
156 196 255
155 195 255
155 195 255
155 195 255
155 195 255
155 195 255
155 195 255
155 195 255
155 195 255
155 195 255
155 195 255
155 195 255
155 195 255
154 195 255
154 195 255
154 195 255
154 195 255
154 195 255
154 195 255
154 195 255
154 195 255
154 195 255
154 195 255
154 194 255
154 194 255
154 194 255
154 194 255
154 194 255
154 194 255
153 194 255
153 194 255
153 194 255
153 194 255
153 194 255
153 194 255
153 194 255
153 194 255
153 194 255
153 194 255
153 194 255
153 194 255
153 194 255
153 194 255
153 194 255
153 194 255
153 194 255
153 194 255
153 194 255
153 194 255
153 194 255
153 194 255
153 194 255
153 194 255
153 194 255
153 194 255
153 194 255
153 194 255
153 194 255
153 194 255
153 194 255
153 194 255
153 194 255
153 194 255
153 194 255
153 194 255
153 194 255
153 194 255
153 194 255
153 194 255
153 194 255
153 194 255
153 194 255
153 194 255
153 194 255
153 194 255
153 194 255
153 194 255
153 194 255
153 194 255
153 194 255
153 194 255
153 194 255
153 194 255
153 194 255
153 194 255
153 194 255
153 194 255
153 194 255
153 194 255
154 194 255
154 194 255
154 194 255
154 194 255
154 194 255
154 194 255
154 195 255
154 195 255
154 195 255
154 195 255
154 195 255
154 195 255
154 195 255
154 195 255
154 195 255
155 195 255
155 195 255
155 195 255
155 195 255
155 195 255
155 195 255
155 195 255
155 195 255
155 195 255
155 195 255
155 195 255
155 195 255
155 195 255
156 196 255
156 196 255
156 196 255
156 196 255
156 196 255
156 196 255
156 196 255
156 196 255
156 196 255
156 196 255
157 196 255
157 196 255
157 196 255
157 196 255
157 196 255
157 196 255
157 196 255
157 197 255
157 197 255
157 197 255
158 197 255
158 197 255
158 197 255
158 197 255
158 197 255
158 197 255
158 197 255
158 197 255
158 197 255
158 197 255
159 197 255
159 197 255
159 197 255
159 198 255
159 198 255
159 198 255
159 198 255
159 198 255
159 198 255
159 198 255
160 198 255
160 198 255
160 198 255
160 198 255
160 198 255
160 198 255
160 198 255
160 198 255
160 198 255
161 199 255
161 199 255
161 199 255
161 199 255
161 199 255
161 199 255
161 199 255
161 199 255
161 199 255
161 199 255
162 199 255
162 199 255
162 199 255
162 199 255
162 199 255
162 199 255
162 200 255
162 200 255
162 200 255
163 200 255
163 200 255
163 200 255
163 200 255
163 200 255
163 200 255
163 200 255
163 200 255
163 200 255
163 200 255
164 200 255
164 200 255
164 200 255
164 200 255
164 201 255
164 201 255
164 201 255
164 201 255
164 201 255
164 201 255
164 201 255
165 201 255
165 201 255
165 201 255
165 201 255
165 201 255
165 201 255
165 201 255
165 201 255
165 201 255
165 201 255
166 202 255
166 202 255
166 202 255
166 202 255
166 202 255
166 202 255
166 202 255
166 202 255
166 202 255
166 202 255
166 202 255
167 202 255
167 202 255
167 202 255
167 202 255
167 202 255
167 202 255
167 202 255
167 202 255
167 203 255
167 203 255
167 203 255
167 203 255
168 203 255
168 203 255
168 203 255
168 203 255
168 203 255
168 203 255
168 203 255
168 203 255
168 203 255
168 203 255
168 203 255
168 203 255
168 203 255
169 203 255
169 203 255
169 203 255
169 203 255
169 204 255
169 204 255
169 204 255
169 204 255
169 204 255
169 204 255
169 204 255
169 204 255
169 204 255
169 203 255
169 203 255
169 203 255
169 203 255
168 203 255
168 203 255
168 203 255
168 203 255
168 203 255
168 203 255
168 203 255
168 203 255
168 203 255
168 203 255
168 203 255
168 203 255
168 203 255
167 203 255
167 203 255
167 203 255
167 203 255
167 202 255
167 202 255
167 202 255
167 202 255
167 202 255
167 202 255
167 202 255
166 202 255
166 202 255
166 202 255
166 202 255
166 202 255
166 202 255
166 202 255
166 202 255
166 202 255
166 202 255
166 202 255
165 201 255
165 201 255
165 201 255
165 201 255
165 201 255
165 201 255
165 201 255
165 201 255
165 201 255
165 201 255
165 201 255
164 201 255
164 201 255
164 201 255
164 201 255
164 201 255
164 201 255
164 201 255
164 200 255
164 200 255
164 200 255
163 200 255
163 200 255
163 200 255
163 200 255
163 200 255
163 200 255
163 200 255
163 200 255
163 200 255
163 200 255
162 200 255
162 200 255
162 200 255
162 199 255
162 199 255
162 199 255
162 199 255
162 199 255
162 199 255
162 199 255
161 199 255
161 199 255
161 199 255
161 199 255
161 199 255
161 199 255
161 199 255
161 199 255
161 199 255
161 199 255
160 198 255
160 198 255
160 198 255
160 198 255
160 198 255
160 198 255
160 198 255
160 198 255
160 198 255
159 198 255
159 198 255
159 198 255
159 198 255
159 198 255
159 198 255
159 198 255
159 197 255
159 197 255
159 197 255
158 197 255
158 197 255
158 197 255
158 197 255
158 197 255
158 197 255
158 197 255
158 197 255
158 197 255
157 197 255
157 197 255
157 197 255
157 197 255
157 196 255
157 196 255
157 196 255
157 196 255
157 196 255
157 196 255
157 196 255
156 196 255
156 196 255
156 196 255
156 196 255
156 196 255
156 196 255
156 196 255
156 196 255
156 196 255
156 196 255
156 196 255
155 195 255
155 195 255
155 195 255
155 195 255
155 195 255
155 195 255
155 195 255
155 195 255
155 195 255
155 195 255
155 195 255
155 195 255
155 195 255
154 195 255
154 195 255
154 195 255
154 195 255
154 195 255
154 195 255
154 195 255
154 195 255
154 195 255
154 195 255
154 194 255
154 194 255
154 194 255
154 194 255
154 194 255
154 194 255
154 194 255
153 194 255
153 194 255
153 194 255
153 194 255
153 194 255
153 194 255
153 194 255
153 194 255
153 194 255
153 194 255
153 194 255
153 194 255
153 194 255
153 194 255
153 194 255
153 194 255
153 194 255
153 194 255
153 194 255
153 194 255
153 194 255
153 194 255
153 194 255
153 194 255
153 194 255
153 194 255
153 194 255
153 194 255
153 194 255
153 194 255
153 194 255
153 194 255
153 194 255
153 194 255
153 194 255
153 194 255
153 194 255
153 194 255
153 194 255
153 194 255
153 194 255
153 194 255
153 194 255
153 194 255
153 194 255
153 194 255
153 194 255
153 194 255
153 194 255
154 194 255
154 194 255
154 194 255
154 194 255
154 194 255
154 194 255
154 195 255
154 195 255
154 195 255
154 195 255
154 195 255
154 195 255
154 195 255
154 195 255
154 195 255
154 195 255
154 195 255
155 195 255
155 195 255
155 195 255
155 195 255
155 195 255
155 195 255
155 195 255
155 195 255
155 195 255
155 195 255
155 195 255
155 195 255
156 196 255
156 196 255
156 196 255
156 196 255
156 196 255
156 196 255
156 196 255
156 196 255
156 196 255
156 196 255
156 196 255
156 196 255
157 196 255
157 196 255
157 196 255
157 196 255
157 196 255
157 196 255
157 197 255
157 197 255
157 197 255
157 197 255
158 197 255
158 197 255
158 197 255
158 197 255
158 197 255
158 197 255
158 197 255
158 197 255
158 197 255
159 197 255
159 197 255
159 197 255
159 197 255
159 198 255
159 198 255
159 198 255
159 198 255
159 198 255
159 198 255
160 198 255
160 198 255
160 198 255
160 198 255
160 198 255
160 198 255
160 198 255
160 198 255
160 198 255
161 199 255
161 199 255
161 199 255
161 199 255
161 199 255
161 199 255
161 199 255
161 199 255
161 199 255
161 199 255
162 199 255
162 199 255
162 199 255
162 199 255
162 199 255
162 199 255
162 200 255
162 200 255
162 200 255
162 200 255
163 200 255
163 200 255
163 200 255
163 200 255
163 200 255
163 200 255
163 200 255
163 200 255
163 200 255
163 200 255
164 200 255
164 200 255
164 200 255
164 201 255
164 201 255
164 201 255
164 201 255
164 201 255
164 201 255
164 201 255
165 201 255
165 201 255
165 201 255
165 201 255
165 201 255
165 201 255
165 201 255
165 201 255
165 201 255
165 201 255
165 201 255
166 202 255
166 202 255
166 202 255
166 202 255
166 202 255
166 202 255
166 202 255
166 202 255
166 202 255
166 202 255
166 202 255
167 202 255
167 202 255
167 202 255
167 202 255
167 202 255
167 202 255
167 202 255
167 202 255
167 203 255
167 203 255
167 203 255
167 203 255
168 203 255
168 203 255
168 203 255
168 203 255
168 203 255
168 203 255
168 203 255
168 203 255
168 203 255
168 203 255
168 203 255
168 203 255
169 203 255
169 203 255
169 203 255
169 203 255
169 204 255
169 204 255
169 204 255
169 204 255
169 204 255
169 204 255
169 204 255
169 204 255
169 204 255
169 204 255
169 204 255
169 204 255
169 204 255
169 204 255
169 204 255
169 203 255
169 203 255
169 203 255
169 203 255
168 203 255
168 203 255
168 203 255
168 203 255
168 203 255
168 203 255
168 203 255
168 203 255
168 203 255
168 203 255
168 203 255
168 203 255
167 203 255
167 203 255
167 203 255
167 203 255
167 202 255
167 202 255
167 202 255
167 202 255
167 202 255
167 202 255
167 202 255
167 202 255
166 202 255
166 202 255
166 202 255
166 202 255
166 202 255
166 202 255
166 202 255
166 202 255
166 202 255
166 202 255
166 202 255
165 201 255
165 201 255
165 201 255
165 201 255
165 201 255
165 201 255
165 201 255
165 201 255
165 201 255
165 201 255
165 201 255
164 201 255
164 201 255
164 201 255
164 201 255
164 201 255
164 201 255
164 201 255
164 200 255
164 200 255
164 200 255
163 200 255
163 200 255
163 200 255
163 200 255
163 200 255
163 200 255
163 200 255
163 200 255
163 200 255
163 200 255
162 200 255
162 200 255
162 200 255
162 199 255
162 199 255
162 199 255
162 199 255
162 199 255
162 199 255
162 199 255
161 199 255
161 199 255
161 199 255
161 199 255
161 199 255
161 199 255
161 199 255
161 199 255
161 199 255
160 198 255
160 198 255
160 198 255
160 198 255
160 198 255
160 198 255
160 198 255
160 198 255
160 198 255
160 198 255
159 198 255
159 198 255
159 198 255
159 198 255
159 198 255
159 198 255
159 197 255
159 197 255
159 197 255
158 197 255
158 197 255
158 197 255
158 197 255
158 197 255
158 197 255
158 197 255
158 197 255
158 197 255
158 197 255
157 197 255
157 197 255
157 197 255
157 197 255
157 196 255
157 196 255
157 196 255
157 196 255
157 196 255
157 196 255
157 196 255
156 196 255
156 196 255
156 196 255
156 196 255
156 196 255
156 196 255
156 196 255
156 196 255
156 196 255
156 196 255
156 196 255
155 195 255
155 195 255
155 195 255
155 195 255
155 195 255
155 195 255
155 195 255
155 195 255
155 195 255
155 195 255
155 195 255
155 195 255
155 195 255
155 195 255
154 195 255
154 195 255
154 195 255
154 195 255
154 195 255
154 195 255
154 195 255
154 195 255
154 195 255
154 195 255
154 195 255
154 194 255
154 194 255
154 194 255
154 194 255
154 194 255
154 194 255
154 194 255
154 194 255
154 194 255
153 194 255
153 194 255
153 194 255
153 194 255
153 194 255
153 194 255
153 194 255
153 194 255
153 194 255
153 194 255
153 194 255
153 194 255
153 194 255
153 194 255
153 194 255
153 194 255
153 194 255
153 194 255
153 194 255
153 194 255
153 194 255
153 194 255
153 194 255
153 194 255
153 194 255
153 194 255
153 194 255
153 194 255
153 194 255
153 194 255
153 194 255
153 194 255
153 194 255
153 194 255
154 194 255
154 194 255
154 194 255
154 194 255
154 194 255
154 194 255
154 194 255
154 194 255
154 194 255
154 195 255
154 195 255
154 195 255
154 195 255
154 195 255
154 195 255
154 195 255
154 195 255
154 195 255
154 195 255
154 195 255
154 195 255
155 195 255
155 195 255
155 195 255
155 195 255
155 195 255
155 195 255
155 195 255
155 195 255
155 195 255
155 195 255
155 195 255
155 195 255
155 195 255
156 196 255
156 196 255
156 196 255
156 196 255
156 196 255
156 196 255
156 196 255
156 196 255
156 196 255
156 196 255
156 196 255
157 196 255
157 196 255
157 196 255
157 196 255
157 196 255
157 196 255
157 196 255
157 197 255
157 197 255
157 197 255
157 197 255
158 197 255
158 197 255
158 197 255
158 197 255
158 197 255
158 197 255
158 197 255
158 197 255
158 197 255
158 197 255
159 197 255
159 197 255
159 197 255
159 198 255
159 198 255
159 198 255
159 198 255
159 198 255
159 198 255
160 198 255
160 198 255
160 198 255
160 198 255
160 198 255
160 198 255
160 198 255
160 198 255
160 198 255
160 198 255
161 199 255
161 199 255
161 199 255
161 199 255
161 199 255
161 199 255
161 199 255
161 199 255
161 199 255
161 199 255
162 199 255
162 199 255
162 199 255
162 199 255
162 199 255
162 199 255
162 200 255
162 200 255
162 200 255
163 200 255
163 200 255
163 200 255
163 200 255
163 200 255
163 200 255
163 200 255
163 200 255
163 200 255
163 200 255
164 200 255
164 200 255
164 200 255
164 201 255
164 201 255
164 201 255
164 201 255
164 201 255
164 201 255
164 201 255
165 201 255
165 201 255
165 201 255
165 201 255
165 201 255
165 201 255
165 201 255
165 201 255
165 201 255
165 201 255
165 201 255
166 202 255
166 202 255
166 202 255
166 202 255
166 202 255
166 202 255
166 202 255
166 202 255
166 202 255
166 202 255
166 202 255
167 202 255
167 202 255
167 202 255
167 202 255
167 202 255
167 202 255
167 202 255
167 202 255
167 203 255
167 203 255
167 203 255
167 203 255
168 203 255
168 203 255
168 203 255
168 203 255
168 203 255
168 203 255
168 203 255
168 203 255
168 203 255
168 203 255
168 203 255
168 203 255
169 203 255
169 203 255
169 203 255
169 203 255
169 204 255
169 204 255
169 204 255
169 204 255
169 204 255
169 204 255
169 204 255
169 204 255
169 204 255
170 204 255
170 204 255
170 204 255
169 204 255
169 204 255
169 204 255
169 204 255
169 204 255
169 204 255
169 204 255
169 204 255
169 204 255
169 203 255
169 203 255
169 203 255
169 203 255
168 203 255
168 203 255
168 203 255
168 203 255
168 203 255
168 203 255
168 203 255
168 203 255
168 203 255
168 203 255
168 203 255
168 203 255
168 203 255
167 203 255
167 203 255
167 203 255
167 202 255
167 202 255
167 202 255
167 202 255
167 202 255
167 202 255
167 202 255
167 202 255
166 202 255
166 202 255
166 202 255
166 202 255
166 202 255
166 202 255
166 202 255
166 202 255
166 202 255
166 202 255
166 202 255
165 201 255
165 201 255
165 201 255
165 201 255
165 201 255
165 201 255
165 201 255
165 201 255
165 201 255
165 201 255
165 201 255
164 201 255
164 201 255
164 201 255
164 201 255
164 201 255
164 201 255
164 200 255
164 200 255
164 200 255
164 200 255
163 200 255
163 200 255
163 200 255
163 200 255
163 200 255
163 200 255
163 200 255
163 200 255
163 200 255
163 200 255
162 200 255
162 200 255
162 200 255
162 199 255
162 199 255
162 199 255
162 199 255
162 199 255
162 199 255
161 199 255
161 199 255
161 199 255
161 199 255
161 199 255
161 199 255
161 199 255
161 199 255
161 199 255
161 199 255
160 198 255
160 198 255
160 198 255
160 198 255
160 198 255
160 198 255
160 198 255
160 198 255
160 198 255
160 198 255
159 198 255
159 198 255
159 198 255
159 198 255
159 198 255
159 198 255
159 197 255
159 197 255
159 197 255
158 197 255
158 197 255
158 197 255
158 197 255
158 197 255
158 197 255
158 197 255
158 197 255
158 197 255
158 197 255
157 197 255
157 197 255
157 197 255
157 197 255
157 196 255
157 196 255
157 196 255
157 196 255
157 196 255
157 196 255
157 196 255
156 196 255
156 196 255
156 196 255
156 196 255
156 196 255
156 196 255
156 196 255
156 196 255
156 196 255
156 196 255
156 196 255
156 196 255
155 195 255
155 195 255
155 195 255
155 195 255
155 195 255
155 195 255
155 195 255
155 195 255
155 195 255
155 195 255
155 195 255
155 195 255
155 195 255
155 195 255
154 195 255
154 195 255
154 195 255
154 195 255
154 195 255
154 195 255
154 195 255
154 195 255
154 195 255
154 195 255
154 195 255
154 195 255
154 195 255
154 195 255
154 195 255
154 194 255
154 194 255
154 194 255
154 194 255
154 194 255
154 194 255
154 194 255
154 194 255
154 194 255
154 194 255
154 194 255
154 194 255
154 194 255
154 194 255
154 194 255
154 194 255
154 194 255
154 194 255
154 194 255
154 194 255
154 194 255
154 194 255
154 194 255
154 194 255
154 194 255
154 194 255
154 194 255
154 194 255
154 194 255
154 194 255
154 194 255
154 194 255
154 194 255
154 194 255
154 194 255
154 194 255
154 194 255
154 195 255
154 195 255
154 195 255
154 195 255
154 195 255
154 195 255
154 195 255
154 195 255
154 195 255
154 195 255
154 195 255
154 195 255
154 195 255
154 195 255
155 195 255
155 195 255
155 195 255
155 195 255
155 195 255
155 195 255
155 195 255
155 195 255
155 195 255
155 195 255
155 195 255
155 195 255
155 195 255
155 195 255
156 196 255
156 196 255
156 196 255
156 196 255
156 196 255
156 196 255
156 196 255
156 196 255
156 196 255
156 196 255
156 196 255
156 196 255
157 196 255
157 196 255
157 196 255
157 196 255
157 196 255
157 196 255
157 196 255
157 197 255
157 197 255
157 197 255
157 197 255
158 197 255
158 197 255
158 197 255
158 197 255
158 197 255
158 197 255
158 197 255
158 197 255
158 197 255
158 197 255
159 197 255
159 197 255
159 197 255
159 198 255
159 198 255
159 198 255
159 198 255
159 198 255
159 198 255
160 198 255
160 198 255
160 198 255
160 198 255
160 198 255
160 198 255
160 198 255
160 198 255
160 198 255
160 198 255
161 199 255
161 199 255
161 199 255
161 199 255
161 199 255
161 199 255
161 199 255
161 199 255
161 199 255
161 199 255
162 199 255
162 199 255
162 199 255
162 199 255
162 199 255
162 199 255
162 200 255
162 200 255
162 200 255
163 200 255
163 200 255
163 200 255
163 200 255
163 200 255
163 200 255
163 200 255
163 200 255
163 200 255
163 200 255
164 200 255
164 200 255
164 200 255
164 201 255
164 201 255
164 201 255
164 201 255
164 201 255
164 201 255
164 201 255
164 201 255
165 201 255
165 201 255
165 201 255
165 201 255
165 201 255
165 201 255
165 201 255
165 201 255
165 201 255
165 201 255
166 202 255
166 202 255
166 202 255
166 202 255
166 202 255
166 202 255
166 202 255
166 202 255
166 202 255
166 202 255
166 202 255
167 202 255
167 202 255
167 202 255
167 202 255
167 202 255
167 202 255
167 202 255
167 202 255
167 203 255
167 203 255
167 203 255
168 203 255
168 203 255
168 203 255
168 203 255
168 203 255
168 203 255
168 203 255
168 203 255
168 203 255
168 203 255
168 203 255
168 203 255
168 203 255
169 203 255
169 203 255
169 203 255
169 203 255
169 204 255
169 204 255
169 204 255
169 204 255
169 204 255
169 204 255
169 204 255
169 204 255
169 204 255
170 204 255
170 204 255
170 204 255
170 204 255
170 204 255
170 204 255
170 204 255
170 204 255
170 204 255
169 204 255
169 204 255
169 204 255
169 204 255
169 204 255
169 204 255
169 204 255
169 204 255
169 204 255
169 203 255
169 203 255
169 203 255
169 203 255
168 203 255
168 203 255
168 203 255
168 203 255
168 203 255
168 203 255
168 203 255
168 203 255
168 203 255
168 203 255
168 203 255
168 203 255
167 203 255
167 203 255
167 203 255
167 203 255
167 202 255
167 202 255
167 202 255
167 202 255
167 202 255
167 202 255
167 202 255
167 202 255
166 202 255
166 202 255
166 202 255
166 202 255
166 202 255
166 202 255
166 202 255
166 202 255
166 202 255
166 202 255
166 202 255
165 201 255
165 201 255
165 201 255
165 201 255
165 201 255
165 201 255
165 201 255
165 201 255
165 201 255
165 201 255
164 201 255
164 201 255
164 201 255
164 201 255
164 201 255
164 201 255
164 201 255
164 200 255
164 200 255
164 200 255
163 200 255
163 200 255
163 200 255
163 200 255
163 200 255
163 200 255
163 200 255
163 200 255
163 200 255
163 200 255
162 200 255
162 200 255
162 200 255
162 200 255
162 199 255
162 199 255
162 199 255
162 199 255
162 199 255
162 199 255
161 199 255
161 199 255
161 199 255
161 199 255
161 199 255
161 199 255
161 199 255
161 199 255
161 199 255
161 199 255
160 198 255
160 198 255
160 198 255
160 198 255
160 198 255
160 198 255
160 198 255
160 198 255
160 198 255
159 198 255
159 198 255
159 198 255
159 198 255
159 198 255
159 198 255
159 198 255
159 197 255
159 197 255
159 197 255
158 197 255
158 197 255
158 197 255
158 197 255
158 197 255
158 197 255
158 197 255
158 197 255
158 197 255
158 197 255
158 197 255
157 197 255
157 197 255
157 197 255
157 196 255
157 196 255
157 196 255
157 196 255
157 196 255
157 196 255
157 196 255
156 196 255
156 196 255
156 196 255
156 196 255
156 196 255
156 196 255
156 196 255
156 196 255
156 196 255
156 196 255
156 196 255
156 196 255
156 196 255
155 195 255
155 195 255
155 195 255
155 195 255
155 195 255
155 195 255
155 195 255
155 195 255
155 195 255
155 195 255
155 195 255
155 195 255
155 195 255
155 195 255
155 195 255
155 195 255
154 195 255
154 195 255
154 195 255
154 195 255
154 195 255
154 195 255
154 195 255
154 195 255
154 195 255
154 195 255
154 195 255
154 195 255
154 195 255
154 195 255
154 195 255
154 195 255
154 195 255
154 195 255
154 195 255
154 195 255
154 194 255
154 194 255
154 194 255
154 194 255
154 194 255
154 194 255
154 194 255
154 194 255
154 194 255
154 194 255
154 194 255
154 195 255
154 194 255
154 195 255
154 195 255
154 195 255
154 195 255
154 195 255
154 195 255
154 195 255
154 195 255
154 195 255
154 195 255
154 195 255
154 195 255
154 195 255
154 195 255
154 195 255
154 195 255
154 195 255
154 195 255
154 195 255
154 195 255
154 195 255
154 195 255
155 195 255
155 195 255
155 195 255
155 195 255
155 195 255
155 195 255
155 195 255
155 195 255
155 195 255
155 195 255
155 195 255
155 195 255
155 195 255
155 195 255
155 195 255
156 196 255
156 196 255
156 196 255
156 196 255
156 196 255
156 196 255
156 196 255
156 196 255
156 196 255
156 196 255
156 196 255
156 196 255
156 196 255
157 196 255
157 196 255
157 196 255
157 196 255
157 196 255
157 196 255
157 196 255
157 197 255
157 197 255
157 197 255
157 197 255
158 197 255
158 197 255
158 197 255
158 197 255
158 197 255
158 197 255
158 197 255
158 197 255
158 197 255
158 197 255
159 197 255
159 197 255
159 197 255
159 198 255
159 198 255
159 198 255
159 198 255
159 198 255
159 198 255
159 198 255
160 198 255
160 198 255
160 198 255
160 198 255
160 198 255
160 198 255
160 198 255
160 198 255
160 198 255
161 199 255
161 199 255
161 199 255
161 199 255
161 199 255
161 199 255
161 199 255
161 199 255
161 199 255
161 199 255
162 199 255
162 199 255
162 199 255
162 199 255
162 199 255
162 199 255
162 200 255
162 200 255
162 200 255
162 200 255
163 200 255
163 200 255
163 200 255
163 200 255
163 200 255
163 200 255
163 200 255
163 200 255
163 200 255
164 200 255
164 200 255
164 200 255
164 200 255
164 201 255
164 201 255
164 201 255
164 201 255
164 201 255
164 201 255
164 201 255
165 201 255
165 201 255
165 201 255
165 201 255
165 201 255
165 201 255
165 201 255
165 201 255
165 201 255
165 201 255
166 202 255
166 202 255
166 202 255
166 202 255
166 202 255
166 202 255
166 202 255
166 202 255
166 202 255
166 202 255
166 202 255
167 202 255
167 202 255
167 202 255
167 202 255
167 202 255
167 202 255
167 202 255
167 202 255
167 203 255
167 203 255
167 203 255
167 203 255
168 203 255
168 203 255
168 203 255
168 203 255
168 203 255
168 203 255
168 203 255
168 203 255
168 203 255
168 203 255
168 203 255
168 203 255
169 203 255
169 203 255
169 203 255
169 203 255
169 204 255
169 204 255
169 204 255
169 204 255
169 204 255
169 204 255
169 204 255
169 204 255
169 204 255
170 204 255
170 204 255
170 204 255
170 204 255
170 204 255
170 204 255
170 204 255
170 204 255
170 204 255
170 204 255
170 204 255
170 204 255
170 204 255
170 204 255
170 204 255
169 204 255
169 204 255
169 204 255
169 204 255
169 204 255
169 204 255
169 204 255
169 204 255
169 204 255
169 203 255
169 203 255
169 203 255
169 203 255
168 203 255
168 203 255
168 203 255
168 203 255
168 203 255
168 203 255
168 203 255
168 203 255
168 203 255
168 203 255
168 203 255
168 203 255
167 203 255
167 203 255
167 203 255
167 203 255
167 202 255
167 202 255
167 202 255
167 202 255
167 202 255
167 202 255
167 202 255
167 202 255
166 202 255
166 202 255
166 202 255
166 202 255
166 202 255
166 202 255
166 202 255
166 202 255
166 202 255
166 202 255
166 202 255
165 201 255
165 201 255
165 201 255
165 201 255
165 201 255
165 201 255
165 201 255
165 201 255
165 201 255
165 201 255
164 201 255
164 201 255
164 201 255
164 201 255
164 201 255
164 201 255
164 201 255
164 200 255
164 200 255
164 200 255
163 200 255
163 200 255
163 200 255
163 200 255
163 200 255
163 200 255
163 200 255
163 200 255
163 200 255
163 200 255
162 200 255
162 200 255
162 200 255
162 199 255
162 199 255
162 199 255
162 199 255
162 199 255
162 199 255
162 199 255
161 199 255
161 199 255
161 199 255
161 199 255
161 199 255
161 199 255
161 199 255
161 199 255
161 199 255
161 199 255
160 198 255
160 198 255
160 198 255
160 198 255
160 198 255
160 198 255
160 198 255
160 198 255
160 198 255
159 198 255
159 198 255
159 198 255
159 198 255
159 198 255
159 198 255
159 198 255
159 197 255
159 197 255
159 197 255
158 197 255
158 197 255
158 197 255
158 197 255
158 197 255
158 197 255
158 197 255
158 197 255
158 197 255
158 197 255
158 197 255
157 197 255
157 197 255
157 197 255
157 196 255
157 196 255
157 196 255
157 196 255
157 196 255
157 196 255
157 196 255
157 196 255
156 196 255
156 196 255
156 196 255
156 196 255
156 196 255
156 196 255
156 196 255
156 196 255
156 196 255
156 196 255
156 196 255
156 196 255
156 196 255
155 195 255
155 195 255
155 195 255
155 195 255
155 195 255
155 195 255
155 195 255
155 195 255
155 195 255
155 195 255
155 195 255
155 195 255
155 195 255
155 195 255
155 195 255
155 195 255
155 195 255
155 195 255
155 195 255
154 195 255
154 195 255
154 195 255
154 195 255
154 195 255
154 195 255
154 195 255
154 195 255
154 195 255
154 195 255
154 195 255
154 195 255
154 195 255
154 195 255
154 195 255
154 195 255
154 195 255
154 195 255
154 195 255
154 195 255
154 195 255
154 195 255
154 195 255
154 195 255
154 195 255
154 195 255
154 195 255
154 195 255
154 195 255
154 195 255
154 195 255
154 195 255
154 195 255
154 195 255
154 195 255
154 195 255
154 195 255
154 195 255
154 195 255
154 195 255
155 195 255
155 195 255
155 195 255
155 195 255
155 195 255
155 195 255
155 195 255
155 195 255
155 195 255
155 195 255
155 195 255
155 195 255
155 195 255
155 195 255
155 195 255
155 195 255
155 195 255
155 195 255
155 195 255
156 196 255
156 196 255
156 196 255
156 196 255
156 196 255
156 196 255
156 196 255
156 196 255
156 196 255
156 196 255
156 196 255
156 196 255
156 196 255
157 196 255
157 196 255
157 196 255
157 196 255
157 196 255
157 196 255
157 196 255
157 196 255
157 197 255
157 197 255
157 197 255
157 197 255
158 197 255
158 197 255
158 197 255
158 197 255
158 197 255
158 197 255
158 197 255
158 197 255
158 197 255
158 197 255
159 197 255
159 197 255
159 197 255
159 198 255
159 198 255
159 198 255
159 198 255
159 198 255
159 198 255
159 198 255
160 198 255
160 198 255
160 198 255
160 198 255
160 198 255
160 198 255
160 198 255
160 198 255
160 198 255
161 198 255
161 199 255
161 199 255
161 199 255
161 199 255
161 199 255
161 199 255
161 199 255
161 199 255
161 199 255
162 199 255
162 199 255
162 199 255
162 199 255
162 199 255
162 199 255
162 199 255
162 200 255
162 200 255
162 200 255
163 200 255
163 200 255
163 200 255
163 200 255
163 200 255
163 200 255
163 200 255
163 200 255
163 200 255
163 200 255
164 200 255
164 200 255
164 200 255
164 201 255
164 201 255
164 201 255
164 201 255
164 201 255
164 201 255
164 201 255
165 201 255
165 201 255
165 201 255
165 201 255
165 201 255
165 201 255
165 201 255
165 201 255
165 201 255
165 201 255
166 202 255
166 202 255
166 202 255
166 202 255
166 202 255
166 202 255
166 202 255
166 202 255
166 202 255
166 202 255
166 202 255
167 202 255
167 202 255
167 202 255
167 202 255
167 202 255
167 202 255
167 202 255
167 202 255
167 203 255
167 203 255
167 203 255
167 203 255
168 203 255
168 203 255
168 203 255
168 203 255
168 203 255
168 203 255
168 203 255
168 203 255
168 203 255
168 203 255
168 203 255
168 203 255
169 203 255
169 203 255
169 203 255
169 203 255
169 204 255
169 204 255
169 204 255
169 204 255
169 204 255
169 204 255
169 204 255
169 204 255
170 204 255
170 204 255
170 204 255
170 204 255
170 204 255
170 204 255
170 204 255
170 204 255
170 204 255
170 204 255
170 204 255
170 204 255
170 204 255
170 204 255
170 204 255
170 204 255
170 204 255
170 204 255
170 204 255
170 204 255
170 204 255
170 204 255
170 204 255
169 204 255
169 204 255
169 204 255
169 204 255
169 204 255
169 204 255
169 204 255
169 204 255
169 203 255
169 203 255
169 203 255
169 203 255
168 203 255
168 203 255
168 203 255
168 203 255
168 203 255
168 203 255
168 203 255
168 203 255
168 203 255
168 203 255
168 203 255
168 203 255
167 203 255
167 203 255
167 203 255
167 203 255
167 202 255
167 202 255
167 202 255
167 202 255
167 202 255
167 202 255
167 202 255
167 202 255
166 202 255
166 202 255
166 202 255
166 202 255
166 202 255
166 202 255
166 202 255
166 202 255
166 202 255
166 202 255
165 201 255
165 201 255
165 201 255
165 201 255
165 201 255
165 201 255
165 201 255
165 201 255
165 201 255
165 201 255
165 201 255
164 201 255
164 201 255
164 201 255
164 201 255
164 201 255
164 201 255
164 201 255
164 200 255
164 200 255
164 200 255
163 200 255
163 200 255
163 200 255
163 200 255
163 200 255
163 200 255
163 200 255
163 200 255
163 200 255
163 200 255
162 200 255
162 200 255
162 200 255
162 199 255
162 199 255
162 199 255
162 199 255
162 199 255
162 199 255
162 199 255
161 199 255
161 199 255
161 199 255
161 199 255
161 199 255
161 199 255
161 199 255
161 199 255
161 199 255
160 198 255
160 198 255
160 198 255
160 198 255
160 198 255
160 198 255
160 198 255
160 198 255
160 198 255
160 198 255
159 198 255
159 198 255
159 198 255
159 198 255
159 198 255
159 198 255
159 198 255
159 197 255
159 197 255
159 197 255
158 197 255
158 197 255
158 197 255
158 197 255
158 197 255
158 197 255
158 197 255
158 197 255
158 197 255
158 197 255
158 197 255
157 197 255
157 197 255
157 197 255
157 197 255
157 196 255
157 196 255
157 196 255
157 196 255
157 196 255
157 196 255
157 196 255
157 196 255
156 196 255
156 196 255
156 196 255
156 196 255
156 196 255
156 196 255
156 196 255
156 196 255
156 196 255
156 196 255
156 196 255
156 196 255
156 196 255
156 196 255
155 195 255
155 195 255
155 195 255
155 195 255
155 195 255
155 195 255
155 195 255
155 195 255
155 195 255
155 195 255
155 195 255
155 195 255
155 195 255
155 195 255
155 195 255
155 195 255
155 195 255
155 195 255
155 195 255
155 195 255
155 195 255
155 195 255
155 195 255
155 195 255
154 195 255
155 195 255
154 195 255
154 195 255
154 195 255
154 195 255
154 195 255
154 195 255
154 195 255
154 195 255
154 195 255
154 195 255
154 195 255
154 195 255
154 195 255
154 195 255
154 195 255
154 195 255
154 195 255
155 195 255
155 195 255
155 195 255
155 195 255
155 195 255
155 195 255
155 195 255
155 195 255
155 195 255
155 195 255
155 195 255
155 195 255
155 195 255
155 195 255
155 195 255
155 195 255
155 195 255
155 195 255
155 195 255
155 195 255
155 195 255
155 195 255
155 195 255
155 195 255
155 195 255
156 196 255
156 196 255
156 196 255
156 196 255
156 196 255
156 196 255
156 196 255
156 196 255
156 196 255
156 196 255
156 196 255
156 196 255
156 196 255
156 196 255
157 196 255
157 196 255
157 196 255
157 196 255
157 196 255
157 196 255
157 196 255
157 196 255
157 197 255
157 197 255
157 197 255
157 197 255
158 197 255
158 197 255
158 197 255
158 197 255
158 197 255
158 197 255
158 197 255
158 197 255
158 197 255
158 197 255
158 197 255
159 197 255
159 197 255
159 197 255
159 198 255
159 198 255
159 198 255
159 198 255
159 198 255
159 198 255
159 198 255
160 198 255
160 198 255
160 198 255
160 198 255
160 198 255
160 198 255
160 198 255
160 198 255
160 198 255
160 198 255
161 199 255
161 199 255
161 199 255
161 199 255
161 199 255
161 199 255
161 199 255
161 199 255
161 199 255
162 199 255
162 199 255
162 199 255
162 199 255
162 199 255
162 199 255
162 199 255
162 200 255
162 200 255
162 200 255
163 200 255
163 200 255
163 200 255
163 200 255
163 200 255
163 200 255
163 200 255
163 200 255
163 200 255
163 200 255
164 200 255
164 200 255
164 200 255
164 201 255
164 201 255
164 201 255
164 201 255
164 201 255
164 201 255
164 201 255
165 201 255
165 201 255
165 201 255
165 201 255
165 201 255
165 201 255
165 201 255
165 201 255
165 201 255
165 201 255
166 202 255
166 202 255
166 202 255
166 202 255
166 202 255
166 202 255
166 202 255
166 202 255
166 202 255
166 202 255
166 202 255
167 202 255
167 202 255
167 202 255
167 202 255
167 202 255
167 202 255
167 202 255
167 202 255
167 203 255
167 203 255
167 203 255
167 203 255
168 203 255
168 203 255
168 203 255
168 203 255
168 203 255
168 203 255
168 203 255
168 203 255
168 203 255
168 203 255
168 203 255
168 203 255
169 203 255
169 203 255
169 203 255
169 203 255
169 204 255
169 204 255
169 204 255
169 204 255
169 204 255
169 204 255
169 204 255
169 204 255
170 204 255
170 204 255
170 204 255
170 204 255
170 204 255
170 204 255
170 204 255
170 204 255
170 204 255
170 204 255
170 204 255
170 204 255
170 204 255
171 205 255
171 205 255
170 204 255
170 204 255
170 204 255
170 204 255
170 204 255
170 204 255
170 204 255
170 204 255
170 204 255
170 204 255
170 204 255
170 204 255
170 204 255
170 204 255
169 204 255
169 204 255
169 204 255
169 204 255
169 204 255
169 204 255
169 204 255
169 204 255
169 203 255
169 203 255
169 203 255
169 203 255
168 203 255
168 203 255
168 203 255
168 203 255
168 203 255
168 203 255
168 203 255
168 203 255
168 203 255
168 203 255
168 203 255
168 203 255
167 203 255
167 203 255
167 203 255
167 203 255
167 202 255
167 202 255
167 202 255
167 202 255
167 202 255
167 202 255
167 202 255
167 202 255
166 202 255
166 202 255
166 202 255
166 202 255
166 202 255
166 202 255
166 202 255
166 202 255
166 202 255
166 202 255
165 201 255
165 201 255
165 201 255
165 201 255
165 201 255
165 201 255
165 201 255
165 201 255
165 201 255
165 201 255
165 201 255
164 201 255
164 201 255
164 201 255
164 201 255
164 201 255
164 201 255
164 201 255
164 200 255
164 200 255
164 200 255
163 200 255
163 200 255
163 200 255
163 200 255
163 200 255
163 200 255
163 200 255
163 200 255
163 200 255
163 200 255
162 200 255
162 200 255
162 200 255
162 199 255
162 199 255
162 199 255
162 199 255
162 199 255
162 199 255
161 199 255
161 199 255
161 199 255
161 199 255
161 199 255
161 199 255
161 199 255
161 199 255
161 199 255
161 199 255
160 198 255
160 198 255
160 198 255
160 198 255
160 198 255
160 198 255
160 198 255
160 198 255
160 198 255
160 198 255
159 198 255
159 198 255
159 198 255
159 198 255
159 198 255
159 198 255
159 198 255
159 197 255
159 197 255
159 197 255
158 197 255
158 197 255
158 197 255
158 197 255
158 197 255
158 197 255
158 197 255
158 197 255
158 197 255
158 197 255
158 197 255
157 197 255
157 197 255
157 197 255
157 197 255
157 196 255
157 196 255
157 196 255
157 196 255
157 196 255
157 196 255
157 196 255
157 196 255
157 196 255
156 196 255
156 196 255
156 196 255
156 196 255
156 196 255
156 196 255
156 196 255
156 196 255
156 196 255
156 196 255
156 196 255
156 196 255
156 196 255
156 196 255
156 196 255
155 195 255
155 195 255
155 195 255
155 195 255
155 195 255
155 195 255
155 195 255
155 195 255
155 195 255
155 195 255
155 195 255
155 195 255
155 195 255
155 195 255
155 195 255
155 195 255
155 195 255
155 195 255
155 195 255
155 195 255
155 195 255
155 195 255
155 195 255
155 195 255
155 195 255
155 195 255
155 195 255
155 195 255
155 195 255
155 195 255
155 195 255
155 195 255
155 195 255
155 195 255
155 195 255
155 195 255
155 195 255
155 195 255
155 195 255
155 195 255
155 195 255
155 195 255
155 195 255
155 195 255
155 195 255
155 195 255
155 195 255
155 195 255
155 195 255
155 195 255
155 195 255
155 195 255
155 195 255
155 195 255
155 195 255
155 195 255
155 195 255
155 195 255
156 196 255
156 196 255
156 196 255
156 196 255
156 196 255
156 196 255
156 196 255
156 196 255
156 196 255
156 196 255
156 196 255
156 196 255
156 196 255
156 196 255
156 196 255
157 196 255
157 196 255
157 196 255
157 196 255
157 196 255
157 196 255
157 196 255
157 196 255
157 196 255
157 197 255
157 197 255
157 197 255
157 197 255
158 197 255
158 197 255
158 197 255
158 197 255
158 197 255
158 197 255
158 197 255
158 197 255
158 197 255
158 197 255
158 197 255
159 197 255
159 197 255
159 197 255
159 198 255
159 198 255
159 198 255
159 198 255
159 198 255
159 198 255
159 198 255
160 198 255
160 198 255
160 198 255
160 198 255
160 198 255
160 198 255
160 198 255
160 198 255
160 198 255
160 198 255
161 199 255
161 199 255
161 199 255
161 199 255
161 199 255
161 199 255
161 199 255
161 199 255
161 199 255
161 199 255
162 199 255
162 199 255
162 199 255
162 199 255
162 199 255
162 199 255
162 200 255
162 200 255
162 200 255
163 200 255
163 200 255
163 200 255
163 200 255
163 200 255
163 200 255
163 200 255
163 200 255
163 200 255
163 200 255
164 200 255
164 200 255
164 200 255
164 201 255
164 201 255
164 201 255
164 201 255
164 201 255
164 201 255
164 201 255
165 201 255
165 201 255
165 201 255
165 201 255
165 201 255
165 201 255
165 201 255
165 201 255
165 201 255
165 201 255
166 202 255
166 202 255
166 202 255
166 202 255
166 202 255
166 202 255
166 202 255
166 202 255
166 202 255
166 202 255
166 202 255
166 202 255
167 202 255
167 202 255
167 202 255
167 202 255
167 202 255
167 202 255
167 202 255
167 203 255
167 203 255
167 203 255
167 203 255
168 203 255
168 203 255
168 203 255
168 203 255
168 203 255
168 203 255
168 203 255
168 203 255
168 203 255
168 203 255
168 203 255
168 203 255
169 203 255
169 203 255
169 203 255
169 203 255
169 204 255
169 204 255
169 204 255
169 204 255
169 204 255
169 204 255
169 204 255
169 204 255
170 204 255
170 204 255
170 204 255
170 204 255
170 204 255
170 204 255
170 204 255
170 204 255
170 204 255
170 204 255
170 204 255
170 204 255
170 204 255
170 204 255
171 205 255
171 205 255
171 205 255
171 205 255
171 205 255
171 205 255
171 205 255
171 205 255
170 204 255
170 204 255
170 204 255
170 204 255
170 204 255
170 204 255
170 204 255
170 204 255
170 204 255
170 204 255
170 204 255
170 204 255
170 204 255
169 204 255
169 204 255
169 204 255
169 204 255
169 204 255
169 204 255
169 204 255
169 204 255
169 203 255
169 203 255
169 203 255
169 203 255
169 203 255
168 203 255
168 203 255
168 203 255
168 203 255
168 203 255
168 203 255
168 203 255
168 203 255
168 203 255
168 203 255
168 203 255
167 203 255
167 203 255
167 203 255
167 203 255
167 202 255
167 202 255
167 202 255
167 202 255
167 202 255
167 202 255
167 202 255
167 202 255
166 202 255
166 202 255
166 202 255
166 202 255
166 202 255
166 202 255
166 202 255
166 202 255
166 202 255
166 202 255
165 201 255
165 201 255
165 201 255
165 201 255
165 201 255
165 201 255
165 201 255
165 201 255
165 201 255
165 201 255
165 201 255
164 201 255
164 201 255
164 201 255
164 201 255
164 201 255
164 201 255
164 200 255
164 200 255
164 200 255
164 200 255
163 200 255
163 200 255
163 200 255
163 200 255
163 200 255
163 200 255
163 200 255
163 200 255
163 200 255
163 200 255
162 200 255
162 200 255
162 200 255
162 199 255
162 199 255
162 199 255
162 199 255
162 199 255
162 199 255
161 199 255
161 199 255
161 199 255
161 199 255
161 199 255
161 199 255
161 199 255
161 199 255
161 199 255
161 199 255
160 198 255
160 198 255
160 198 255
160 198 255
160 198 255
160 198 255
160 198 255
160 198 255
160 198 255
160 198 255
159 198 255
159 198 255
159 198 255
159 198 255
159 198 255
159 198 255
159 198 255
159 197 255
159 197 255
159 197 255
159 197 255
158 197 255
158 197 255
158 197 255
158 197 255
158 197 255
158 197 255
158 197 255
158 197 255
158 197 255
158 197 255
158 197 255
157 197 255
157 197 255
157 197 255
157 197 255
157 196 255
157 196 255
157 196 255
157 196 255
157 196 255
157 196 255
157 196 255
157 196 255
157 196 255
156 196 255
156 196 255
156 196 255
156 196 255
156 196 255
156 196 255
156 196 255
156 196 255
156 196 255
156 196 255
156 196 255
156 196 255
156 196 255
156 196 255
156 196 255
156 196 255
156 196 255
156 196 255
155 195 255
155 195 255
155 195 255
155 195 255
155 195 255
155 195 255
155 195 255
155 195 255
155 195 255
155 195 255
155 195 255
155 195 255
155 195 255
155 195 255
155 195 255
155 195 255
155 195 255
155 195 255
155 195 255
155 195 255
155 195 255
155 195 255
155 195 255
155 195 255
155 195 255
155 195 255
155 195 255
155 195 255
155 195 255
155 195 255
155 195 255
155 195 255
155 195 255
155 195 255
155 195 255
155 195 255
155 195 255
155 195 255
155 195 255
155 195 255
155 195 255
155 195 255
155 195 255
155 195 255
156 196 255
156 196 255
156 196 255
156 196 255
156 196 255
156 196 255
156 196 255
156 196 255
156 196 255
156 196 255
156 196 255
156 196 255
156 196 255
156 196 255
156 196 255
156 196 255
156 196 255
156 196 255
157 196 255
157 196 255
157 196 255
157 196 255
157 196 255
157 196 255
157 196 255
157 196 255
157 196 255
157 197 255
157 197 255
157 197 255
157 197 255
158 197 255
158 197 255
158 197 255
158 197 255
158 197 255
158 197 255
158 197 255
158 197 255
158 197 255
158 197 255
158 197 255
159 197 255
159 197 255
159 197 255
159 197 255
159 198 255
159 198 255
159 198 255
159 198 255
159 198 255
159 198 255
159 198 255
160 198 255
160 198 255
160 198 255
160 198 255
160 198 255
160 198 255
160 198 255
160 198 255
160 198 255
160 198 255
161 199 255
161 199 255
161 199 255
161 199 255
161 199 255
161 199 255
161 199 255
161 199 255
161 199 255
161 199 255
162 199 255
162 199 255
162 199 255
162 199 255
162 199 255
162 199 255
162 200 255
162 200 255
162 200 255
163 200 255
163 200 255
163 200 255
163 200 255
163 200 255
163 200 255
163 200 255
163 200 255
163 200 255
163 200 255
164 200 255
164 200 255
164 200 255
164 200 255
164 201 255
164 201 255
164 201 255
164 201 255
164 201 255
164 201 255
165 201 255
165 201 255
165 201 255
165 201 255
165 201 255
165 201 255
165 201 255
165 201 255
165 201 255
165 201 255
165 201 255
166 202 255
166 202 255
166 202 255
166 202 255
166 202 255
166 202 255
166 202 255
166 202 255
166 202 255
166 202 255
167 202 255
167 202 255
167 202 255
167 202 255
167 202 255
167 202 255
167 202 255
167 202 255
167 203 255
167 203 255
167 203 255
168 203 255
168 203 255
168 203 255
168 203 255
168 203 255
168 203 255
168 203 255
168 203 255
168 203 255
168 203 255
168 203 255
168 203 255
169 203 255
169 203 255
169 203 255
169 203 255
169 203 255
169 204 255
169 204 255
169 204 255
169 204 255
169 204 255
169 204 255
169 204 255
169 204 255
170 204 255
170 204 255
170 204 255
170 204 255
170 204 255
170 204 255
170 204 255
170 204 255
170 204 255
170 204 255
170 204 255
170 204 255
170 204 255
171 205 255
171 205 255
171 205 255
171 205 255
171 205 255
171 205 255
171 205 255
171 205 255
171 205 255
171 205 255
171 205 255
171 205 255
171 205 255
171 205 255
171 205 255
170 204 255
170 204 255
170 204 255
170 204 255
170 204 255
170 204 255
170 204 255
170 204 255
170 204 255
170 204 255
170 204 255
170 204 255
170 204 255
169 204 255
169 204 255
169 204 255
169 204 255
169 204 255
169 204 255
169 204 255
169 204 255
169 204 255
169 203 255
169 203 255
169 203 255
169 203 255
168 203 255
168 203 255
168 203 255
168 203 255
168 203 255
168 203 255
168 203 255
168 203 255
168 203 255
168 203 255
168 203 255
167 203 255
167 203 255
167 203 255
167 203 255
167 202 255
167 202 255
167 202 255
167 202 255
167 202 255
167 202 255
167 202 255
167 202 255
166 202 255
166 202 255
166 202 255
166 202 255
166 202 255
166 202 255
166 202 255
166 202 255
166 202 255
166 202 255
165 201 255
165 201 255
165 201 255
165 201 255
165 201 255
165 201 255
165 201 255
165 201 255
165 201 255
165 201 255
165 201 255
164 201 255
164 201 255
164 201 255
164 201 255
164 201 255
164 201 255
164 200 255
164 200 255
164 200 255
164 200 255
163 200 255
163 200 255
163 200 255
163 200 255
163 200 255
163 200 255
163 200 255
163 200 255
163 200 255
163 200 255
162 200 255
162 200 255
162 200 255
162 199 255
162 199 255
162 199 255
162 199 255
162 199 255
162 199 255
161 199 255
161 199 255
161 199 255
161 199 255
161 199 255
161 199 255
161 199 255
161 199 255
161 199 255
161 199 255
160 198 255
160 198 255
160 198 255
160 198 255
160 198 255
160 198 255
160 198 255
160 198 255
160 198 255
160 198 255
159 198 255
159 198 255
159 198 255
159 198 255
159 198 255
159 198 255
159 198 255
159 198 255
159 197 255
159 197 255
159 197 255
158 197 255
158 197 255
158 197 255
158 197 255
158 197 255
158 197 255
158 197 255
158 197 255
158 197 255
158 197 255
158 197 255
158 197 255
157 197 255
157 197 255
157 197 255
157 197 255
157 196 255
157 196 255
157 196 255
157 196 255
157 196 255
157 196 255
157 196 255
157 196 255
157 196 255
157 196 255
156 196 255
156 196 255
156 196 255
156 196 255
156 196 255
156 196 255
156 196 255
156 196 255
156 196 255
156 196 255
156 196 255
156 196 255
156 196 255
156 196 255
156 196 255
156 196 255
156 196 255
156 196 255
156 196 255
156 196 255
156 196 255
156 196 255
156 196 255
155 195 255
155 195 255
155 195 255
155 195 255
155 195 255
155 195 255
155 195 255
155 195 255
155 195 255
155 195 255
155 195 255
155 195 255
155 195 255
155 195 255
155 195 255
155 195 255
155 195 255
155 195 255
155 195 255
155 195 255
155 195 255
155 195 255
155 195 255
155 195 255
156 196 255
156 196 255
156 196 255
156 196 255
156 196 255
156 196 255
156 196 255
156 196 255
156 196 255
156 196 255
156 196 255
156 196 255
156 196 255
156 196 255
156 196 255
156 196 255
156 196 255
156 196 255
156 196 255
156 196 255
156 196 255
156 196 255
156 196 255
157 196 255
157 196 255
157 196 255
157 196 255
157 196 255
157 196 255
157 196 255
157 196 255
157 196 255
157 196 255
157 197 255
157 197 255
157 197 255
157 197 255
158 197 255
158 197 255
158 197 255
158 197 255
158 197 255
158 197 255
158 197 255
158 197 255
158 197 255
158 197 255
158 197 255
158 197 255
159 197 255
159 197 255
159 197 255
159 197 255
159 198 255
159 198 255
159 198 255
159 198 255
159 198 255
159 198 255
159 198 255
160 198 255
160 198 255
160 198 255
160 198 255
160 198 255
160 198 255
160 198 255
160 198 255
160 198 255
160 198 255
161 199 255
161 199 255
161 199 255
161 199 255
161 199 255
161 199 255
161 199 255
161 199 255
161 199 255
161 199 255
162 199 255
162 199 255
162 199 255
162 199 255
162 199 255
162 199 255
162 200 255
162 200 255
162 200 255
163 200 255
163 200 255
163 200 255
163 200 255
163 200 255
163 200 255
163 200 255
163 200 255
163 200 255
163 200 255
164 200 255
164 200 255
164 200 255
164 200 255
164 201 255
164 201 255
164 201 255
164 201 255
164 201 255
164 201 255
165 201 255
165 201 255
165 201 255
165 201 255
165 201 255
165 201 255
165 201 255
165 201 255
165 201 255
165 201 255
165 201 255
166 202 255
166 202 255
166 202 255
166 202 255
166 202 255
166 202 255
166 202 255
166 202 255
166 202 255
166 202 255
167 202 255
167 202 255
167 202 255
167 202 255
167 202 255
167 202 255
167 202 255
167 202 255
167 203 255
167 203 255
167 203 255
168 203 255
168 203 255
168 203 255
168 203 255
168 203 255
168 203 255
168 203 255
168 203 255
168 203 255
168 203 255
168 203 255
168 203 255
169 203 255
169 203 255
169 203 255
169 203 255
169 204 255
169 204 255
169 204 255
169 204 255
169 204 255
169 204 255
169 204 255
169 204 255
169 204 255
170 204 255
170 204 255
170 204 255
170 204 255
170 204 255
170 204 255
170 204 255
170 204 255
170 204 255
170 204 255
170 204 255
170 204 255
170 204 255
171 205 255
171 205 255
171 205 255
171 205 255
171 205 255
171 205 255
171 205 255
171 205 255
171 205 255
171 205 255
171 205 255
171 205 255
171 205 255
171 205 255
171 205 255
171 205 255
171 205 255
171 205 255
171 205 255
171 205 255
171 205 255
171 205 255
170 204 255
170 204 255
170 204 255
170 204 255
170 204 255
170 204 255
170 204 255
170 204 255
170 204 255
170 204 255
170 204 255
170 204 255
169 204 255
169 204 255
169 204 255
169 204 255
169 204 255
169 204 255
169 204 255
169 204 255
169 204 255
169 203 255
169 203 255
169 203 255
169 203 255
168 203 255
168 203 255
168 203 255
168 203 255
168 203 255
168 203 255
168 203 255
168 203 255
168 203 255
168 203 255
168 203 255
168 203 255
167 203 255
167 203 255
167 203 255
167 202 255
167 202 255
167 202 255
167 202 255
167 202 255
167 202 255
167 202 255
167 202 255
166 202 255
166 202 255
166 202 255
166 202 255
166 202 255
166 202 255
166 202 255
166 202 255
166 202 255
166 202 255
165 201 255
165 201 255
165 201 255
165 201 255
165 201 255
165 201 255
165 201 255
165 201 255
165 201 255
165 201 255
165 201 255
164 201 255
164 201 255
164 201 255
164 201 255
164 201 255
164 201 255
164 200 255
164 200 255
164 200 255
164 200 255
163 200 255
163 200 255
163 200 255
163 200 255
163 200 255
163 200 255
163 200 255
163 200 255
163 200 255
162 200 255
162 200 255
162 200 255
162 200 255
162 199 255
162 199 255
162 199 255
162 199 255
162 199 255
162 199 255
161 199 255
161 199 255
161 199 255
161 199 255
161 199 255
161 199 255
161 199 255
161 199 255
161 199 255
161 199 255
160 198 255
160 198 255
160 198 255
160 198 255
160 198 255
160 198 255
160 198 255
160 198 255
160 198 255
160 198 255
160 198 255
159 198 255
159 198 255
159 198 255
159 198 255
159 198 255
159 198 255
159 198 255
159 197 255
159 197 255
159 197 255
158 197 255
158 197 255
158 197 255
158 197 255
158 197 255
158 197 255
158 197 255
158 197 255
158 197 255
158 197 255
158 197 255
158 197 255
158 197 255
157 197 255
157 197 255
157 197 255
157 197 255
157 196 255
157 196 255
157 196 255
157 196 255
157 196 255
157 196 255
157 196 255
157 196 255
157 196 255
157 196 255
157 196 255
157 196 255
156 196 255
156 196 255
156 196 255
156 196 255
156 196 255
156 196 255
156 196 255
156 196 255
156 196 255
156 196 255
156 196 255
156 196 255
156 196 255
156 196 255
156 196 255
156 196 255
156 196 255
156 196 255
156 196 255
156 196 255
156 196 255
156 196 255
156 196 255
156 196 255
156 196 255
156 196 255
156 196 255
156 196 255
156 196 255
156 196 255
156 196 255
156 196 255
156 196 255
156 196 255
156 196 255
156 196 255
156 196 255
156 196 255
156 196 255
156 196 255
156 196 255
156 196 255
156 196 255
156 196 255
156 196 255
156 196 255
156 196 255
156 196 255
156 196 255
156 196 255
156 196 255
156 196 255
156 196 255
156 196 255
156 196 255
156 196 255
156 196 255
156 196 255
156 196 255
157 196 255
157 196 255
157 196 255
157 196 255
157 196 255
157 196 255
157 196 255
157 196 255
157 196 255
157 196 255
157 196 255
157 197 255
157 197 255
157 197 255
157 197 255
158 197 255
158 197 255
158 197 255
158 197 255
158 197 255
158 197 255
158 197 255
158 197 255
158 197 255
158 197 255
158 197 255
158 197 255
158 197 255
159 197 255
159 197 255
159 197 255
159 198 255
159 198 255
159 198 255
159 198 255
159 198 255
159 198 255
159 198 255
160 198 255
160 198 255
160 198 255
160 198 255
160 198 255
160 198 255
160 198 255
160 198 255
160 198 255
160 198 255
160 198 255
161 199 255
161 199 255
161 199 255
161 199 255
161 199 255
161 199 255
161 199 255
161 199 255
161 199 255
161 199 255
162 199 255
162 199 255
162 199 255
162 199 255
162 199 255
162 199 255
162 200 255
162 200 255
162 200 255
163 200 255
163 200 255
163 200 255
163 200 255
163 200 255
163 200 255
163 200 255
163 200 255
163 200 255
163 200 255
164 200 255
164 200 255
164 200 255
164 200 255
164 201 255
164 201 255
164 201 255
164 201 255
164 201 255
164 201 255
165 201 255
165 201 255
165 201 255
165 201 255
165 201 255
165 201 255
165 201 255
165 201 255
165 201 255
165 201 255
165 201 255
166 202 255
166 202 255
166 202 255
166 202 255
166 202 255
166 202 255
166 202 255
166 202 255
166 202 255
166 202 255
167 202 255
167 202 255
167 202 255
167 202 255
167 202 255
167 202 255
167 202 255
167 202 255
167 203 255
167 203 255
167 203 255
168 203 255
168 203 255
168 203 255
168 203 255
168 203 255
168 203 255
168 203 255
168 203 255
168 203 255
168 203 255
168 203 255
168 203 255
169 203 255
169 203 255
169 203 255
169 203 255
169 204 255
169 204 255
169 204 255
169 204 255
169 204 255
169 204 255
169 204 255
169 204 255
169 204 255
170 204 255
170 204 255
170 204 255
170 204 255
170 204 255
170 204 255
170 204 255
170 204 255
170 204 255
170 204 255
170 204 255
170 204 255
170 204 255
171 205 255
171 205 255
171 205 255
171 205 255
171 205 255
171 205 255
171 205 255
171 205 255
171 205 255
171 205 255
171 205 255
171 205 255
172 205 255
172 205 255
171 205 255
171 205 255
171 205 255
171 205 255
171 205 255
171 205 255
171 205 255
171 205 255
171 205 255
171 205 255
171 205 255
171 205 255
171 205 255
171 205 255
170 204 255
170 204 255
170 204 255
170 204 255
170 204 255
170 204 255
170 204 255
170 204 255
170 204 255
170 204 255
170 204 255
170 204 255
170 204 255
169 204 255
169 204 255
169 204 255
169 204 255
169 204 255
169 204 255
169 204 255
169 204 255
169 203 255
169 203 255
169 203 255
169 203 255
168 203 255
168 203 255
168 203 255
168 203 255
168 203 255
168 203 255
168 203 255
168 203 255
168 203 255
168 203 255
168 203 255
168 203 255
167 203 255
167 203 255
167 203 255
167 202 255
167 202 255
167 202 255
167 202 255
167 202 255
167 202 255
167 202 255
167 202 255
166 202 255
166 202 255
166 202 255
166 202 255
166 202 255
166 202 255
166 202 255
166 202 255
166 202 255
166 202 255
165 201 255
165 201 255
165 201 255
165 201 255
165 201 255
165 201 255
165 201 255
165 201 255
165 201 255
165 201 255
165 201 255
164 201 255
164 201 255
164 201 255
164 201 255
164 201 255
164 201 255
164 200 255
164 200 255
164 200 255
164 200 255
163 200 255
163 200 255
163 200 255
163 200 255
163 200 255
163 200 255
163 200 255
163 200 255
163 200 255
163 200 255
162 200 255
162 200 255
162 200 255
162 199 255
162 199 255
162 199 255
162 199 255
162 199 255
162 199 255
162 199 255
161 199 255
161 199 255
161 199 255
161 199 255
161 199 255
161 199 255
161 199 255
161 199 255
161 199 255
161 199 255
160 198 255
160 198 255
160 198 255
160 198 255
160 198 255
160 198 255
160 198 255
160 198 255
160 198 255
160 198 255
159 198 255
159 198 255
159 198 255
159 198 255
159 198 255
159 198 255
159 198 255
159 197 255
159 197 255
159 197 255
159 197 255
158 197 255
158 197 255
158 197 255
158 197 255
158 197 255
158 197 255
158 197 255
158 197 255
158 197 255
158 197 255
158 197 255
158 197 255
158 197 255
157 197 255
157 197 255
157 197 255
157 197 255
157 197 255
157 196 255
157 196 255
157 196 255
157 196 255
157 196 255
157 196 255
157 196 255
157 196 255
157 196 255
157 196 255
157 196 255
157 196 255
157 196 255
156 196 255
156 196 255
156 196 255
156 196 255
156 196 255
156 196 255
156 196 255
156 196 255
156 196 255
156 196 255
156 196 255
156 196 255
156 196 255
156 196 255
156 196 255
156 196 255
156 196 255
156 196 255
156 196 255
156 196 255
156 196 255
156 196 255
156 196 255
156 196 255
156 196 255
156 196 255
156 196 255
156 196 255
156 196 255
156 196 255
156 196 255
156 196 255
156 196 255
156 196 255
156 196 255
156 196 255
156 196 255
156 196 255
156 196 255
156 196 255
156 196 255
156 196 255
156 196 255
156 196 255
156 196 255
156 196 255
157 196 255
157 196 255
157 196 255
157 196 255
157 196 255
157 196 255
157 196 255
157 196 255
157 196 255
157 196 255
157 196 255
157 196 255
157 196 255
157 197 255
157 197 255
157 197 255
157 197 255
158 197 255
158 197 255
158 197 255
158 197 255
158 197 255
158 197 255
158 197 255
158 197 255
158 197 255
158 197 255
158 197 255
158 197 255
158 197 255
158 197 255
159 197 255
159 197 255
159 197 255
159 198 255
159 198 255
159 198 255
159 198 255
159 198 255
159 198 255
159 198 255
159 198 255
160 198 255
160 198 255
160 198 255
160 198 255
160 198 255
160 198 255
160 198 255
160 198 255
160 198 255
160 198 255
161 199 255
161 199 255
161 199 255
161 199 255
161 199 255
161 199 255
161 199 255
161 199 255
161 199 255
161 199 255
161 199 255
162 199 255
162 199 255
162 199 255
162 199 255
162 199 255
162 199 255
162 200 255
162 200 255
162 200 255
163 200 255
163 200 255
163 200 255
163 200 255
163 200 255
163 200 255
163 200 255
163 200 255
163 200 255
163 200 255
164 200 255
164 200 255
164 200 255
164 200 255
164 201 255
164 201 255
164 201 255
164 201 255
164 201 255
164 201 255
165 201 255
165 201 255
165 201 255
165 201 255
165 201 255
165 201 255
165 201 255
165 201 255
165 201 255
165 201 255
165 201 255
166 202 255
166 202 255
166 202 255
166 202 255
166 202 255
166 202 255
166 202 255
166 202 255
166 202 255
166 202 255
167 202 255
167 202 255
167 202 255
167 202 255
167 202 255
167 202 255
167 202 255
167 202 255
167 203 255
167 203 255
167 203 255
167 203 255
168 203 255
168 203 255
168 203 255
168 203 255
168 203 255
168 203 255
168 203 255
168 203 255
168 203 255
168 203 255
168 203 255
169 203 255
169 203 255
169 203 255
169 203 255
169 204 255
169 204 255
169 204 255
169 204 255
169 204 255
169 204 255
169 204 255
169 204 255
170 204 255
170 204 255
170 204 255
170 204 255
170 204 255
170 204 255
170 204 255
170 204 255
170 204 255
170 204 255
170 204 255
170 204 255
170 204 255
171 205 255
171 205 255
171 205 255
171 205 255
171 205 255
171 205 255
171 205 255
171 205 255
171 205 255
171 205 255
171 205 255
171 205 255
171 205 255
171 205 255
172 205 255
172 205 255
172 205 255
172 205 255
172 205 255
172 205 255
172 205 255
171 205 255
171 205 255
171 205 255
171 205 255
171 205 255
171 205 255
171 205 255
171 205 255
171 205 255
171 205 255
171 205 255
171 205 255
171 205 255
171 205 255
170 204 255
170 204 255
170 204 255
170 204 255
170 204 255
170 204 255
170 204 255
170 204 255
170 204 255
170 204 255
170 204 255
170 204 255
170 204 255
169 204 255
169 204 255
169 204 255
169 204 255
169 204 255
169 204 255
169 204 255
169 204 255
169 203 255
169 203 255
169 203 255
169 203 255
168 203 255
168 203 255
168 203 255
168 203 255
168 203 255
168 203 255
168 203 255
168 203 255
168 203 255
168 203 255
168 203 255
168 203 255
167 203 255
167 203 255
167 203 255
167 202 255
167 202 255
167 202 255
167 202 255
167 202 255
167 202 255
167 202 255
167 202 255
166 202 255
166 202 255
166 202 255
166 202 255
166 202 255
166 202 255
166 202 255
166 202 255
166 202 255
166 202 255
165 201 255
165 201 255
165 201 255
165 201 255
165 201 255
165 201 255
165 201 255
165 201 255
165 201 255
165 201 255
165 201 255
164 201 255
164 201 255
164 201 255
164 201 255
164 201 255
164 201 255
164 200 255
164 200 255
164 200 255
164 200 255
163 200 255
163 200 255
163 200 255
163 200 255
163 200 255
163 200 255
163 200 255
163 200 255
163 200 255
163 200 255
162 200 255
162 200 255
162 200 255
162 199 255
162 199 255
162 199 255
162 199 255
162 199 255
162 199 255
162 199 255
161 199 255
161 199 255
161 199 255
161 199 255
161 199 255
161 199 255
161 199 255
161 199 255
161 199 255
161 199 255
160 198 255
160 198 255
160 198 255
160 198 255
160 198 255
160 198 255
160 198 255
160 198 255
160 198 255
160 198 255
160 198 255
159 198 255
159 198 255
159 198 255
159 198 255
159 198 255
159 198 255
159 198 255
159 197 255
159 197 255
159 197 255
159 197 255
159 197 255
158 197 255
158 197 255
158 197 255
158 197 255
158 197 255
158 197 255
158 197 255
158 197 255
158 197 255
158 197 255
158 197 255
158 197 255
158 197 255
157 197 255
157 197 255
157 197 255
157 197 255
157 197 255
157 197 255
157 196 255
157 196 255
157 196 255
157 196 255
157 196 255
157 196 255
157 196 255
157 196 255
157 196 255
157 196 255
157 196 255
157 196 255
157 196 255
157 196 255
157 196 255
157 196 255
157 196 255
156 196 255
156 196 255
156 196 255
156 196 255
156 196 255
156 196 255
156 196 255
156 196 255
156 196 255
156 196 255
156 196 255
156 196 255
156 196 255
156 196 255
156 196 255
156 196 255
156 196 255
156 196 255
156 196 255
156 196 255
156 196 255
156 196 255
156 196 255
156 196 255
156 196 255
156 196 255
156 196 255
157 196 255
157 196 255
157 196 255
157 196 255
157 196 255
157 196 255
157 196 255
157 196 255
157 196 255
157 196 255
157 196 255
157 196 255
157 196 255
157 196 255
157 196 255
157 196 255
157 197 255
157 197 255
157 197 255
157 197 255
157 197 255
157 197 255
158 197 255
158 197 255
158 197 255
158 197 255
158 197 255
158 197 255
158 197 255
158 197 255
158 197 255
158 197 255
158 197 255
158 197 255
158 197 255
158 197 255
159 197 255
159 197 255
159 197 255
159 197 255
159 198 255
159 198 255
159 198 255
159 198 255
159 198 255
159 198 255
159 198 255
159 198 255
160 198 255
160 198 255
160 198 255
160 198 255
160 198 255
160 198 255
160 198 255
160 198 255
160 198 255
160 198 255
161 199 255
161 199 255
161 199 255
161 199 255
161 199 255
161 199 255
161 199 255
161 199 255
161 199 255
161 199 255
161 199 255
162 199 255
162 199 255
162 199 255
162 199 255
162 199 255
162 199 255
162 200 255
162 200 255
162 200 255
163 200 255
163 200 255
163 200 255
163 200 255
163 200 255
163 200 255
163 200 255
163 200 255
163 200 255
163 200 255
164 200 255
164 200 255
164 200 255
164 200 255
164 201 255
164 201 255
164 201 255
164 201 255
164 201 255
164 201 255
165 201 255
165 201 255
165 201 255
165 201 255
165 201 255
165 201 255
165 201 255
165 201 255
165 201 255
165 201 255
165 201 255
166 202 255
166 202 255
166 202 255
166 202 255
166 202 255
166 202 255
166 202 255
166 202 255
166 202 255
166 202 255
167 202 255
167 202 255
167 202 255
167 202 255
167 202 255
167 202 255
167 202 255
167 202 255
167 203 255
167 203 255
167 203 255
168 203 255
168 203 255
168 203 255
168 203 255
168 203 255
168 203 255
168 203 255
168 203 255
168 203 255
168 203 255
168 203 255
168 203 255
169 203 255
169 203 255
169 203 255
169 203 255
169 204 255
169 204 255
169 204 255
169 204 255
169 204 255
169 204 255
169 204 255
169 204 255
170 204 255
170 204 255
170 204 255
170 204 255
170 204 255
170 204 255
170 204 255
170 204 255
170 204 255
170 204 255
170 204 255
170 204 255
170 204 255
171 205 255
171 205 255
171 205 255
171 205 255
171 205 255
171 205 255
171 205 255
171 205 255
171 205 255
171 205 255
171 205 255
171 205 255
171 205 255
171 205 255
172 205 255
172 205 255
172 205 255
172 205 255
172 205 255
172 205 255
172 205 255
172 205 255
172 205 255
172 205 255
172 205 255
172 205 255
172 205 255
172 205 255
171 205 255
171 205 255
171 205 255
171 205 255
171 205 255
171 205 255
171 205 255
171 205 255
171 205 255
171 205 255
171 205 255
171 205 255
171 205 255
171 205 255
170 204 255
170 204 255
170 204 255
170 204 255
170 204 255
170 204 255
170 204 255
170 204 255
170 204 255
170 204 255
170 204 255
170 204 255
169 204 255
169 204 255
169 204 255
169 204 255
169 204 255
169 204 255
169 204 255
169 204 255
169 203 255
169 203 255
169 203 255
169 203 255
168 203 255
168 203 255
168 203 255
168 203 255
168 203 255
168 203 255
168 203 255
168 203 255
168 203 255
168 203 255
168 203 255
168 203 255
167 203 255
167 203 255
167 203 255
167 203 255
167 202 255
167 202 255
167 202 255
167 202 255
167 202 255
167 202 255
167 202 255
166 202 255
166 202 255
166 202 255
166 202 255
166 202 255
166 202 255
166 202 255
166 202 255
166 202 255
166 202 255
165 201 255
165 201 255
165 201 255
165 201 255
165 201 255
165 201 255
165 201 255
165 201 255
165 201 255
165 201 255
165 201 255
164 201 255
164 201 255
164 201 255
164 201 255
164 201 255
164 201 255
164 200 255
164 200 255
164 200 255
164 200 255
163 200 255
163 200 255
163 200 255
163 200 255
163 200 255
163 200 255
163 200 255
163 200 255
163 200 255
163 200 255
162 200 255
162 200 255
162 200 255
162 199 255
162 199 255
162 199 255
162 199 255
162 199 255
162 199 255
162 199 255
161 199 255
161 199 255
161 199 255
161 199 255
161 199 255
161 199 255
161 199 255
161 199 255
161 199 255
161 199 255
160 198 255
160 198 255
160 198 255
160 198 255
160 198 255
160 198 255
160 198 255
160 198 255
160 198 255
160 198 255
160 198 255
159 198 255
159 198 255
159 198 255
159 198 255
159 198 255
159 198 255
159 198 255
159 198 255
159 197 255
159 197 255
159 197 255
159 197 255
159 197 255
158 197 255
158 197 255
158 197 255
158 197 255
158 197 255
158 197 255
158 197 255
158 197 255
158 197 255
158 197 255
158 197 255
158 197 255
158 197 255
158 197 255
158 197 255
157 197 255
157 197 255
157 197 255
157 197 255
157 197 255
157 197 255
157 197 255
157 196 255
157 196 255
157 196 255
157 196 255
157 196 255
157 196 255
157 196 255
157 196 255
157 196 255
157 196 255
157 196 255
157 196 255
157 196 255
157 196 255
157 196 255
157 196 255
157 196 255
157 196 255
157 196 255
157 196 255
157 196 255
157 196 255
157 196 255
157 196 255
157 196 255
157 196 255
157 196 255
157 196 255
157 196 255
157 196 255
157 196 255
157 196 255
157 196 255
157 196 255
157 196 255
157 196 255
157 196 255
157 196 255
157 196 255
157 196 255
157 196 255
157 196 255
157 196 255
157 196 255
157 196 255
157 196 255
157 197 255
157 197 255
157 197 255
157 197 255
157 197 255
157 197 255
157 197 255
158 197 255
158 197 255
158 197 255
158 197 255
158 197 255
158 197 255
158 197 255
158 197 255
158 197 255
158 197 255
158 197 255
158 197 255
158 197 255
158 197 255
158 197 255
159 197 255
159 197 255
159 197 255
159 197 255
159 197 255
159 198 255
159 198 255
159 198 255
159 198 255
159 198 255
159 198 255
159 198 255
159 198 255
160 198 255
160 198 255
160 198 255
160 198 255
160 198 255
160 198 255
160 198 255
160 198 255
160 198 255
160 198 255
160 198 255
161 199 255
161 199 255
161 199 255
161 199 255
161 199 255
161 199 255
161 199 255
161 199 255
161 199 255
161 199 255
162 199 255
162 199 255
162 199 255
162 199 255
162 199 255
162 199 255
162 199 255
162 200 255
162 200 255
162 200 255
163 200 255
163 200 255
163 200 255
163 200 255
163 200 255
163 200 255
163 200 255
163 200 255
163 200 255
163 200 255
164 200 255
164 200 255
164 200 255
164 200 255
164 201 255
164 201 255
164 201 255
164 201 255
164 201 255
164 201 255
164 201 255
165 201 255
165 201 255
165 201 255
165 201 255
165 201 255
165 201 255
165 201 255
165 201 255
165 201 255
165 201 255
166 202 255
166 202 255
166 202 255
166 202 255
166 202 255
166 202 255
166 202 255
166 202 255
166 202 255
166 202 255
167 202 255
167 202 255
167 202 255
167 202 255
167 202 255
167 202 255
167 202 255
167 203 255
167 203 255
167 203 255
167 203 255
168 203 255
168 203 255
168 203 255
168 203 255
168 203 255
168 203 255
168 203 255
168 203 255
168 203 255
168 203 255
168 203 255
168 203 255
169 203 255
169 203 255
169 203 255
169 203 255
169 204 255
169 204 255
169 204 255
169 204 255
169 204 255
169 204 255
169 204 255
169 204 255
170 204 255
170 204 255
170 204 255
170 204 255
170 204 255
170 204 255
170 204 255
170 204 255
170 204 255
170 204 255
170 204 255
170 204 255
171 205 255
171 205 255
171 205 255
171 205 255
171 205 255
171 205 255
171 205 255
171 205 255
171 205 255
171 205 255
171 205 255
171 205 255
171 205 255
171 205 255
172 205 255
172 205 255
172 205 255
172 205 255
172 205 255
172 205 255
172 205 255
172 205 255
172 205 255
172 206 255
172 206 255
172 206 255
172 205 255
172 205 255
172 205 255
172 205 255
172 205 255
172 205 255
172 205 255
172 205 255
172 205 255
171 205 255
171 205 255
171 205 255
171 205 255
171 205 255
171 205 255
171 205 255
171 205 255
171 205 255
171 205 255
171 205 255
171 205 255
171 205 255
171 205 255
170 204 255
170 204 255
170 204 255
170 204 255
170 204 255
170 204 255
170 204 255
170 204 255
170 204 255
170 204 255
170 204 255
170 204 255
170 204 255
169 204 255
169 204 255
169 204 255
169 204 255
169 204 255
169 204 255
169 204 255
169 204 255
169 203 255
169 203 255
169 203 255
169 203 255
168 203 255
168 203 255
168 203 255
168 203 255
168 203 255
168 203 255
168 203 255
168 203 255
168 203 255
168 203 255
168 203 255
167 203 255
167 203 255
167 203 255
167 203 255
167 202 255
167 202 255
167 202 255
167 202 255
167 202 255
167 202 255
167 202 255
166 202 255
166 202 255
166 202 255
166 202 255
166 202 255
166 202 255
166 202 255
166 202 255
166 202 255
166 202 255
165 201 255
165 201 255
165 201 255
165 201 255
165 201 255
165 201 255
165 201 255
165 201 255
165 201 255
165 201 255
165 201 255
164 201 255
164 201 255
164 201 255
164 201 255
164 201 255
164 201 255
164 200 255
164 200 255
164 200 255
164 200 255
163 200 255
163 200 255
163 200 255
163 200 255
163 200 255
163 200 255
163 200 255
163 200 255
163 200 255
163 200 255
162 200 255
162 200 255
162 200 255
162 199 255
162 199 255
162 199 255
162 199 255
162 199 255
162 199 255
162 199 255
161 199 255
161 199 255
161 199 255
161 199 255
161 199 255
161 199 255
161 199 255
161 199 255
161 199 255
161 199 255
161 199 255
160 198 255
160 198 255
160 198 255
160 198 255
160 198 255
160 198 255
160 198 255
160 198 255
160 198 255
160 198 255
160 198 255
159 198 255
159 198 255
159 198 255
159 198 255
159 198 255
159 198 255
159 198 255
159 198 255
159 198 255
159 197 255
159 197 255
159 197 255
159 197 255
158 197 255
158 197 255
158 197 255
158 197 255
158 197 255
158 197 255
158 197 255
158 197 255
158 197 255
158 197 255
158 197 255
158 197 255
158 197 255
158 197 255
158 197 255
158 197 255
158 197 255
158 197 255
157 197 255
157 197 255
157 197 255
157 197 255
157 197 255
157 197 255
157 197 255
157 197 255
157 197 255
157 196 255
157 196 255
157 196 255
157 196 255
157 196 255
157 196 255
157 196 255
157 196 255
157 196 255
157 196 255
157 196 255
157 196 255
157 196 255
157 196 255
157 196 255
157 196 255
157 196 255
157 196 255
157 196 255
157 196 255
157 196 255
157 196 255
157 196 255
157 196 255
157 196 255
157 196 255
157 196 255
157 197 255
157 197 255
157 197 255
157 197 255
157 197 255
157 197 255
157 197 255
157 197 255
157 197 255
157 197 255
158 197 255
158 197 255
158 197 255
158 197 255
158 197 255
158 197 255
158 197 255
158 197 255
158 197 255
158 197 255
158 197 255
158 197 255
158 197 255
158 197 255
158 197 255
158 197 255
158 197 255
158 197 255
159 197 255
159 197 255
159 197 255
159 197 255
159 198 255
159 198 255
159 198 255
159 198 255
159 198 255
159 198 255
159 198 255
159 198 255
159 198 255
160 198 255
160 198 255
160 198 255
160 198 255
160 198 255
160 198 255
160 198 255
160 198 255
160 198 255
160 198 255
160 198 255
161 199 255
161 199 255
161 199 255
161 199 255
161 199 255
161 199 255
161 199 255
161 199 255
161 199 255
161 199 255
161 199 255
162 199 255
162 199 255
162 199 255
162 199 255
162 199 255
162 199 255
162 199 255
162 200 255
162 200 255
162 200 255
163 200 255
163 200 255
163 200 255
163 200 255
163 200 255
163 200 255
163 200 255
163 200 255
163 200 255
163 200 255
164 200 255
164 200 255
164 200 255
164 200 255
164 201 255
164 201 255
164 201 255
164 201 255
164 201 255
164 201 255
165 201 255
165 201 255
165 201 255
165 201 255
165 201 255
165 201 255
165 201 255
165 201 255
165 201 255
165 201 255
166 202 255
166 202 255
166 202 255
166 202 255
166 202 255
166 202 255
166 202 255
166 202 255
166 202 255
166 202 255
166 202 255
167 202 255
167 202 255
167 202 255
167 202 255
167 202 255
167 202 255
167 202 255
167 203 255
167 203 255
167 203 255
167 203 255
168 203 255
168 203 255
168 203 255
168 203 255
168 203 255
168 203 255
168 203 255
168 203 255
168 203 255
168 203 255
168 203 255
169 203 255
169 203 255
169 203 255
169 203 255
169 204 255
169 204 255
169 204 255
169 204 255
169 204 255
169 204 255
169 204 255
169 204 255
170 204 255
170 204 255
170 204 255
170 204 255
170 204 255
170 204 255
170 204 255
170 204 255
170 204 255
170 204 255
170 204 255
170 204 255
170 204 255
171 205 255
171 205 255
171 205 255
171 205 255
171 205 255
171 205 255
171 205 255
171 205 255
171 205 255
171 205 255
171 205 255
171 205 255
171 205 255
171 205 255
172 205 255
172 205 255
172 205 255
172 205 255
172 205 255
172 205 255
172 205 255
172 205 255
172 205 255
172 206 255
172 206 255
172 206 255
173 206 255
172 206 255
172 206 255
172 206 255
172 206 255
172 206 255
172 205 255
172 205 255
172 205 255
172 205 255
172 205 255
172 205 255
172 205 255
172 205 255
172 205 255
172 205 255
171 205 255
171 205 255
171 205 255
171 205 255
171 205 255
171 205 255
171 205 255
171 205 255
171 205 255
171 205 255
171 205 255
171 205 255
171 205 255
170 204 255
170 204 255
170 204 255
170 204 255
170 204 255
170 204 255
170 204 255
170 204 255
170 204 255
170 204 255
170 204 255
170 204 255
170 204 255
169 204 255
169 204 255
169 204 255
169 204 255
169 204 255
169 204 255
169 204 255
169 204 255
169 203 255
169 203 255
169 203 255
169 203 255
168 203 255
168 203 255
168 203 255
168 203 255
168 203 255
168 203 255
168 203 255
168 203 255
168 203 255
168 203 255
168 203 255
167 203 255
167 203 255
167 203 255
167 203 255
167 202 255
167 202 255
167 202 255
167 202 255
167 202 255
167 202 255
167 202 255
166 202 255
166 202 255
166 202 255
166 202 255
166 202 255
166 202 255
166 202 255
166 202 255
166 202 255
166 202 255
166 202 255
165 201 255
165 201 255
165 201 255
165 201 255
165 201 255
165 201 255
165 201 255
165 201 255
165 201 255
165 201 255
164 201 255
164 201 255
164 201 255
164 201 255
164 201 255
164 201 255
164 201 255
164 200 255
164 200 255
164 200 255
163 200 255
163 200 255
163 200 255
163 200 255
163 200 255
163 200 255
163 200 255
163 200 255
163 200 255
163 200 255
162 200 255
162 200 255
162 200 255
162 200 255
162 199 255
162 199 255
162 199 255
162 199 255
162 199 255
162 199 255
162 199 255
161 199 255
161 199 255
161 199 255
161 199 255
161 199 255
161 199 255
161 199 255
161 199 255
161 199 255
161 199 255
161 199 255
160 198 255
160 198 255
160 198 255
160 198 255
160 198 255
160 198 255
160 198 255
160 198 255
160 198 255
160 198 255
160 198 255
159 198 255
159 198 255
159 198 255
159 198 255
159 198 255
159 198 255
159 198 255
159 198 255
159 198 255
159 197 255
159 197 255
159 197 255
159 197 255
159 197 255
159 197 255
158 197 255
158 197 255
158 197 255
158 197 255
158 197 255
158 197 255
158 197 255
158 197 255
158 197 255
158 197 255
158 197 255
158 197 255
158 197 255
158 197 255
158 197 255
158 197 255
158 197 255
158 197 255
158 197 255
158 197 255
158 197 255
158 197 255
157 197 255
157 197 255
157 197 255
157 197 255
157 197 255
157 197 255
157 197 255
157 197 255
157 197 255
157 197 255
157 197 255
157 197 255
157 197 255
157 197 255
157 197 255
157 197 255
157 197 255
157 197 255
157 197 255
157 197 255
157 197 255
157 197 255
157 197 255
157 197 255
157 197 255
157 197 255
158 197 255
158 197 255
158 197 255
158 197 255
158 197 255
158 197 255
158 197 255
158 197 255
158 197 255
158 197 255
158 197 255
158 197 255
158 197 255
158 197 255
158 197 255
158 197 255
158 197 255
158 197 255
158 197 255
158 197 255
158 197 255
158 197 255
159 197 255
159 197 255
159 197 255
159 197 255
159 197 255
159 197 255
159 198 255
159 198 255
159 198 255
159 198 255
159 198 255
159 198 255
159 198 255
159 198 255
159 198 255
160 198 255
160 198 255
160 198 255
160 198 255
160 198 255
160 198 255
160 198 255
160 198 255
160 198 255
160 198 255
160 198 255
160 198 255
161 199 255
161 199 255
161 199 255
161 199 255
161 199 255
161 199 255
161 199 255
161 199 255
161 199 255
161 199 255
162 199 255
162 199 255
162 199 255
162 199 255
162 199 255
162 199 255
162 199 255
162 200 255
162 200 255
162 200 255
162 200 255
163 200 255
163 200 255
163 200 255
163 200 255
163 200 255
163 200 255
163 200 255
163 200 255
163 200 255
163 200 255
164 200 255
164 200 255
164 200 255
164 201 255
164 201 255
164 201 255
164 201 255
164 201 255
164 201 255
164 201 255
165 201 255
165 201 255
165 201 255
165 201 255
165 201 255
165 201 255
165 201 255
165 201 255
165 201 255
165 201 255
166 202 255
166 202 255
166 202 255
166 202 255
166 202 255
166 202 255
166 202 255
166 202 255
166 202 255
166 202 255
166 202 255
167 202 255
167 202 255
167 202 255
167 202 255
167 202 255
167 202 255
167 202 255
167 203 255
167 203 255
167 203 255
167 203 255
168 203 255
168 203 255
168 203 255
168 203 255
168 203 255
168 203 255
168 203 255
168 203 255
168 203 255
168 203 255
168 203 255
169 203 255
169 203 255
169 203 255
169 203 255
169 204 255
169 204 255
169 204 255
169 204 255
169 204 255
169 204 255
169 204 255
169 204 255
170 204 255
170 204 255
170 204 255
170 204 255
170 204 255
170 204 255
170 204 255
170 204 255
170 204 255
170 204 255
170 204 255
170 204 255
170 204 255
171 205 255
171 205 255
171 205 255
171 205 255
171 205 255
171 205 255
171 205 255
171 205 255
171 205 255
171 205 255
171 205 255
171 205 255
171 205 255
172 205 255
172 205 255
172 205 255
172 205 255
172 205 255
172 205 255
172 205 255
172 205 255
172 205 255
172 205 255
172 206 255
172 206 255
172 206 255
172 206 255
173 206 255
173 206 255
173 206 255
173 206 255
173 206 255
173 206 255
173 206 255
172 206 255
172 206 255
172 206 255
172 206 255
172 206 255
172 205 255
172 205 255
172 205 255
172 205 255
172 205 255
172 205 255
172 205 255
172 205 255
172 205 255
171 205 255
171 205 255
171 205 255
171 205 255
171 205 255
171 205 255
171 205 255
171 205 255
171 205 255
171 205 255
171 205 255
171 205 255
171 205 255
171 205 255
170 204 255
170 204 255
170 204 255
170 204 255
170 204 255
170 204 255
170 204 255
170 204 255
170 204 255
170 204 255
170 204 255
170 204 255
169 204 255
169 204 255
169 204 255
169 204 255
169 204 255
169 204 255
169 204 255
169 204 255
169 203 255
169 203 255
169 203 255
169 203 255
168 203 255
168 203 255
168 203 255
168 203 255
168 203 255
168 203 255
168 203 255
168 203 255
168 203 255
168 203 255
168 203 255
167 203 255
167 203 255
167 203 255
167 203 255
167 202 255
167 202 255
167 202 255
167 202 255
167 202 255
167 202 255
167 202 255
166 202 255
166 202 255
166 202 255
166 202 255
166 202 255
166 202 255
166 202 255
166 202 255
166 202 255
166 202 255
166 202 255
165 201 255
165 201 255
165 201 255
165 201 255
165 201 255
165 201 255
165 201 255
165 201 255
165 201 255
165 201 255
164 201 255
164 201 255
164 201 255
164 201 255
164 201 255
164 201 255
164 201 255
164 200 255
164 200 255
164 200 255
163 200 255
163 200 255
163 200 255
163 200 255
163 200 255
163 200 255
163 200 255
163 200 255
163 200 255
163 200 255
163 200 255
162 200 255
162 200 255
162 200 255
162 199 255
162 199 255
162 199 255
162 199 255
162 199 255
162 199 255
162 199 255
161 199 255
161 199 255
161 199 255
161 199 255
161 199 255
161 199 255
161 199 255
161 199 255
161 199 255
161 199 255
161 199 255
161 199 255
160 198 255
160 198 255
160 198 255
160 198 255
160 198 255
160 198 255
160 198 255
160 198 255
160 198 255
160 198 255
160 198 255
160 198 255
159 198 255
159 198 255
159 198 255
159 198 255
159 198 255
159 198 255
159 198 255
159 198 255
159 198 255
159 198 255
159 197 255
159 197 255
159 197 255
159 197 255
159 197 255
158 197 255
158 197 255
158 197 255
158 197 255
158 197 255
158 197 255
158 197 255
158 197 255
158 197 255
158 197 255
158 197 255
158 197 255
158 197 255
158 197 255
158 197 255
158 197 255
158 197 255
158 197 255
158 197 255
158 197 255
158 197 255
158 197 255
158 197 255
158 197 255
158 197 255
158 197 255
158 197 255
158 197 255
158 197 255
158 197 255
158 197 255
158 197 255
158 197 255
158 197 255
158 197 255
158 197 255
158 197 255
158 197 255
158 197 255
158 197 255
158 197 255
158 197 255
158 197 255
158 197 255
158 197 255
158 197 255
158 197 255
158 197 255
158 197 255
158 197 255
158 197 255
158 197 255
158 197 255
158 197 255
158 197 255
158 197 255
158 197 255
158 197 255
158 197 255
158 197 255
159 197 255
159 197 255
159 197 255
159 197 255
159 197 255
159 198 255
159 198 255
159 198 255
159 198 255
159 198 255
159 198 255
159 198 255
159 198 255
159 198 255
159 198 255
160 198 255
160 198 255
160 198 255
160 198 255
160 198 255
160 198 255
160 198 255
160 198 255
160 198 255
160 198 255
160 198 255
160 198 255
160 198 255
161 199 255
161 199 255
161 199 255
161 199 255
161 199 255
161 199 255
161 199 255
161 199 255
161 199 255
161 199 255
161 199 255
162 199 255
162 199 255
162 199 255
162 199 255
162 199 255
162 199 255
162 199 255
162 200 255
162 200 255
162 200 255
163 200 255
163 200 255
163 200 255
163 200 255
163 200 255
163 200 255
163 200 255
163 200 255
163 200 255
163 200 255
163 200 255
164 200 255
164 200 255
164 200 255
164 201 255
164 201 255
164 201 255
164 201 255
164 201 255
164 201 255
164 201 255
165 201 255
165 201 255
165 201 255
165 201 255
165 201 255
165 201 255
165 201 255
165 201 255
165 201 255
165 201 255
166 202 255
166 202 255
166 202 255
166 202 255
166 202 255
166 202 255
166 202 255
166 202 255
166 202 255
166 202 255
166 202 255
167 202 255
167 202 255
167 202 255
167 202 255
167 202 255
167 202 255
167 202 255
167 203 255
167 203 255
167 203 255
168 203 255
168 203 255
168 203 255
168 203 255
168 203 255
168 203 255
168 203 255
168 203 255
168 203 255
168 203 255
168 203 255
168 203 255
169 203 255
169 203 255
169 203 255
169 204 255
169 204 255
169 204 255
169 204 255
169 204 255
169 204 255
169 204 255
169 204 255
169 204 255
170 204 255
170 204 255
170 204 255
170 204 255
170 204 255
170 204 255
170 204 255
170 204 255
170 204 255
170 204 255
170 204 255
170 204 255
171 205 255
171 205 255
171 205 255
171 205 255
171 205 255
171 205 255
171 205 255
171 205 255
171 205 255
171 205 255
171 205 255
171 205 255
171 205 255
171 205 255
172 205 255
172 205 255
172 205 255
172 205 255
172 205 255
172 205 255
172 205 255
172 205 255
172 205 255
172 206 255
172 206 255
172 206 255
172 206 255
172 206 255
173 206 255
173 206 255
173 206 255
173 206 255
173 206 255
173 206 255
173 206 255
173 206 255
173 206 255
173 206 255
173 206 255
173 206 255
173 206 255
173 206 255
172 206 255
172 206 255
172 206 255
172 206 255
172 206 255
172 205 255
172 205 255
172 205 255
172 205 255
172 205 255
172 205 255
172 205 255
172 205 255
172 205 255
171 205 255
171 205 255
171 205 255
171 205 255
171 205 255
171 205 255
171 205 255
171 205 255
171 205 255
171 205 255
171 205 255
171 205 255
171 205 255
170 204 255
170 204 255
170 204 255
170 204 255
170 204 255
170 204 255
170 204 255
170 204 255
170 204 255
170 204 255
170 204 255
170 204 255
170 204 255
169 204 255
169 204 255
169 204 255
169 204 255
169 204 255
169 204 255
169 204 255
169 204 255
169 203 255
169 203 255
169 203 255
168 203 255
168 203 255
168 203 255
168 203 255
168 203 255
168 203 255
168 203 255
168 203 255
168 203 255
168 203 255
168 203 255
168 203 255
167 203 255
167 203 255
167 203 255
167 202 255
167 202 255
167 202 255
167 202 255
167 202 255
167 202 255
167 202 255
167 202 255
166 202 255
166 202 255
166 202 255
166 202 255
166 202 255
166 202 255
166 202 255
166 202 255
166 202 255
166 202 255
165 201 255
165 201 255
165 201 255
165 201 255
165 201 255
165 201 255
165 201 255
165 201 255
165 201 255
165 201 255
164 201 255
164 201 255
164 201 255
164 201 255
164 201 255
164 201 255
164 201 255
164 200 255
164 200 255
164 200 255
164 200 255
163 200 255
163 200 255
163 200 255
163 200 255
163 200 255
163 200 255
163 200 255
163 200 255
163 200 255
163 200 255
162 200 255
162 200 255
162 200 255
162 200 255
162 199 255
162 199 255
162 199 255
162 199 255
162 199 255
162 199 255
162 199 255
161 199 255
161 199 255
161 199 255
161 199 255
161 199 255
161 199 255
161 199 255
161 199 255
161 199 255
161 199 255
161 199 255
160 198 255
160 198 255
160 198 255
160 198 255
160 198 255
160 198 255
160 198 255
160 198 255
160 198 255
160 198 255
160 198 255
160 198 255
160 198 255
160 198 255
159 198 255
159 198 255
159 198 255
159 198 255
159 198 255
159 198 255
159 198 255
159 198 255
159 198 255
159 198 255
159 197 255
159 197 255
159 197 255
159 197 255
159 197 255
159 197 255
159 197 255
159 197 255
159 197 255
158 197 255
158 197 255
158 197 255
158 197 255
158 197 255
158 197 255
158 197 255
158 197 255
158 197 255
158 197 255
158 197 255
158 197 255
158 197 255
158 197 255
158 197 255
158 197 255
158 197 255
158 197 255
158 197 255
158 197 255
158 197 255
158 197 255
158 197 255
158 197 255
158 197 255
158 197 255
158 197 255
158 197 255
158 197 255
158 197 255
158 197 255
158 197 255
158 197 255
158 197 255
158 197 255
158 197 255
158 197 255
158 197 255
158 197 255
158 197 255
158 197 255
158 197 255
158 197 255
159 197 255
159 197 255
159 197 255
159 197 255
159 197 255
159 197 255
159 197 255
159 197 255
159 198 255
159 198 255
159 198 255
159 198 255
159 198 255
159 198 255
159 198 255
159 198 255
159 198 255
159 198 255
160 198 255
160 198 255
160 198 255
160 198 255
160 198 255
160 198 255
160 198 255
160 198 255
160 198 255
160 198 255
160 198 255
160 198 255
160 198 255
160 198 255
161 199 255
161 199 255
161 199 255
161 199 255
161 199 255
161 199 255
161 199 255
161 199 255
161 199 255
161 199 255
161 199 255
162 199 255
162 199 255
162 199 255
162 199 255
162 199 255
162 199 255
162 199 255
162 200 255
162 200 255
162 200 255
162 200 255
163 200 255
163 200 255
163 200 255
163 200 255
163 200 255
163 200 255
163 200 255
163 200 255
163 200 255
163 200 255
164 200 255
164 200 255
164 200 255
164 200 255
164 201 255
164 201 255
164 201 255
164 201 255
164 201 255
164 201 255
164 201 255
165 201 255
165 201 255
165 201 255
165 201 255
165 201 255
165 201 255
165 201 255
165 201 255
165 201 255
165 201 255
166 202 255
166 202 255
166 202 255
166 202 255
166 202 255
166 202 255
166 202 255
166 202 255
166 202 255
166 202 255
167 202 255
167 202 255
167 202 255
167 202 255
167 202 255
167 202 255
167 202 255
167 202 255
167 203 255
167 203 255
167 203 255
168 203 255
168 203 255
168 203 255
168 203 255
168 203 255
168 203 255
168 203 255
168 203 255
168 203 255
168 203 255
168 203 255
169 203 255
169 203 255
169 203 255
169 203 255
169 204 255
169 204 255
169 204 255
169 204 255
169 204 255
169 204 255
169 204 255
169 204 255
170 204 255
170 204 255
170 204 255
170 204 255
170 204 255
170 204 255
170 204 255
170 204 255
170 204 255
170 204 255
170 204 255
170 204 255
170 204 255
171 205 255
171 205 255
171 205 255
171 205 255
171 205 255
171 205 255
171 205 255
171 205 255
171 205 255
171 205 255
171 205 255
171 205 255
171 205 255
172 205 255
172 205 255
172 205 255
172 205 255
172 205 255
172 205 255
172 205 255
172 205 255
172 205 255
172 206 255
172 206 255
172 206 255
172 206 255
172 206 255
173 206 255
173 206 255
173 206 255
173 206 255
173 206 255
173 206 255
173 206 255
173 206 255
173 206 255
173 206 255
173 206 255
173 206 255
173 206 255
173 206 255
173 206 255
173 206 255
173 206 255
173 206 255
173 206 255
173 206 255
173 206 255
172 206 255
172 206 255
172 206 255
172 206 255
172 206 255
172 205 255
172 205 255
172 205 255
172 205 255
172 205 255
172 205 255
172 205 255
172 205 255
172 205 255
171 205 255
171 205 255
171 205 255
171 205 255
171 205 255
171 205 255
171 205 255
171 205 255
171 205 255
171 205 255
171 205 255
171 205 255
171 205 255
171 205 255
170 204 255
170 204 255
170 204 255
170 204 255
170 204 255
170 204 255
170 204 255
170 204 255
170 204 255
170 204 255
170 204 255
170 204 255
169 204 255
169 204 255
169 204 255
169 204 255
169 204 255
169 204 255
169 204 255
169 204 255
169 203 255
169 203 255
169 203 255
169 203 255
168 203 255
168 203 255
168 203 255
168 203 255
168 203 255
168 203 255
168 203 255
168 203 255
168 203 255
168 203 255
168 203 255
167 203 255
167 203 255
167 203 255
167 203 255
167 202 255
167 202 255
167 202 255
167 202 255
167 202 255
167 202 255
167 202 255
166 202 255
166 202 255
166 202 255
166 202 255
166 202 255
166 202 255
166 202 255
166 202 255
166 202 255
166 202 255
165 201 255
165 201 255
165 201 255
165 201 255
165 201 255
165 201 255
165 201 255
165 201 255
165 201 255
165 201 255
165 201 255
164 201 255
164 201 255
164 201 255
164 201 255
164 201 255
164 201 255
164 201 255
164 200 255
164 200 255
164 200 255
163 200 255
163 200 255
163 200 255
163 200 255
163 200 255
163 200 255
163 200 255
163 200 255
163 200 255
163 200 255
163 200 255
162 200 255
162 200 255
162 200 255
162 199 255
162 199 255
162 199 255
162 199 255
162 199 255
162 199 255
162 199 255
162 199 255
161 199 255
161 199 255
161 199 255
161 199 255
161 199 255
161 199 255
161 199 255
161 199 255
161 199 255
161 199 255
161 199 255
161 199 255
160 198 255
160 198 255
160 198 255
160 198 255
160 198 255
160 198 255
160 198 255
160 198 255
160 198 255
160 198 255
160 198 255
160 198 255
160 198 255
160 198 255
159 198 255
159 198 255
159 198 255
159 198 255
159 198 255
159 198 255
159 198 255
159 198 255
159 198 255
159 198 255
159 198 255
159 198 255
159 198 255
159 198 255
159 197 255
159 197 255
159 197 255
159 197 255
159 197 255
159 197 255
159 197 255
159 197 255
159 197 255
159 197 255
158 197 255
158 197 255
158 197 255
158 197 255
158 197 255
158 197 255
158 197 255
158 197 255
158 197 255
158 197 255
158 197 255
158 197 255
158 197 255
158 197 255
158 197 255
158 197 255
158 197 255
158 197 255
158 197 255
158 197 255
158 197 255
159 197 255
159 197 255
159 197 255
159 197 255
159 197 255
159 197 255
159 197 255
159 197 255
159 197 255
159 197 255
159 197 255
159 197 255
159 198 255
159 198 255
159 198 255
159 198 255
159 198 255
159 198 255
159 198 255
159 198 255
159 198 255
159 198 255
159 198 255
159 198 255
159 198 255
160 198 255
160 198 255
160 198 255
160 198 255
160 198 255
160 198 255
160 198 255
160 198 255
160 198 255
160 198 255
160 198 255
160 198 255
160 198 255
160 198 255
161 199 255
161 199 255
161 199 255
161 199 255
161 199 255
161 199 255
161 199 255
161 199 255
161 199 255
161 199 255
161 199 255
161 199 255
162 199 255
162 199 255
162 199 255
162 199 255
162 199 255
162 199 255
162 199 255
162 199 255
162 200 255
162 200 255
162 200 255
162 200 255
163 200 255
163 200 255
163 200 255
163 200 255
163 200 255
163 200 255
163 200 255
163 200 255
163 200 255
163 200 255
164 200 255
164 200 255
164 200 255
164 201 255
164 201 255
164 201 255
164 201 255
164 201 255
164 201 255
164 201 255
165 201 255
165 201 255
165 201 255
165 201 255
165 201 255
165 201 255
165 201 255
165 201 255
165 201 255
165 201 255
165 201 255
166 202 255
166 202 255
166 202 255
166 202 255
166 202 255
166 202 255
166 202 255
166 202 255
166 202 255
166 202 255
167 202 255
167 202 255
167 202 255
167 202 255
167 202 255
167 202 255
167 202 255
167 203 255
167 203 255
167 203 255
167 203 255
168 203 255
168 203 255
168 203 255
168 203 255
168 203 255
168 203 255
168 203 255
168 203 255
168 203 255
168 203 255
168 203 255
169 203 255
169 203 255
169 203 255
169 203 255
169 204 255
169 204 255
169 204 255
169 204 255
169 204 255
169 204 255
169 204 255
169 204 255
170 204 255
170 204 255
170 204 255
170 204 255
170 204 255
170 204 255
170 204 255
170 204 255
170 204 255
170 204 255
170 204 255
170 204 255
171 205 255
171 205 255
171 205 255
171 205 255
171 205 255
171 205 255
171 205 255
171 205 255
171 205 255
171 205 255
171 205 255
171 205 255
171 205 255
172 205 255
172 205 255
172 205 255
172 205 255
172 205 255
172 205 255
172 205 255
172 205 255
172 205 255
172 205 255
172 206 255
172 206 255
172 206 255
172 206 255
173 206 255
173 206 255
173 206 255
173 206 255
173 206 255
173 206 255
173 206 255
173 206 255
173 206 255
173 206 255
173 206 255
173 206 255
173 206 255
174 206 255
173 206 255
173 206 255
173 206 255
173 206 255
173 206 255
173 206 255
173 206 255
173 206 255
173 206 255
173 206 255
173 206 255
173 206 255
173 206 255
173 206 255
173 206 255
172 206 255
172 206 255
172 206 255
172 206 255
172 206 255
172 205 255
172 205 255
172 205 255
172 205 255
172 205 255
172 205 255
172 205 255
172 205 255
172 205 255
171 205 255
171 205 255
171 205 255
171 205 255
171 205 255
171 205 255
171 205 255
171 205 255
171 205 255
171 205 255
171 205 255
171 205 255
171 205 255
170 204 255
170 204 255
170 204 255
170 204 255
170 204 255
170 204 255
170 204 255
170 204 255
170 204 255
170 204 255
170 204 255
170 204 255
170 204 255
169 204 255
169 204 255
169 204 255
169 204 255
169 204 255
169 204 255
169 204 255
169 203 255
169 203 255
169 203 255
169 203 255
168 203 255
168 203 255
168 203 255
168 203 255
168 203 255
168 203 255
168 203 255
168 203 255
168 203 255
168 203 255
168 203 255
167 203 255
167 203 255
167 203 255
167 203 255
167 202 255
167 202 255
167 202 255
167 202 255
167 202 255
167 202 255
167 202 255
166 202 255
166 202 255
166 202 255
166 202 255
166 202 255
166 202 255
166 202 255
166 202 255
166 202 255
166 202 255
166 202 255
165 201 255
165 201 255
165 201 255
165 201 255
165 201 255
165 201 255
165 201 255
165 201 255
165 201 255
165 201 255
164 201 255
164 201 255
164 201 255
164 201 255
164 201 255
164 201 255
164 201 255
164 200 255
164 200 255
164 200 255
164 200 255
163 200 255
163 200 255
163 200 255
163 200 255
163 200 255
163 200 255
163 200 255
163 200 255
163 200 255
163 200 255
162 200 255
162 200 255
162 200 255
162 200 255
162 199 255
162 199 255
162 199 255
162 199 255
162 199 255
162 199 255
162 199 255
162 199 255
161 199 255
161 199 255
161 199 255
161 199 255
161 199 255
161 199 255
161 199 255
161 199 255
161 199 255
161 199 255
161 199 255
161 199 255
160 198 255
160 198 255
160 198 255
160 198 255
160 198 255
160 198 255
160 198 255
160 198 255
160 198 255
160 198 255
160 198 255
160 198 255
160 198 255
160 198 255
160 198 255
160 198 255
159 198 255
159 198 255
159 198 255
159 198 255
159 198 255
159 198 255
159 198 255
159 198 255
159 198 255
159 198 255
159 198 255
159 198 255
159 198 255
159 198 255
159 198 255
159 198 255
159 198 255
159 198 255
159 198 255
159 198 255
159 197 255
159 197 255
159 197 255
159 197 255
159 197 255
159 197 255
159 197 255
159 197 255
159 197 255
159 197 255
159 197 255
159 197 255
159 197 255
159 197 255
159 197 255
159 197 255
159 197 255
159 197 255
159 198 255
159 198 255
159 198 255
159 198 255
159 198 255
159 198 255
159 198 255
159 198 255
159 198 255
159 198 255
159 198 255
159 198 255
159 198 255
159 198 255
159 198 255
159 198 255
159 198 255
159 198 255
159 198 255
159 198 255
160 198 255
160 198 255
160 198 255
160 198 255
160 198 255
160 198 255
160 198 255
160 198 255
160 198 255
160 198 255
160 198 255
160 198 255
160 198 255
160 198 255
160 198 255
160 198 255
161 199 255
161 199 255
161 199 255
161 199 255
161 199 255
161 199 255
161 199 255
161 199 255
161 199 255
161 199 255
161 199 255
161 199 255
161 199 255
162 199 255
162 199 255
162 199 255
162 199 255
162 199 255
162 199 255
162 199 255
162 200 255
162 200 255
162 200 255
162 200 255
163 200 255
163 200 255
163 200 255
163 200 255
163 200 255
163 200 255
163 200 255
163 200 255
163 200 255
163 200 255
164 200 255
164 200 255
164 200 255
164 200 255
164 201 255
164 201 255
164 201 255
164 201 255
164 201 255
164 201 255
164 201 255
165 201 255
165 201 255
165 201 255
165 201 255
165 201 255
165 201 255
165 201 255
165 201 255
165 201 255
165 201 255
166 202 255
166 202 255
166 202 255
166 202 255
166 202 255
166 202 255
166 202 255
166 202 255
166 202 255
166 202 255
166 202 255
167 202 255
167 202 255
167 202 255
167 202 255
167 202 255
167 202 255
167 202 255
167 203 255
167 203 255
167 203 255
167 203 255
168 203 255
168 203 255
168 203 255
168 203 255
168 203 255
168 203 255
168 203 255
168 203 255
168 203 255
168 203 255
168 203 255
169 203 255
169 203 255
169 203 255
169 203 255
169 204 255
169 204 255
169 204 255
169 204 255
169 204 255
169 204 255
169 204 255
170 204 255
170 204 255
170 204 255
170 204 255
170 204 255
170 204 255
170 204 255
170 204 255
170 204 255
170 204 255
170 204 255
170 204 255
170 204 255
171 205 255
171 205 255
171 205 255
171 205 255
171 205 255
171 205 255
171 205 255
171 205 255
171 205 255
171 205 255
171 205 255
171 205 255
171 205 255
172 205 255
172 205 255
172 205 255
172 205 255
172 205 255
172 205 255
172 205 255
172 205 255
172 205 255
172 206 255
172 206 255
172 206 255
172 206 255
172 206 255
173 206 255
173 206 255
173 206 255
173 206 255
173 206 255
173 206 255
173 206 255
173 206 255
173 206 255
173 206 255
173 206 255
173 206 255
173 206 255
173 206 255
173 206 255
174 206 255
174 206 255
174 206 255
174 206 255
174 206 255
174 206 255
173 206 255
173 206 255
173 206 255
173 206 255
173 206 255
173 206 255
173 206 255
173 206 255
173 206 255
173 206 255
173 206 255
173 206 255
173 206 255
173 206 255
173 206 255
172 206 255
172 206 255
172 206 255
172 206 255
172 206 255
172 205 255
172 205 255
172 205 255
172 205 255
172 205 255
172 205 255
172 205 255
172 205 255
172 205 255
171 205 255
171 205 255
171 205 255
171 205 255
171 205 255
171 205 255
171 205 255
171 205 255
171 205 255
171 205 255
171 205 255
171 205 255
171 205 255
170 204 255
170 204 255
170 204 255
170 204 255
170 204 255
170 204 255
170 204 255
170 204 255
170 204 255
170 204 255
170 204 255
170 204 255
169 204 255
169 204 255
169 204 255
169 204 255
169 204 255
169 204 255
169 204 255
169 204 255
169 203 255
169 203 255
169 203 255
169 203 255
168 203 255
168 203 255
168 203 255
168 203 255
168 203 255
168 203 255
168 203 255
168 203 255
168 203 255
168 203 255
168 203 255
167 203 255
167 203 255
167 203 255
167 202 255
167 202 255
167 202 255
167 202 255
167 202 255
167 202 255
167 202 255
167 202 255
166 202 255
166 202 255
166 202 255
166 202 255
166 202 255
166 202 255
166 202 255
166 202 255
166 202 255
166 202 255
165 201 255
165 201 255
165 201 255
165 201 255
165 201 255
165 201 255
165 201 255
165 201 255
165 201 255
165 201 255
165 201 255
164 201 255
164 201 255
164 201 255
164 201 255
164 201 255
164 201 255
164 201 255
164 200 255
164 200 255
164 200 255
163 200 255
163 200 255
163 200 255
163 200 255
163 200 255
163 200 255
163 200 255
163 200 255
163 200 255
163 200 255
163 200 255
162 200 255
162 200 255
162 200 255
162 200 255
162 199 255
162 199 255
162 199 255
162 199 255
162 199 255
162 199 255
162 199 255
162 199 255
161 199 255
161 199 255
161 199 255
161 199 255
161 199 255
161 199 255
161 199 255
161 199 255
161 199 255
161 199 255
161 199 255
161 199 255
161 199 255
160 198 255
160 198 255
160 198 255
160 198 255
160 198 255
160 198 255
160 198 255
160 198 255
160 198 255
160 198 255
160 198 255
160 198 255
160 198 255
160 198 255
160 198 255
160 198 255
160 198 255
160 198 255
160 198 255
160 198 255
159 198 255
159 198 255
159 198 255
159 198 255
159 198 255
159 198 255
159 198 255
159 198 255
159 198 255
159 198 255
159 198 255
159 198 255
159 198 255
159 198 255
159 198 255
159 198 255
159 198 255
159 198 255
159 198 255
159 198 255
159 198 255
159 198 255
159 198 255
159 198 255
159 198 255
159 198 255
159 198 255
159 198 255
159 198 255
159 198 255
159 198 255
159 198 255
159 198 255
159 198 255
159 198 255
159 198 255
159 198 255
159 198 255
159 198 255
159 198 255
159 198 255
160 198 255
160 198 255
160 198 255
160 198 255
160 198 255
160 198 255
160 198 255
160 198 255
160 198 255
160 198 255
160 198 255
160 198 255
160 198 255
160 198 255
160 198 255
160 198 255
160 198 255
160 198 255
161 199 255
161 199 255
161 199 255
161 199 255
161 199 255
161 199 255
161 199 255
161 199 255
161 199 255
161 199 255
161 199 255
161 199 255
161 199 255
161 199 255
162 199 255
162 199 255
162 199 255
162 199 255
162 199 255
162 199 255
162 199 255
162 199 255
162 200 255
162 200 255
162 200 255
162 200 255
163 200 255
163 200 255
163 200 255
163 200 255
163 200 255
163 200 255
163 200 255
163 200 255
163 200 255
163 200 255
163 200 255
164 200 255
164 200 255
164 200 255
164 201 255
164 201 255
164 201 255
164 201 255
164 201 255
164 201 255
164 201 255
165 201 255
165 201 255
165 201 255
165 201 255
165 201 255
165 201 255
165 201 255
165 201 255
165 201 255
165 201 255
165 201 255
166 202 255
166 202 255
166 202 255
166 202 255
166 202 255
166 202 255
166 202 255
166 202 255
166 202 255
166 202 255
167 202 255
167 202 255
167 202 255
167 202 255
167 202 255
167 202 255
167 202 255
167 202 255
167 203 255
167 203 255
167 203 255
168 203 255
168 203 255
168 203 255
168 203 255
168 203 255
168 203 255
168 203 255
168 203 255
168 203 255
168 203 255
168 203 255
169 203 255
169 203 255
169 203 255
169 203 255
169 204 255
169 204 255
169 204 255
169 204 255
169 204 255
169 204 255
169 204 255
169 204 255
170 204 255
170 204 255
170 204 255
170 204 255
170 204 255
170 204 255
170 204 255
170 204 255
170 204 255
170 204 255
170 204 255
170 204 255
171 205 255
171 205 255
171 205 255
171 205 255
171 205 255
171 205 255
171 205 255
171 205 255
171 205 255
171 205 255
171 205 255
171 205 255
171 205 255
172 205 255
172 205 255
172 205 255
172 205 255
172 205 255
172 205 255
172 205 255
172 205 255
172 205 255
172 206 255
172 206 255
172 206 255
172 206 255
172 206 255
173 206 255
173 206 255
173 206 255
173 206 255
173 206 255
173 206 255
173 206 255
173 206 255
173 206 255
173 206 255
173 206 255
173 206 255
173 206 255
173 206 255
173 206 255
174 206 255
174 206 255
174 206 255
174 206 255
174 206 255
174 207 255
174 207 255
174 207 255
174 207 255
174 206 255
174 206 255
174 206 255
174 206 255
174 206 255
173 206 255
173 206 255
173 206 255
173 206 255
173 206 255
173 206 255
173 206 255
173 206 255
173 206 255
173 206 255
173 206 255
173 206 255
173 206 255
173 206 255
173 206 255
172 206 255
172 206 255
172 206 255
172 206 255
172 205 255
172 205 255
172 205 255
172 205 255
172 205 255
172 205 255
172 205 255
172 205 255
172 205 255
172 205 255
171 205 255
171 205 255
171 205 255
171 205 255
171 205 255
171 205 255
171 205 255
171 205 255
171 205 255
171 205 255
171 205 255
171 205 255
171 205 255
170 204 255
170 204 255
170 204 255
170 204 255
170 204 255
170 204 255
170 204 255
170 204 255
170 204 255
170 204 255
170 204 255
170 204 255
169 204 255
169 204 255
169 204 255
169 204 255
169 204 255
169 204 255
169 204 255
169 203 255
169 203 255
169 203 255
169 203 255
168 203 255
168 203 255
168 203 255
168 203 255
168 203 255
168 203 255
168 203 255
168 203 255
168 203 255
168 203 255
168 203 255
167 203 255
167 203 255
167 203 255
167 203 255
167 202 255
167 202 255
167 202 255
167 202 255
167 202 255
167 202 255
167 202 255
166 202 255
166 202 255
166 202 255
166 202 255
166 202 255
166 202 255
166 202 255
166 202 255
166 202 255
166 202 255
166 202 255
165 201 255
165 201 255
165 201 255
165 201 255
165 201 255
165 201 255
165 201 255
165 201 255
165 201 255
165 201 255
164 201 255
164 201 255
164 201 255
164 201 255
164 201 255
164 201 255
164 201 255
164 200 255
164 200 255
164 200 255
164 200 255
163 200 255
163 200 255
163 200 255
163 200 255
163 200 255
163 200 255
163 200 255
163 200 255
163 200 255
163 200 255
163 200 255
162 200 255
162 200 255
162 200 255
162 200 255
162 199 255
162 199 255
162 199 255
162 199 255
162 199 255
162 199 255
162 199 255
162 199 255
161 199 255
161 199 255
161 199 255
161 199 255
161 199 255
161 199 255
161 199 255
161 199 255
161 199 255
161 199 255
161 199 255
161 199 255
161 199 255
161 199 255
161 199 255
160 198 255
160 198 255
160 198 255
160 198 255
160 198 255
160 198 255
160 198 255
160 198 255
160 198 255
160 198 255
160 198 255
160 198 255
160 198 255
160 198 255
160 198 255
160 198 255
160 198 255
160 198 255
160 198 255
160 198 255
160 198 255
160 198 255
160 198 255
160 198 255
160 198 255
160 198 255
158 196 253
144 179 231
129 160 206
114 141 182
104 129 167
104 129 167
87 108 139
102 127 164
96 120 154
91 113 147
105 130 167
107 132 171
124 154 199
141 176 227
147 183 236
153 189 244
160 198 255
160 198 255
160 198 255
160 198 255
160 198 255
160 198 255
160 198 255
160 198 255
160 198 255
160 198 255
160 198 255
160 198 255
160 198 255
160 198 255
160 198 255
160 198 255
160 198 255
160 198 255
160 198 255
160 198 255
160 198 255
160 198 255
160 198 255
160 198 255
160 198 255
160 198 255
161 199 255
161 199 255
161 199 255
161 199 255
161 199 255
161 199 255
161 199 255
161 199 255
161 199 255
161 199 255
161 199 255
161 199 255
161 199 255
161 199 255
162 199 255
162 199 255
162 199 255
162 199 255
162 199 255
162 199 255
162 199 255
162 199 255
162 199 255
162 200 255
162 200 255
162 200 255
162 200 255
163 200 255
163 200 255
163 200 255
163 200 255
163 200 255
163 200 255
163 200 255
163 200 255
163 200 255
163 200 255
163 200 255
164 200 255
164 200 255
164 200 255
164 200 255
164 201 255
164 201 255
164 201 255
164 201 255
164 201 255
164 201 255
164 201 255
165 201 255
165 201 255
165 201 255
165 201 255
165 201 255
165 201 255
165 201 255
165 201 255
165 201 255
165 201 255
166 202 255
166 202 255
166 202 255
166 202 255
166 202 255
166 202 255
166 202 255
166 202 255
166 202 255
166 202 255
166 202 255
167 202 255
167 202 255
167 202 255
167 202 255
167 202 255
167 202 255
167 202 255
167 203 255
167 203 255
167 203 255
167 203 255
168 203 255
168 203 255
168 203 255
168 203 255
168 203 255
168 203 255
168 203 255
168 203 255
168 203 255
168 203 255
168 203 255
169 203 255
169 203 255
169 203 255
169 203 255
169 204 255
169 204 255
169 204 255
169 204 255
169 204 255
169 204 255
169 204 255
170 204 255
170 204 255
170 204 255
170 204 255
170 204 255
170 204 255
170 204 255
170 204 255
170 204 255
170 204 255
170 204 255
170 204 255
170 204 255
171 205 255
171 205 255
171 205 255
171 205 255
171 205 255
171 205 255
171 205 255
171 205 255
171 205 255
171 205 255
171 205 255
171 205 255
172 205 255
172 205 255
172 205 255
172 205 255
172 205 255
172 205 255
172 205 255
172 205 255
172 205 255
172 206 255
172 206 255
172 206 255
172 206 255
172 206 255
173 206 255
173 206 255
173 206 255
173 206 255
173 206 255
173 206 255
173 206 255
173 206 255
173 206 255
173 206 255
173 206 255
173 206 255
173 206 255
173 206 255
173 206 255
174 206 255
174 206 255
174 206 255
174 206 255
174 206 255
174 207 255
174 207 255
174 207 255
174 207 255
174 207 255
174 207 255
174 207 255
174 207 255
174 207 255
174 207 255
174 207 255
174 207 255
174 206 255
174 206 255
174 206 255
174 206 255
174 206 255
173 206 255
173 206 255
173 206 255
173 206 255
173 206 255
173 206 255
173 206 255
173 206 255
173 206 255
173 206 255
173 206 255
173 206 255
173 206 255
173 206 255
173 206 255
172 206 255
172 206 255
172 206 255
172 206 255
172 205 255
172 205 255
172 205 255
172 205 255
172 205 255
172 205 255
172 205 255
172 205 255
172 205 255
171 205 255
171 205 255
171 205 255
171 205 255
171 205 255
171 205 255
171 205 255
171 205 255
171 205 255
171 205 255
171 205 255
171 205 255
171 205 255
170 204 255
170 204 255
170 204 255
170 204 255
170 204 255
170 204 255
170 204 255
170 204 255
170 204 255
170 204 255
170 204 255
170 204 255
169 204 255
169 204 255
169 204 255
169 204 255
169 204 255
169 204 255
169 204 255
169 204 255
169 203 255
169 203 255
169 203 255
169 203 255
168 203 255
168 203 255
168 203 255
168 203 255
168 203 255
168 203 255
168 203 255
168 203 255
168 203 255
168 203 255
168 203 255
167 203 255
167 203 255
167 203 255
167 202 255
167 202 255
167 202 255
167 202 255
167 202 255
167 202 255
167 202 255
167 202 255
166 202 255
166 202 255
166 202 255
166 202 255
166 202 255
166 202 255
166 202 255
166 202 255
166 202 255
166 202 255
165 201 255
165 201 255
165 201 255
165 201 255
165 201 255
165 201 255
165 201 255
165 201 255
165 201 255
165 201 255
165 201 255
164 201 255
164 201 255
164 201 255
164 201 255
164 201 255
164 201 255
164 201 255
164 200 255
164 200 255
164 200 255
164 200 255
163 200 255
163 200 255
163 200 255
163 200 255
163 200 255
163 200 255
163 200 255
163 200 255
163 200 255
163 200 255
163 200 255
163 200 255
162 200 255
162 200 255
162 200 255
162 200 255
162 199 255
162 199 255
162 199 255
162 199 255
162 199 255
162 199 255
162 199 255
162 199 255
162 199 255
161 199 255
161 199 255
161 199 255
161 199 255
161 199 255
161 199 255
161 199 255
161 199 255
161 199 255
161 199 255
161 199 255
161 199 255
161 199 255
161 199 255
161 199 255
161 199 255
160 198 255
160 198 255
160 198 255
160 198 255
160 198 255
160 198 255
160 198 255
160 198 255
160 198 255
160 198 255
160 198 255
160 198 255
160 198 255
151 188 242
123 152 196
99 123 158
69 85 110
50 61 79
30 38 49
17 21 28
19 24 31
17 22 28
18 22 30
18 23 29
18 22 29
17 22 29
19 24 32
17 21 27
19 24 32
19 24 31
15 20 26
18 22 29
16 21 27
17 21 27
16 20 26
32 40 52
68 84 109
79 98 126
92 115 148
123 152 196
156 193 249
160 198 255
160 198 255
160 198 255
160 198 255
160 198 255
160 198 255
160 198 255
160 198 255
160 198 255
160 198 255
160 198 255
160 198 255
160 198 255
161 199 255
161 199 255
161 199 255
161 199 255
161 199 255
161 199 255
161 199 255
161 199 255
161 199 255
161 199 255
161 199 255
161 199 255
161 199 255
161 199 255
161 199 255
161 199 255
161 199 255
162 199 255
162 199 255
162 199 255
162 199 255
162 199 255
162 199 255
162 199 255
162 199 255
162 199 255
162 200 255
162 200 255
162 200 255
163 200 255
163 200 255
163 200 255
163 200 255
163 200 255
163 200 255
163 200 255
163 200 255
163 200 255
163 200 255
163 200 255
163 200 255
164 200 255
164 200 255
164 200 255
164 200 255
164 201 255
164 201 255
164 201 255
164 201 255
164 201 255
164 201 255
164 201 255
165 201 255
165 201 255
165 201 255
165 201 255
165 201 255
165 201 255
165 201 255
165 201 255
165 201 255
165 201 255
165 201 255
166 202 255
166 202 255
166 202 255
166 202 255
166 202 255
166 202 255
166 202 255
166 202 255
166 202 255
166 202 255
167 202 255
167 202 255
167 202 255
167 202 255
167 202 255
167 202 255
167 202 255
167 202 255
167 203 255
167 203 255
167 203 255
168 203 255
168 203 255
168 203 255
168 203 255
168 203 255
168 203 255
168 203 255
168 203 255
168 203 255
168 203 255
168 203 255
169 203 255
169 203 255
169 203 255
169 203 255
169 204 255
169 204 255
169 204 255
169 204 255
169 204 255
169 204 255
169 204 255
169 204 255
170 204 255
170 204 255
170 204 255
170 204 255
170 204 255
170 204 255
170 204 255
170 204 255
170 204 255
170 204 255
170 204 255
170 204 255
171 205 255
171 205 255
171 205 255
171 205 255
171 205 255
171 205 255
171 205 255
171 205 255
171 205 255
171 205 255
171 205 255
171 205 255
171 205 255
172 205 255
172 205 255
172 205 255
172 205 255
172 205 255
172 205 255
172 205 255
172 205 255
172 205 255
172 206 255
172 206 255
172 206 255
172 206 255
173 206 255
173 206 255
173 206 255
173 206 255
173 206 255
173 206 255
173 206 255
173 206 255
173 206 255
173 206 255
173 206 255
173 206 255
173 206 255
173 206 255
173 206 255
174 206 255
174 206 255
174 206 255
174 206 255
174 206 255
174 206 255
174 207 255
174 207 255
174 207 255
174 207 255
174 207 255
174 207 255
174 207 255
175 207 255
174 207 255
174 207 255
174 207 255
174 207 255
174 207 255
174 207 255
174 207 255
174 207 255
174 207 255
174 207 255
174 207 255
174 206 255
174 206 255
174 206 255
174 206 255
174 206 255
173 206 255
173 206 255
173 206 255
173 206 255
173 206 255
173 206 255
173 206 255
173 206 255
173 206 255
173 206 255
173 206 255
173 206 255
173 206 255
173 206 255
172 206 255
172 206 255
172 206 255
172 206 255
172 206 255
172 205 255
172 205 255
172 205 255
172 205 255
172 205 255
172 205 255
172 205 255
172 205 255
172 205 255
171 205 255
171 205 255
171 205 255
171 205 255
171 205 255
171 205 255
171 205 255
171 205 255
171 205 255
171 205 255
171 205 255
171 205 255
171 205 255
170 204 255
170 204 255
170 204 255
170 204 255
170 204 255
170 204 255
170 204 255
170 204 255
170 204 255
170 204 255
170 204 255
170 204 255
169 204 255
169 204 255
169 204 255
169 204 255
169 204 255
169 204 255
169 204 255
169 203 255
169 203 255
169 203 255
169 203 255
168 203 255
168 203 255
168 203 255
168 203 255
168 203 255
168 203 255
168 203 255
168 203 255
168 203 255
168 203 255
168 203 255
167 203 255
167 203 255
167 203 255
167 203 255
167 202 255
167 202 255
167 202 255
167 202 255
167 202 255
167 202 255
167 202 255
166 202 255
166 202 255
166 202 255
166 202 255
166 202 255
166 202 255
166 202 255
166 202 255
166 202 255
166 202 255
166 202 255
165 201 255
165 201 255
165 201 255
165 201 255
165 201 255
165 201 255
165 201 255
165 201 255
165 201 255
165 201 255
165 201 255
164 201 255
164 201 255
164 201 255
164 201 255
164 201 255
164 201 255
164 201 255
164 200 255
164 200 255
164 200 255
164 200 255
163 200 255
163 200 255
163 200 255
163 200 255
163 200 255
163 200 255
163 200 255
163 200 255
163 200 255
163 200 255
163 200 255
163 200 255
162 200 255
162 200 255
162 200 255
162 200 255
162 199 255
162 199 255
162 199 255
162 199 255
162 199 255
162 199 255
162 199 255
162 199 255
162 199 255
162 199 255
161 199 255
161 199 255
161 199 255
161 199 255
161 199 255
161 199 255
161 199 255
161 199 255
161 199 255
161 199 255
161 199 255
161 199 255
161 199 255
161 199 255
161 199 255
161 199 255
161 199 255
161 199 255
161 199 255
161 199 255
148 183 236
111 138 178
87 107 139
33 41 53
17 22 29
16 21 27
16 20 27
19 23 30
18 22 28
18 23 29
16 20 27
18 22 29
15 19 25
17 21 28
18 22 29
20 25 32
18 23 30
16 20 26
17 22 29
15 19 24
19 23 30
17 22 28
18 22 29
17 22 28
15 19 26
21 26 33
18 23 30
18 22 29
15 19 25
19 23 31
17 21 28
20 26 33
39 49 63
81 100 130
119 147 189
153 189 244
161 199 255
161 199 255
161 199 255
161 199 255
161 199 255
161 199 255
161 199 255
161 199 255
161 199 255
161 199 255
161 199 255
161 199 255
161 199 255
161 199 255
161 199 255
161 199 255
161 199 255
161 199 255
161 199 255
161 199 255
162 199 255
162 199 255
162 199 255
162 199 255
162 199 255
162 199 255
162 199 255
162 199 255
162 199 255
162 199 255
162 200 255
162 200 255
162 200 255
162 200 255
163 200 255
163 200 255
163 200 255
163 200 255
163 200 255
163 200 255
163 200 255
163 200 255
163 200 255
163 200 255
163 200 255
163 200 255
164 200 255
164 200 255
164 200 255
164 200 255
164 201 255
164 201 255
164 201 255
164 201 255
164 201 255
164 201 255
164 201 255
165 201 255
165 201 255
165 201 255
165 201 255
165 201 255
165 201 255
165 201 255
165 201 255
165 201 255
165 201 255
165 201 255
166 202 255
166 202 255
166 202 255
166 202 255
166 202 255
166 202 255
166 202 255
166 202 255
166 202 255
166 202 255
166 202 255
167 202 255
167 202 255
167 202 255
167 202 255
167 202 255
167 202 255
167 202 255
167 203 255
167 203 255
167 203 255
167 203 255
168 203 255
168 203 255
168 203 255
168 203 255
168 203 255
168 203 255
168 203 255
168 203 255
168 203 255
168 203 255
168 203 255
169 203 255
169 203 255
169 203 255
169 203 255
169 204 255
169 204 255
169 204 255
169 204 255
169 204 255
169 204 255
169 204 255
170 204 255
170 204 255
170 204 255
170 204 255
170 204 255
170 204 255
170 204 255
170 204 255
170 204 255
170 204 255
170 204 255
170 204 255
171 205 255
171 205 255
171 205 255
171 205 255
171 205 255
171 205 255
171 205 255
171 205 255
171 205 255
171 205 255
171 205 255
171 205 255
171 205 255
172 205 255
172 205 255
172 205 255
172 205 255
172 205 255
172 205 255
172 205 255
172 205 255
172 205 255
172 206 255
172 206 255
172 206 255
172 206 255
172 206 255
173 206 255
173 206 255
173 206 255
173 206 255
173 206 255
173 206 255
173 206 255
173 206 255
173 206 255
173 206 255
173 206 255
173 206 255
173 206 255
173 206 255
174 206 255
174 206 255
174 206 255
174 206 255
174 206 255
174 207 255
174 207 255
174 207 255
174 207 255
174 207 255
174 207 255
174 207 255
174 207 255
174 207 255
174 207 255
174 207 255
175 207 255
175 207 255
175 207 255
175 207 255
175 207 255
175 207 255
174 207 255
174 207 255
174 207 255
174 207 255
174 207 255
174 207 255
174 207 255
174 207 255
174 207 255
174 207 255
174 207 255
174 206 255
174 206 255
174 206 255
174 206 255
174 206 255
173 206 255
173 206 255
173 206 255
173 206 255
173 206 255
173 206 255
173 206 255
173 206 255
173 206 255
173 206 255
173 206 255
173 206 255
173 206 255
173 206 255
172 206 255
172 206 255
172 206 255
172 206 255
172 206 255
172 205 255
172 205 255
172 205 255
172 205 255
172 205 255
172 205 255
172 205 255
172 205 255
172 205 255
171 205 255
171 205 255
171 205 255
171 205 255
171 205 255
171 205 255
171 205 255
171 205 255
171 205 255
171 205 255
171 205 255
171 205 255
171 204 255
170 204 255
170 204 255
170 204 255
170 204 255
170 204 255
170 204 255
170 204 255
170 204 255
170 204 255
170 204 255
170 204 255
169 204 255
169 204 255
169 204 255
169 204 255
169 204 255
169 204 255
169 204 255
169 204 255
169 203 255
169 203 255
169 203 255
169 203 255
168 203 255
168 203 255
168 203 255
168 203 255
168 203 255
168 203 255
168 203 255
168 203 255
168 203 255
168 203 255
168 203 255
167 203 255
167 203 255
167 203 255
167 203 255
167 202 255
167 202 255
167 202 255
167 202 255
167 202 255
167 202 255
167 202 255
166 202 255
166 202 255
166 202 255
166 202 255
166 202 255
166 202 255
166 202 255
166 202 255
166 202 255
166 202 255
166 202 255
165 201 255
165 201 255
165 201 255
165 201 255
165 201 255
165 201 255
165 201 255
165 201 255
165 201 255
165 201 255
165 201 255
164 201 255
164 201 255
164 201 255
164 201 255
164 201 255
164 201 255
164 201 255
164 200 255
164 200 255
164 200 255
164 200 255
163 200 255
163 200 255
163 200 255
163 200 255
163 200 255
163 200 255
163 200 255
163 200 255
163 200 255
163 200 255
163 200 255
163 200 255
163 200 255
162 200 255
162 200 255
162 200 255
162 200 255
162 200 255
162 199 255
162 199 255
162 199 255
162 199 255
162 199 255
162 199 255
162 199 255
162 199 255
162 199 255
162 199 255
161 199 255
161 199 255
161 199 255
161 199 255
161 199 255
161 199 255
161 199 255
161 199 255
161 199 255
161 199 255
161 199 255
149 184 237
94 117 150
54 67 87
19 23 30
16 21 27
17 22 29
17 21 27
17 21 27
18 23 30
17 22 29
16 20 26
19 23 30
19 24 31
15 19 24
14 17 23
16 21 27
19 24 31
15 19 24
18 22 29
19 23 30
20 25 32
20 25 32
15 18 24
15 20 26
16 21 27
16 20 26
17 22 29
18 23 29
18 23 29
18 22 29
19 24 31
18 22 29
15 19 25
20 24 32
16 20 26
18 22 28
15 19 24
16 20 27
18 23 30
53 65 84
96 119 153
143 177 227
161 199 255
161 199 255
161 199 255
161 199 255
161 199 255
161 199 255
161 199 255
161 199 255
161 199 255
161 199 255
162 199 255
162 199 255
162 199 255
162 199 255
162 199 255
162 199 255
162 199 255
162 199 255
162 199 255
162 199 255
162 199 255
162 200 255
162 200 255
162 200 255
162 200 255
162 200 255
163 200 255
163 200 255
163 200 255
163 200 255
163 200 255
163 200 255
163 200 255
163 200 255
163 200 255
163 200 255
163 200 255
163 200 255
163 200 255
164 200 255
164 200 255
164 200 255
164 200 255
164 201 255
164 201 255
164 201 255
164 201 255
164 201 255
164 201 255
164 201 255
165 201 255
165 201 255
165 201 255
165 201 255
165 201 255
165 201 255
165 201 255
165 201 255
165 201 255
165 201 255
165 201 255
165 201 255
166 202 255
166 202 255
166 202 255
166 202 255
166 202 255
166 202 255
166 202 255
166 202 255
166 202 255
166 202 255
167 202 255
167 202 255
167 202 255
167 202 255
167 202 255
167 202 255
167 202 255
167 203 255
167 203 255
167 203 255
167 203 255
168 203 255
168 203 255
168 203 255
168 203 255
168 203 255
168 203 255
168 203 255
168 203 255
168 203 255
168 203 255
168 203 255
169 203 255
169 203 255
169 203 255
169 203 255
169 204 255
169 204 255
169 204 255
169 204 255
169 204 255
169 204 255
169 204 255
169 204 255
170 204 255
170 204 255
170 204 255
170 204 255
170 204 255
170 204 255
170 204 255
170 204 255
170 204 255
170 204 255
170 204 255
171 205 255
171 205 255
171 205 255
171 205 255
171 205 255
171 205 255
171 205 255
171 205 255
171 205 255
171 205 255
171 205 255
171 205 255
171 205 255
172 205 255
172 205 255
172 205 255
172 205 255
172 205 255
172 205 255
172 205 255
172 205 255
172 205 255
172 206 255
172 206 255
172 206 255
172 206 255
172 206 255
173 206 255
173 206 255
173 206 255
173 206 255
173 206 255
173 206 255
173 206 255
173 206 255
173 206 255
173 206 255
173 206 255
173 206 255
173 206 255
173 206 255
174 206 255
174 206 255
174 206 255
174 206 255
174 206 255
174 207 255
174 207 255
174 207 255
174 207 255
174 207 255
174 207 255
174 207 255
174 207 255
174 207 255
174 207 255
174 207 255
175 207 255
175 207 255
175 207 255
175 207 255
175 207 255
175 207 255
175 207 255
175 207 255
175 207 255
175 207 255
175 207 255
175 207 255
175 207 255
175 207 255
174 207 255
174 207 255
174 207 255
174 207 255
174 207 255
174 207 255
174 207 255
174 207 255
174 207 255
174 207 255
174 207 255
174 206 255
174 206 255
174 206 255
174 206 255
174 206 255
173 206 255
173 206 255
173 206 255
173 206 255
173 206 255
173 206 255
173 206 255
173 206 255
173 206 255
173 206 255
173 206 255
173 206 255
173 206 255
173 206 255
172 206 255
172 206 255
172 206 255
172 206 255
172 206 255
172 205 255
172 205 255
172 205 255
172 205 255
172 205 255
172 205 255
172 205 255
172 205 255
172 205 255
171 205 255
171 205 255
171 205 255
171 205 255
171 205 255
171 205 255
171 205 255
171 205 255
171 205 255
171 205 255
171 205 255
171 205 255
170 204 255
170 204 255
170 204 255
170 204 255
170 204 255
170 204 255
170 204 255
170 204 255
170 204 255
170 204 255
170 204 255
170 204 255
169 204 255
169 204 255
169 204 255
169 204 255
169 204 255
169 204 255
169 204 255
169 204 255
169 203 255
169 203 255
169 203 255
169 203 255
168 203 255
168 203 255
168 203 255
168 203 255
168 203 255
168 203 255
168 203 255
168 203 255
168 203 255
168 203 255
168 203 255
167 203 255
167 203 255
167 203 255
167 202 255
167 202 255
167 202 255
167 202 255
167 202 255
167 202 255
167 202 255
166 202 255
166 202 255
166 202 255
166 202 255
166 202 255
166 202 255
166 202 255
166 202 255
166 202 255
166 202 255
166 202 255
165 201 255
165 201 255
165 201 255
165 201 255
165 201 255
165 201 255
165 201 255
165 201 255
165 201 255
165 201 255
165 201 255
165 201 255
164 201 255
164 201 255
164 201 255
164 201 255
164 201 255
164 201 255
164 201 255
164 201 255
164 200 255
164 200 255
164 200 255
164 200 255
163 200 255
163 200 255
163 200 255
163 200 255
163 200 255
163 200 255
163 200 255
163 200 255
163 200 255
163 200 255
163 200 255
163 200 255
163 200 255
162 200 255
162 200 255
162 200 255
162 200 255
162 200 255
162 200 255
162 199 255
162 199 255
162 199 255
162 199 255
162 199 255
162 199 255
162 199 255
162 199 255
162 199 255
162 199 255
162 199 255
162 199 255
151 187 240
98 122 156
46 57 73
17 21 28
18 22 29
16 21 27
15 19 25
16 20 26
16 21 27
16 20 26
17 22 29
14 18 23
18 23 30
15 19 25
18 22 28
19 23 30
17 21 28
17 22 29
16 21 27
16 21 27
16 21 27
15 18 23
16 21 27
18 23 29
19 23 29
16 20 26
17 22 29
18 23 29
17 21 27
19 24 31
18 23 30
16 20 27
17 22 28
18 22 29
18 23 30
17 21 28
18 23 29
18 23 30
18 22 28
20 25 32
18 22 29
15 19 25
17 21 28
15 18 24
12 16 21
44 55 72
100 124 159
152 187 240
162 199 255
162 199 255
162 199 255
162 199 255
162 199 255
162 199 255
162 199 255
162 199 255
162 199 255
162 199 255
162 199 255
162 199 255
162 199 255
162 200 255
162 200 255
162 200 255
162 200 255
162 200 255
163 200 255
163 200 255
163 200 255
163 200 255
163 200 255
163 200 255
163 200 255
163 200 255
163 200 255
163 200 255
163 200 255
163 200 255
163 200 255
164 200 255
164 200 255
164 200 255
164 200 255
164 201 255
164 201 255
164 201 255
164 201 255
164 201 255
164 201 255
164 201 255
164 201 255
165 201 255
165 201 255
165 201 255
165 201 255
165 201 255
165 201 255
165 201 255
165 201 255
165 201 255
165 201 255
165 201 255
165 201 255
166 202 255
166 202 255
166 202 255
166 202 255
166 202 255
166 202 255
166 202 255
166 202 255
166 202 255
166 202 255
167 202 255
167 202 255
167 202 255
167 202 255
167 202 255
167 202 255
167 202 255
167 202 255
167 203 255
167 203 255
167 203 255
167 203 255
168 203 255
168 203 255
168 203 255
168 203 255
168 203 255
168 203 255
168 203 255
168 203 255
168 203 255
168 203 255
168 203 255
169 203 255
169 203 255
169 203 255
169 204 255
169 204 255
169 204 255
169 204 255
169 204 255
169 204 255
169 204 255
169 204 255
170 204 255
170 204 255
170 204 255
170 204 255
170 204 255
170 204 255
170 204 255
170 204 255
170 204 255
170 204 255
170 204 255
170 204 255
171 205 255
171 205 255
171 205 255
171 205 255
171 205 255
171 205 255
171 205 255
171 205 255
171 205 255
171 205 255
171 205 255
171 205 255
171 205 255
172 205 255
172 205 255
172 205 255
172 205 255
172 205 255
172 205 255
172 205 255
172 205 255
172 206 255
172 206 255
172 206 255
172 206 255
172 206 255
173 206 255
173 206 255
173 206 255
173 206 255
173 206 255
173 206 255
173 206 255
173 206 255
173 206 255
173 206 255
173 206 255
173 206 255
173 206 255
173 206 255
174 206 255
174 206 255
174 206 255
174 206 255
174 206 255
174 207 255
174 207 255
174 207 255
174 207 255
174 207 255
174 207 255
174 207 255
174 207 255
174 207 255
174 207 255
174 207 255
175 207 255
175 207 255
175 207 255
175 207 255
175 207 255
175 207 255
175 207 255
175 207 255
175 207 255
175 207 255
175 207 255
175 207 255
175 207 255
175 207 255
175 207 255
175 207 255
175 207 255
175 207 255
175 207 255
175 207 255
175 207 255
175 207 255
175 207 255
174 207 255
174 207 255
174 207 255
174 207 255
174 207 255
174 207 255
174 207 255
174 207 255
174 207 255
174 207 255
174 206 255
174 206 255
174 206 255
174 206 255
174 206 255
173 206 255
173 206 255
173 206 255
173 206 255
173 206 255
173 206 255
173 206 255
173 206 255
173 206 255
173 206 255
173 206 255
173 206 255
173 206 255
173 206 255
172 206 255
172 206 255
172 206 255
172 206 255
172 206 255
172 205 255
172 205 255
172 205 255
172 205 255
172 205 255
172 205 255
172 205 255
172 205 255
171 205 255
171 205 255
171 205 255
171 205 255
171 205 255
171 205 255
171 205 255
171 205 255
171 205 255
171 205 255
171 205 255
171 205 255
171 205 255
170 204 255
170 204 255
170 204 255
170 204 255
170 204 255
170 204 255
170 204 255
170 204 255
170 204 255
170 204 255
170 204 255
170 204 255
169 204 255
169 204 255
169 204 255
169 204 255
169 204 255
169 204 255
169 204 255
169 203 255
169 203 255
169 203 255
169 203 255
168 203 255
168 203 255
168 203 255
168 203 255
168 203 255
168 203 255
168 203 255
168 203 255
168 203 255
168 203 255
168 203 255
167 203 255
167 203 255
167 203 255
167 203 255
167 202 255
167 202 255
167 202 255
167 202 255
167 202 255
167 202 255
167 202 255
166 202 255
166 202 255
166 202 255
166 202 255
166 202 255
166 202 255
166 202 255
166 202 255
166 202 255
166 202 255
166 202 255
165 201 255
165 201 255
165 201 255
165 201 255
165 201 255
165 201 255
165 201 255
165 201 255
165 201 255
165 201 255
165 201 255
165 201 255
164 201 255
164 201 255
164 201 255
164 201 255
164 201 255
164 201 255
164 201 255
164 201 255
164 200 255
164 200 255
164 200 255
164 200 255
163 200 255
163 200 255
163 200 255
163 200 255
163 200 255
163 200 255
163 200 255
163 200 255
163 200 255
163 200 255
163 200 255
163 200 255
163 200 255
163 200 255
163 200 255
163 200 255
162 200 255
162 200 255
162 200 255
162 200 255
162 200 255
162 199 255
162 199 255
162 199 255
161 198 253
126 155 199
70 87 112
21 27 35
16 20 26
18 22 30
18 22 29
17 22 29
17 21 27
15 19 26
14 18 24
17 21 28
20 25 32
19 24 31
17 21 27
18 23 29
18 22 29
16 21 27
19 23 30
17 21 28
16 20 26
14 17 22
18 22 29
18 23 29
16 20 26
17 21 28
15 19 24
17 21 27
16 21 27
17 22 28
18 22 29
19 24 31
17 22 28
18 22 29
18 23 30
17 21 28
19 24 32
16 20 26
17 21 27
17 21 28
15 18 24
18 22 29
15 19 24
16 20 27
16 19 25
18 22 29
16 20 26
19 25 32
16 20 26
17 21 27
25 31 41
62 77 99
122 150 192
162 199 255
162 199 255
162 199 255
162 199 255
162 200 255
162 200 255
162 200 255
162 200 255
162 200 255
162 200 255
163 200 255
163 200 255
163 200 255
163 200 255
163 200 255
163 200 255
163 200 255
163 200 255
163 200 255
163 200 255
163 200 255
163 200 255
163 200 255
163 200 255
163 200 255
164 200 255
164 200 255
164 200 255
164 200 255
164 201 255
164 201 255
164 201 255
164 201 255
164 201 255
164 201 255
164 201 255
164 201 255
165 201 255
165 201 255
165 201 255
165 201 255
165 201 255
165 201 255
165 201 255
165 201 255
165 201 255
165 201 255
165 201 255
165 201 255
166 202 255
166 202 255
166 202 255
166 202 255
166 202 255
166 202 255
166 202 255
166 202 255
166 202 255
166 202 255
166 202 255
167 202 255
167 202 255
167 202 255
167 202 255
167 202 255
167 202 255
167 202 255
167 203 255
167 203 255
167 203 255
168 203 255
168 203 255
168 203 255
168 203 255
168 203 255
168 203 255
168 203 255
168 203 255
168 203 255
168 203 255
168 203 255
168 203 255
169 203 255
169 203 255
169 203 255
169 204 255
169 204 255
169 204 255
169 204 255
169 204 255
169 204 255
169 204 255
169 204 255
170 204 255
170 204 255
170 204 255
170 204 255
170 204 255
170 204 255
170 204 255
170 204 255
170 204 255
170 204 255
170 204 255
170 204 255
171 205 255
171 205 255
171 205 255
171 205 255
171 205 255
171 205 255
171 205 255
171 205 255
171 205 255
171 205 255
171 205 255
171 205 255
171 205 255
172 205 255
172 205 255
172 205 255
172 205 255
172 205 255
172 205 255
172 205 255
172 205 255
172 206 255
172 206 255
172 206 255
172 206 255
172 206 255
173 206 255
173 206 255
173 206 255
173 206 255
173 206 255
173 206 255
173 206 255
173 206 255
173 206 255
173 206 255
173 206 255
173 206 255
173 206 255
173 206 255
174 206 255
174 206 255
174 206 255
174 206 255
174 206 255
174 207 255
174 207 255
174 207 255
174 207 255
174 207 255
174 207 255
174 207 255
174 207 255
174 207 255
174 207 255
175 207 255
175 207 255
175 207 255
175 207 255
175 207 255
175 207 255
175 207 255
175 207 255
175 207 255
175 207 255
175 207 255
175 207 255
175 207 255
175 207 255
176 208 255
175 207 255
175 207 255
175 207 255
175 207 255
175 207 255
175 207 255
175 207 255
175 207 255
175 207 255
175 207 255
175 207 255
175 207 255
175 207 255
175 207 255
175 207 255
175 207 255
175 207 255
174 207 255
174 207 255
174 207 255
174 207 255
174 207 255
174 207 255
174 207 255
174 207 255
174 207 255
174 207 255
174 206 255
174 206 255
174 206 255
174 206 255
174 206 255
173 206 255
173 206 255
173 206 255
173 206 255
173 206 255
173 206 255
173 206 255
173 206 255
173 206 255
173 206 255
173 206 255
173 206 255
173 206 255
173 206 255
172 206 255
172 206 255
172 206 255
172 206 255
172 206 255
172 205 255
172 205 255
172 205 255
172 205 255
172 205 255
172 205 255
172 205 255
172 205 255
171 205 255
171 205 255
171 205 255
171 205 255
171 205 255
171 205 255
171 205 255
171 205 255
171 205 255
171 205 255
171 205 255
171 205 255
171 205 255
170 204 255
170 204 255
170 204 255
170 204 255
170 204 255
170 204 255
170 204 255
170 204 255
170 204 255
170 204 255
170 204 255
170 204 255
169 204 255
169 204 255
169 204 255
169 204 255
169 204 255
169 204 255
169 204 255
169 203 255
169 203 255
169 203 255
169 203 255
168 203 255
168 203 255
168 203 255
168 203 255
168 203 255
168 203 255
168 203 255
168 203 255
168 203 255
168 203 255
168 203 255
167 203 255
167 203 255
167 203 255
167 203 255
167 202 255
167 202 255
167 202 255
167 202 255
167 202 255
167 202 255
167 202 255
166 202 255
166 202 255
166 202 255
166 202 255
166 202 255
166 202 255
166 202 255
166 202 255
166 202 255
166 202 255
166 202 255
166 202 255
165 201 255
165 201 255
165 201 255
165 201 255
165 201 255
165 201 255
165 201 255
165 201 255
165 201 255
165 201 255
165 201 255
165 201 255
164 201 255
164 201 255
164 201 255
164 201 255
164 201 255
164 201 255
164 201 255
164 201 255
164 200 255
164 200 255
164 200 255
164 200 255
164 200 255
163 200 255
163 200 255
163 200 255
163 200 255
163 200 255
163 200 255
163 200 255
163 200 255
163 200 255
163 200 255
163 200 255
163 200 255
163 200 255
163 200 255
163 200 255
163 200 255
160 196 251
124 152 195
52 64 82
18 22 29
17 21 28
17 21 27
16 20 26
17 22 28
16 20 26
19 23 31
18 23 30
16 20 26
15 19 24
20 25 33
17 22 28
18 23 30
19 23 31
15 19 26
15 18 24
19 23 30
17 21 27
18 23 29
18 23 30
16 20 27
16 20 25
19 24 31
18 22 28
19 24 32
16 20 26
18 22 29
18 23 30
17 21 27
20 25 32
17 22 28
18 22 29
15 19 25
17 21 28
15 18 23
16 21 27
15 19 25
14 18 24
15 19 25
17 22 28
17 22 28
16 20 26
16 20 26
17 21 28
16 20 27
16 20 26
15 19 25
17 22 29
16 20 26
18 23 30
15 20 26
15 19 25
46 57 73
107 132 169
159 196 251
163 200 255
163 200 255
163 200 255
163 200 255
163 200 255
163 200 255
163 200 255
163 200 255
163 200 255
163 200 255
163 200 255
163 200 255
163 200 255
163 200 255
163 200 255
163 200 255
164 200 255
164 200 255
164 200 255
164 200 255
164 200 255
164 201 255
164 201 255
164 201 255
164 201 255
164 201 255
164 201 255
164 201 255
164 201 255
165 201 255
165 201 255
165 201 255
165 201 255
165 201 255
165 201 255
165 201 255
165 201 255
165 201 255
165 201 255
165 201 255
165 201 255
166 202 255
166 202 255
166 202 255
166 202 255
166 202 255
166 202 255
166 202 255
166 202 255
166 202 255
166 202 255
166 202 255
166 202 255
167 202 255
167 202 255
167 202 255
167 202 255
167 202 255
167 202 255
167 202 255
167 203 255
167 203 255
167 203 255
167 203 255
168 203 255
168 203 255
168 203 255
168 203 255
168 203 255
168 203 255
168 203 255
168 203 255
168 203 255
168 203 255
168 203 255
169 203 255
169 203 255
169 203 255
169 203 255
169 204 255
169 204 255
169 204 255
169 204 255
169 204 255
169 204 255
169 204 255
170 204 255
170 204 255
170 204 255
170 204 255
170 204 255
170 204 255
170 204 255
170 204 255
170 204 255
170 204 255
170 204 255
170 204 255
171 205 255
171 205 255
171 205 255
171 205 255
171 205 255
171 205 255
171 205 255
171 205 255
171 205 255
171 205 255
171 205 255
171 205 255
171 205 255
172 205 255
172 205 255
172 205 255
172 205 255
172 205 255
172 205 255
172 205 255
172 205 255
172 206 255
172 206 255
172 206 255
172 206 255
172 206 255
173 206 255
173 206 255
173 206 255
173 206 255
173 206 255
173 206 255
173 206 255
173 206 255
173 206 255
173 206 255
173 206 255
173 206 255
173 206 255
173 206 255
174 206 255
174 206 255
174 206 255
174 206 255
174 206 255
174 207 255
174 207 255
174 207 255
174 207 255
174 207 255
174 207 255
174 207 255
174 207 255
174 207 255
174 207 255
175 207 255
175 207 255
175 207 255
175 207 255
175 207 255
175 207 255
175 207 255
175 207 255
175 207 255
175 207 255
175 207 255
175 207 255
175 207 255
175 207 255
175 207 255
175 207 255
175 207 255
176 208 255
176 208 255
176 208 255
176 208 255
176 208 255
176 208 255
176 208 255
175 207 255
175 207 255
175 207 255
175 207 255
175 207 255
175 207 255
175 207 255
175 207 255
175 207 255
175 207 255
175 207 255
175 207 255
175 207 255
175 207 255
175 207 255
175 207 255
174 207 255
174 207 255
174 207 255
174 207 255
174 207 255
174 207 255
174 207 255
174 207 255
174 207 255
174 207 255
174 206 255
174 206 255
174 206 255
174 206 255
174 206 255
173 206 255
173 206 255
173 206 255
173 206 255
173 206 255
173 206 255
173 206 255
173 206 255
173 206 255
173 206 255
173 206 255
173 206 255
173 206 255
173 206 255
172 206 255
172 206 255
172 206 255
172 206 255
172 206 255
172 205 255
172 205 255
172 205 255
172 205 255
172 205 255
172 205 255
172 205 255
172 205 255
171 205 255
171 205 255
171 205 255
171 205 255
171 205 255
171 205 255
171 205 255
171 205 255
171 205 255
171 205 255
171 205 255
171 205 255
171 205 255
170 204 255
170 204 255
170 204 255
170 204 255
170 204 255
170 204 255
170 204 255
170 204 255
170 204 255
170 204 255
170 204 255
169 204 255
169 204 255
169 204 255
169 204 255
169 204 255
169 204 255
169 204 255
169 204 255
169 203 255
169 203 255
169 203 255
169 203 255
168 203 255
168 203 255
168 203 255
168 203 255
168 203 255
168 203 255
168 203 255
168 203 255
168 203 255
168 203 255
168 203 255
167 203 255
167 203 255
167 203 255
167 203 255
167 202 255
167 202 255
167 202 255
167 202 255
167 202 255
167 202 255
167 202 255
166 202 255
166 202 255
166 202 255
166 202 255
166 202 255
166 202 255
166 202 255
166 202 255
166 202 255
166 202 255
166 202 255
166 202 255
165 201 255
165 201 255
165 201 255
165 201 255
165 201 255
165 201 255
165 201 255
165 201 255
165 201 255
165 201 255
165 201 255
165 201 255
164 201 255
164 201 255
164 201 255
164 201 255
164 201 255
164 201 255
164 201 255
164 201 255
164 201 255
164 200 255
164 200 255
164 200 255
164 200 255
164 200 255
163 200 255
163 200 255
163 200 255
163 200 255
163 200 255
163 200 255
163 200 255
163 200 255
163 200 255
163 200 255
101 124 159
36 44 57
18 22 30
14 17 22
11 14 18
18 23 29
19 24 31
17 21 28
17 22 28
16 20 26
15 19 25
16 20 26
18 22 29
19 24 31
14 18 23
15 19 25
17 21 27
19 24 31
16 20 26
20 25 32
18 22 28
17 21 27
20 25 32
13 17 22
17 21 28
18 23 30
21 27 35
18 23 30
18 23 30
19 24 31
15 18 24
17 21 27
17 22 29
20 25 33
16 20 25
18 23 29
16 20 26
18 23 29
19 23 31
17 22 28
16 20 26
18 22 29
14 17 23
16 20 27
19 23 30
16 20 25
17 21 27
17 21 27
16 20 26
15 18 24
19 24 31
19 24 31
17 22 28
18 23 29
18 23 30
14 17 23
17 21 28
18 23 30
45 55 71
114 140 179
163 200 255
163 200 255
163 200 255
163 200 255
163 200 255
163 200 255
163 200 255
163 200 255
163 200 255
164 200 255
164 200 255
164 200 255
164 200 255
164 200 255
164 201 255
164 201 255
164 201 255
164 201 255
164 201 255
164 201 255
164 201 255
164 201 255
164 201 255
164 201 255
165 201 255
165 201 255
165 201 255
165 201 255
165 201 255
165 201 255
165 201 255
165 201 255
165 201 255
165 201 255
165 201 255
165 201 255
166 202 255
166 202 255
166 202 255
166 202 255
166 202 255
166 202 255
166 202 255
166 202 255
166 202 255
166 202 255
166 202 255
166 202 255
167 202 255
167 202 255
167 202 255
167 202 255
167 202 255
167 202 255
167 202 255
167 203 255
167 203 255
167 203 255
167 203 255
168 203 255
168 203 255
168 203 255
168 203 255
168 203 255
168 203 255
168 203 255
168 203 255
168 203 255
168 203 255
168 203 255
169 203 255
169 203 255
169 203 255
169 203 255
169 204 255
169 204 255
169 204 255
169 204 255
169 204 255
169 204 255
169 204 255
169 204 255
170 204 255
170 204 255
170 204 255
170 204 255
170 204 255
170 204 255
170 204 255
170 204 255
170 204 255
170 204 255
170 204 255
171 205 255
171 205 255
171 205 255
171 205 255
171 205 255
171 205 255
171 205 255
171 205 255
171 205 255
171 205 255
171 205 255
171 205 255
171 205 255
172 205 255
172 205 255
172 205 255
172 205 255
172 205 255
172 205 255
172 205 255
172 205 255
172 205 255
172 206 255
172 206 255
172 206 255
172 206 255
173 206 255
173 206 255
173 206 255
173 206 255
173 206 255
173 206 255
173 206 255
173 206 255
173 206 255
173 206 255
173 206 255
173 206 255
173 206 255
173 206 255
174 206 255
174 206 255
174 206 255
174 206 255
174 206 255
174 207 255
174 207 255
174 207 255
174 207 255
174 207 255
174 207 255
174 207 255
174 207 255
174 207 255
174 207 255
175 207 255
175 207 255
175 207 255
175 207 255
175 207 255
175 207 255
175 207 255
175 207 255
175 207 255
175 207 255
175 207 255
175 207 255
175 207 255
175 207 255
175 207 255
175 207 255
176 208 255
176 208 255
176 208 255
176 208 255
176 208 255
176 208 255
176 208 255
176 208 255
176 208 255
176 208 255
176 208 255
176 208 255
176 208 255
176 208 255
176 208 255
176 208 255
175 207 255
175 207 255
175 207 255
175 207 255
175 207 255
175 207 255
175 207 255
175 207 255
175 207 255
175 207 255
175 207 255
175 207 255
175 207 255
175 207 255
175 207 255
175 207 255
174 207 255
174 207 255
174 207 255
174 207 255
174 207 255
174 207 255
174 207 255
174 207 255
174 207 255
174 207 255
174 206 255
174 206 255
174 206 255
174 206 255
174 206 255
173 206 255
173 206 255
173 206 255
173 206 255
173 206 255
173 206 255
173 206 255
173 206 255
173 206 255
173 206 255
173 206 255
173 206 255
173 206 255
173 206 255
172 206 255
172 206 255
172 206 255
172 206 255
172 206 255
172 205 255
172 205 255
172 205 255
172 205 255
172 205 255
172 205 255
172 205 255
172 205 255
171 205 255
171 205 255
171 205 255
171 205 255
171 205 255
171 205 255
171 205 255
171 205 255
171 205 255
171 205 255
171 205 255
171 205 255
171 205 255
170 204 255
170 204 255
170 204 255
170 204 255
170 204 255
170 204 255
170 204 255
170 204 255
170 204 255
170 204 255
170 204 255
170 204 255
169 204 255
169 204 255
169 204 255
169 204 255
169 204 255
169 204 255
169 204 255
169 203 255
169 203 255
169 203 255
169 203 255
168 203 255
168 203 255
168 203 255
168 203 255
168 203 255
168 203 255
168 203 255
168 203 255
168 203 255
168 203 255
168 203 255
167 203 255
167 203 255
167 203 255
167 203 255
167 202 255
167 202 255
167 202 255
167 202 255
167 202 255
167 202 255
167 202 255
166 202 255
166 202 255
166 202 255
166 202 255
166 202 255
166 202 255
166 202 255
166 202 255
166 202 255
166 202 255
166 202 255
166 202 255
166 202 255
165 201 255
165 201 255
165 201 255
165 201 255
165 201 255
165 201 255
165 201 255
165 201 255
165 201 255
165 201 255
165 201 255
165 201 255
165 201 255
164 201 255
164 201 255
164 201 255
164 201 255
164 201 255
164 201 255
164 201 255
164 201 255
164 201 255
164 201 255
164 200 255
164 200 255
164 200 255
164 200 255
164 200 255
163 200 255
120 147 188
40 48 62
14 18 24
16 20 27
17 21 28
14 18 23
16 20 26
14 18 23
15 19 26
14 18 24
18 22 29
16 21 27
17 22 28
17 21 28
15 19 25
14 18 24
17 22 28
18 23 30
18 22 28
14 18 24
16 20 26
19 24 31
16 20 27
19 23 30
17 21 28
19 23 30
16 20 26
16 20 26
16 21 27
15 20 26
13 16 21
18 23 30
18 23 30
19 23 29
18 22 29
15 18 24
17 21 27
16 19 25
17 21 28
17 21 27
18 23 30
16 20 26
19 23 29
16 21 27
18 22 29
16 20 26
16 20 27
18 23 30
17 22 29
19 24 30
18 22 28
18 22 29
18 22 29
17 22 29
15 20 26
18 23 30
18 22 29
16 21 27
17 21 28
19 24 32
17 22 29
17 21 28
43 53 68
122 150 192
163 200 255
164 200 255
164 200 255
164 200 255
164 200 255
164 200 255
164 201 255
164 201 255
164 201 255
164 201 255
164 201 255
164 201 255
164 201 255
164 201 255
164 201 255
164 201 255
165 201 255
165 201 255
165 201 255
165 201 255
165 201 255
165 201 255
165 201 255
165 201 255
165 201 255
165 201 255
165 201 255
165 201 255
165 201 255
165 201 255
166 202 255
166 202 255
166 202 255
166 202 255
166 202 255
166 202 255
166 202 255
166 202 255
166 202 255
166 202 255
166 202 255
167 202 255
167 202 255
167 202 255
167 202 255
167 202 255
167 202 255
167 202 255
167 202 255
167 203 255
167 203 255
167 203 255
167 203 255
168 203 255
168 203 255
168 203 255
168 203 255
168 203 255
168 203 255
168 203 255
168 203 255
168 203 255
168 203 255
168 203 255
169 203 255
169 203 255
169 203 255
169 203 255
169 204 255
169 204 255
169 204 255
169 204 255
169 204 255
169 204 255
169 204 255
169 204 255
170 204 255
170 204 255
170 204 255
170 204 255
170 204 255
170 204 255
170 204 255
170 204 255
170 204 255
170 204 255
170 204 255
171 205 255
171 205 255
171 205 255
171 205 255
171 205 255
171 205 255
171 205 255
171 205 255
171 205 255
171 205 255
171 205 255
171 205 255
171 205 255
172 205 255
172 205 255
172 205 255
172 205 255
172 205 255
172 205 255
172 205 255
172 205 255
172 206 255
172 206 255
172 206 255
172 206 255
172 206 255
173 206 255
173 206 255
173 206 255
173 206 255
173 206 255
173 206 255
173 206 255
173 206 255
173 206 255
173 206 255
173 206 255
173 206 255
173 206 255
173 206 255
174 206 255
174 206 255
174 206 255
174 206 255
174 207 255
174 207 255
174 207 255
174 207 255
174 207 255
174 207 255
174 207 255
174 207 255
174 207 255
174 207 255
174 207 255
175 207 255
175 207 255
175 207 255
175 207 255
175 207 255
175 207 255
175 207 255
175 207 255
175 207 255
175 207 255
175 207 255
175 207 255
175 207 255
175 207 255
175 207 255
175 207 255
176 208 255
176 208 255
176 208 255
176 208 255
176 208 255
176 208 255
176 208 255
176 208 255
176 208 255
176 208 255
176 208 255
176 208 255
176 208 255
176 208 255
176 208 255
176 208 255
176 208 255
176 208 255
176 208 255
176 208 255
176 208 255
176 208 255
176 208 255
176 208 255
176 208 255
175 207 255
175 207 255
175 207 255
175 207 255
175 207 255
175 207 255
175 207 255
175 207 255
175 207 255
175 207 255
175 207 255
175 207 255
175 207 255
175 207 255
175 207 255
175 207 255
174 207 255
174 207 255
174 207 255
174 207 255
174 207 255
174 207 255
174 207 255
174 207 255
174 207 255
174 206 255
174 206 255
174 206 255
174 206 255
174 206 255
174 206 255
173 206 255
173 206 255
173 206 255
173 206 255
173 206 255
173 206 255
173 206 255
173 206 255
173 206 255
173 206 255
173 206 255
173 206 255
173 206 255
172 206 255
172 206 255
172 206 255
172 206 255
172 206 255
172 205 255
172 205 255
172 205 255
172 205 255
172 205 255
172 205 255
172 205 255
172 205 255
171 205 255
171 205 255
171 205 255
171 205 255
171 205 255
171 205 255
171 205 255
171 205 255
171 205 255
171 205 255
171 205 255
171 205 255
171 205 255
170 204 255
170 204 255
170 204 255
170 204 255
170 204 255
170 204 255
170 204 255
170 204 255
170 204 255
170 204 255
170 204 255
169 204 255
169 204 255
169 204 255
169 204 255
169 204 255
169 204 255
169 204 255
169 204 255
169 203 255
169 203 255
169 203 255
169 203 255
168 203 255
168 203 255
168 203 255
168 203 255
168 203 255
168 203 255
168 203 255
168 203 255
168 203 255
168 203 255
168 203 255
167 203 255
167 203 255
167 203 255
167 203 255
167 202 255
167 202 255
167 202 255
167 202 255
167 202 255
167 202 255
167 202 255
167 202 255
166 202 255
166 202 255
166 202 255
166 202 255
166 202 255
166 202 255
166 202 255
166 202 255
166 202 255
166 202 255
166 202 255
166 202 255
165 201 255
165 201 255
165 201 255
165 201 255
165 201 255
165 201 255
165 201 255
165 201 255
165 201 255
165 201 255
165 201 255
165 201 255
165 201 255
165 201 255
164 201 255
164 201 255
164 201 255
164 201 255
164 201 255
164 201 255
164 201 255
164 201 255
164 201 255
141 173 220
59 73 93
15 19 25
16 20 26
17 21 27
17 21 28
16 20 27
15 19 25
16 21 28
15 19 25
16 21 27
17 21 27
17 21 28
18 22 28
17 21 28
16 21 28
18 22 28
20 25 32
19 24 31
19 24 32
17 21 27
18 23 30
16 20 26
13 17 22
18 22 29
18 22 29
17 21 27
16 20 26
18 23 30
18 23 30
18 22 28
16 19 25
18 23 30
17 22 29
16 20 26
17 22 28
17 22 28
15 19 25
16 20 27
14 18 24
17 21 27
18 22 29
18 23 29
16 21 27
17 21 27
16 20 26
16 20 27
18 22 28
19 24 30
16 20 25
21 27 35
17 21 28
18 22 29
18 23 30
15 19 25
18 23 30
18 23 30
18 23 30
15 18 24
17 21 27
15 19 25
17 22 28
18 22 29
16 21 27
19 24 31
18 23 29
50 62 80
133 162 207
164 201 255
164 201 255
164 201 255
164 201 255
164 201 255
164 201 255
164 201 255
164 201 255
164 201 255
165 201 255
165 201 255
165 201 255
165 201 255
165 201 255
165 201 255
165 201 255
165 201 255
165 201 255
165 201 255
165 201 255
165 201 255
165 201 255
165 201 255
166 202 255
166 202 255
166 202 255
166 202 255
166 202 255
166 202 255
166 202 255
166 202 255
166 202 255
166 202 255
166 202 255
166 202 255
167 202 255
167 202 255
167 202 255
167 202 255
167 202 255
167 202 255
167 202 255
167 202 255
167 203 255
167 203 255
167 203 255
167 203 255
168 203 255
168 203 255
168 203 255
168 203 255
168 203 255
168 203 255
168 203 255
168 203 255
168 203 255
168 203 255
168 203 255
169 203 255
169 203 255
169 203 255
169 203 255
169 204 255
169 204 255
169 204 255
169 204 255
169 204 255
169 204 255
169 204 255
169 204 255
170 204 255
170 204 255
170 204 255
170 204 255
170 204 255
170 204 255
170 204 255
170 204 255
170 204 255
170 204 255
170 204 255
171 205 255
171 205 255
171 205 255
171 205 255
171 205 255
171 205 255
171 205 255
171 205 255
171 205 255
171 205 255
171 205 255
171 205 255
171 205 255
172 205 255
172 205 255
172 205 255
172 205 255
172 205 255
172 205 255
172 205 255
172 205 255
172 206 255
172 206 255
172 206 255
172 206 255
172 206 255
173 206 255
173 206 255
173 206 255
173 206 255
173 206 255
173 206 255
173 206 255
173 206 255
173 206 255
173 206 255
173 206 255
173 206 255
173 206 255
174 206 255
174 206 255
174 206 255
174 206 255
174 206 255
174 207 255
174 207 255
174 207 255
174 207 255
174 207 255
174 207 255
174 207 255
174 207 255
174 207 255
174 207 255
175 207 255
175 207 255
175 207 255
175 207 255
175 207 255
175 207 255
175 207 255
175 207 255
175 207 255
175 207 255
175 207 255
175 207 255
175 207 255
175 207 255
175 207 255
175 207 255
176 208 255
176 208 255
176 208 255
176 208 255
176 208 255
176 208 255
176 208 255
176 208 255
176 208 255
176 208 255
176 208 255
176 208 255
176 208 255
176 208 255
176 208 255
177 208 255
177 208 255
176 208 255
176 208 255
176 208 255
176 208 255
176 208 255
176 208 255
176 208 255
176 208 255
176 208 255
176 208 255
176 208 255
176 208 255
176 208 255
176 208 255
176 208 255
176 208 255
176 208 255
175 207 255
175 207 255
175 207 255
175 207 255
175 207 255
175 207 255
175 207 255
175 207 255
175 207 255
175 207 255
175 207 255
175 207 255
175 207 255
175 207 255
175 207 255
175 207 255
174 207 255
174 207 255
174 207 255
174 207 255
174 207 255
174 207 255
174 207 255
174 207 255
174 207 255
174 207 255
174 206 255
174 206 255
174 206 255
174 206 255
174 206 255
173 206 255
173 206 255
173 206 255
173 206 255
173 206 255
173 206 255
173 206 255
173 206 255
173 206 255
173 206 255
173 206 255
173 206 255
173 206 255
172 206 255
172 206 255
172 206 255
172 206 255
172 206 255
172 205 255
172 205 255
172 205 255
172 205 255
172 205 255
172 205 255
172 205 255
172 205 255
171 205 255
171 205 255
171 205 255
171 205 255
171 205 255
171 205 255
171 205 255
171 205 255
171 205 255
171 205 255
171 205 255
171 205 255
170 204 255
170 204 255
170 204 255
170 204 255
170 204 255
170 204 255
170 204 255
170 204 255
170 204 255
170 204 255
170 204 255
170 204 255
169 204 255
169 204 255
169 204 255
169 204 255
169 204 255
169 204 255
169 204 255
169 204 255
169 203 255
169 203 255
169 203 255
169 203 255
168 203 255
168 203 255
168 203 255
168 203 255
168 203 255
168 203 255
168 203 255
168 203 255
168 203 255
168 203 255
168 203 255
168 203 255
167 203 255
167 203 255
167 203 255
167 203 255
167 202 255
167 202 255
167 202 255
167 202 255
167 202 255
167 202 255
167 202 255
167 202 255
166 202 255
166 202 255
166 202 255
166 202 255
166 202 255
166 202 255
166 202 255
166 202 255
166 202 255
166 202 255
166 202 255
166 202 255
166 202 255
165 201 255
165 201 255
165 201 255
165 201 255
165 201 255
165 201 255
165 201 255
165 201 255
165 201 255
165 201 255
165 201 255
165 201 255
165 201 255
165 201 255
165 201 255
157 192 244
94 115 147
22 27 35
17 22 29
16 20 26
19 23 30
17 22 28
17 21 27
16 21 27
16 20 26
14 18 23
16 20 26
13 16 21
15 19 25
17 21 27
18 22 29
17 21 27
16 20 26
15 19 25
16 20 26
15 19 25
18 23 29
14 18 24
15 19 24
18 23 30
16 20 26
16 20 26
17 21 27
15 20 26
17 22 28
15 18 24
18 22 28
19 23 30
17 21 27
15 19 24
16 21 27
17 21 27
14 19 25
16 20 26
17 21 27
15 18 24
20 25 33
20 25 32
18 22 29
15 19 25
15 19 26
16 20 26
15 19 24
17 21 27
15 19 25
19 23 30
16 20 26
16 20 25
18 23 29
15 18 23
17 21 28
18 22 28
17 21 27
18 23 30
17 21 27
16 20 26
17 21 27
18 22 29
17 21 27
14 17 23
19 24 31
17 22 28
17 22 28
15 19 24
21 26 33
81 99 126
154 188 239
165 201 255
165 201 255
165 201 255
165 201 255
165 201 255
165 201 255
165 201 255
165 201 255
165 201 255
165 201 255
165 201 255
165 201 255
165 201 255
165 201 255
165 201 255
165 201 255
166 202 255
166 202 255
166 202 255
166 202 255
166 202 255
166 202 255
166 202 255
166 202 255
166 202 255
166 202 255
166 202 255
166 202 255
167 202 255
167 202 255
167 202 255
167 202 255
167 202 255
167 202 255
167 202 255
167 202 255
167 203 255
167 203 255
167 203 255
167 203 255
168 203 255
168 203 255
168 203 255
168 203 255
168 203 255
168 203 255
168 203 255
168 203 255
168 203 255
168 203 255
168 203 255
168 203 255
169 203 255
169 203 255
169 203 255
169 203 255
169 204 255
169 204 255
169 204 255
169 204 255
169 204 255
169 204 255
169 204 255
169 204 255
170 204 255
170 204 255
170 204 255
170 204 255
170 204 255
170 204 255
170 204 255
170 204 255
170 204 255
170 204 255
170 204 255
170 204 255
171 205 255
171 205 255
171 205 255
171 205 255
171 205 255
171 205 255
171 205 255
171 205 255
171 205 255
171 205 255
171 205 255
171 205 255
172 205 255
172 205 255
172 205 255
172 205 255
172 205 255
172 205 255
172 205 255
172 205 255
172 206 255
172 206 255
172 206 255
172 206 255
173 206 255
173 206 255
173 206 255
173 206 255
173 206 255
173 206 255
173 206 255
173 206 255
173 206 255
173 206 255
173 206 255
173 206 255
173 206 255
173 206 255
174 206 255
174 206 255
174 206 255
174 206 255
174 206 255
174 207 255
174 207 255
174 207 255
174 207 255
174 207 255
174 207 255
174 207 255
174 207 255
174 207 255
174 207 255
175 207 255
175 207 255
175 207 255
175 207 255
175 207 255
175 207 255
175 207 255
175 207 255
175 207 255
175 207 255
175 207 255
175 207 255
175 207 255
175 207 255
175 207 255
175 207 255
176 208 255
176 208 255
176 208 255
176 208 255
176 208 255
176 208 255
176 208 255
176 208 255
176 208 255
176 208 255
176 208 255
176 208 255
176 208 255
176 208 255
176 208 255
176 208 255
176 208 255
177 208 255
177 208 255
177 208 255
177 208 255
177 208 255
177 208 255
177 208 255
177 208 255
176 208 255
176 208 255
176 208 255
176 208 255
176 208 255
176 208 255
176 208 255
176 208 255
176 208 255
176 208 255
176 208 255
176 208 255
176 208 255
176 208 255
176 208 255
176 208 255
176 208 255
176 208 255
175 207 255
175 207 255
175 207 255
175 207 255
175 207 255
175 207 255
175 207 255
175 207 255
175 207 255
175 207 255
175 207 255
175 207 255
175 207 255
175 207 255
175 207 255
175 207 255
174 207 255
174 207 255
174 207 255
174 207 255
174 207 255
174 207 255
174 207 255
174 207 255
174 207 255
174 206 255
174 206 255
174 206 255
174 206 255
174 206 255
173 206 255
173 206 255
173 206 255
173 206 255
173 206 255
173 206 255
173 206 255
173 206 255
173 206 255
173 206 255
173 206 255
173 206 255
173 206 255
173 206 255
172 206 255
172 206 255
172 206 255
172 206 255
172 205 255
172 205 255
172 205 255
172 205 255
172 205 255
172 205 255
172 205 255
172 205 255
172 205 255
171 205 255
171 205 255
171 205 255
171 205 255
171 205 255
171 205 255
171 205 255
171 205 255
171 205 255
171 205 255
171 205 255
171 205 255
170 204 255
170 204 255
170 204 255
170 204 255
170 204 255
170 204 255
170 204 255
170 204 255
170 204 255
170 204 255
170 204 255
170 204 255
169 204 255
169 204 255
169 204 255
169 204 255
169 204 255
169 204 255
169 204 255
169 203 255
169 203 255
169 203 255
169 203 255
168 203 255
168 203 255
168 203 255
168 203 255
168 203 255
168 203 255
168 203 255
168 203 255
168 203 255
168 203 255
168 203 255
168 203 255
167 203 255
167 203 255
167 203 255
167 203 255
167 202 255
167 202 255
167 202 255
167 202 255
167 202 255
167 202 255
167 202 255
167 202 255
166 202 255
166 202 255
166 202 255
166 202 255
166 202 255
166 202 255
166 202 255
166 202 255
166 202 255
166 202 255
166 202 255
166 202 255
166 202 255
166 202 255
165 201 255
165 201 255
165 201 255
165 201 255
165 201 255
165 201 255
165 201 255
165 201 255
165 201 255
133 163 207
30 36 46
17 21 27
18 23 30
16 20 26
16 20 26
16 20 26
15 19 24
16 19 25
18 23 30
18 23 29
13 16 22
14 18 23
17 22 28
16 20 26
16 20 26
17 21 28
16 21 27
20 25 32
19 23 30
17 22 28
15 19 25
18 22 29
14 17 23
17 21 27
16 20 26
15 19 26
18 23 29
18 23 29
17 22 28
17 21 28
15 19 25
16 20 25
16 20 26
15 18 24
19 23 30
15 19 24
16 21 27
16 20 26
15 19 25
15 19 25
17 21 28
16 20 27
16 20 26
15 18 23
15 19 25
17 21 27
17 22 28
13 17 23
15 19 25
14 18 24
15 19 24
16 21 27
14 17 23
11 13 18
16 19 25
16 20 26
17 21 27
16 21 27
15 19 24
17 21 27
15 19 24
15 18 23
17 21 27
15 19 24
15 19 25
17 21 27
17 21 27
17 21 28
16 19 25
18 23 29
19 24 31
38 47 59
137 168 213
165 201 255
165 201 255
165 201 255
165 201 255
165 201 255
165 201 255
165 201 255
165 201 255
165 201 255
166 202 255
166 202 255
166 202 255
166 202 255
166 202 255
166 202 255
166 202 255
166 202 255
166 202 255
166 202 255
166 202 255
166 202 255
166 202 255
167 202 255
167 202 255
167 202 255
167 202 255
167 202 255
167 202 255
167 202 255
167 202 255
167 202 255
167 203 255
167 203 255
167 203 255
167 203 255
168 203 255
168 203 255
168 203 255
168 203 255
168 203 255
168 203 255
168 203 255
168 203 255
168 203 255
168 203 255
168 203 255
168 203 255
169 203 255
169 203 255
169 203 255
169 203 255
169 204 255
169 204 255
169 204 255
169 204 255
169 204 255
169 204 255
169 204 255
170 204 255
170 204 255
170 204 255
170 204 255
170 204 255
170 204 255
170 204 255
170 204 255
170 204 255
170 204 255
170 204 255
170 204 255
171 205 255
171 205 255
171 205 255
171 205 255
171 205 255
171 205 255
171 205 255
171 205 255
171 205 255
171 205 255
171 205 255
171 205 255
172 205 255
172 205 255
172 205 255
172 205 255
172 205 255
172 205 255
172 205 255
172 205 255
172 205 255
172 206 255
172 206 255
172 206 255
172 206 255
173 206 255
173 206 255
173 206 255
173 206 255
173 206 255
173 206 255
173 206 255
173 206 255
173 206 255
173 206 255
173 206 255
173 206 255
173 206 255
173 206 255
174 206 255
174 206 255
174 206 255
174 206 255
174 206 255
174 207 255
174 207 255
174 207 255
174 207 255
174 207 255
174 207 255
174 207 255
174 207 255
174 207 255
175 207 255
175 207 255
175 207 255
175 207 255
175 207 255
175 207 255
175 207 255
175 207 255
175 207 255
175 207 255
175 207 255
175 207 255
175 207 255
175 207 255
175 207 255
175 207 255
176 208 255
176 208 255
176 208 255
176 208 255
176 208 255
176 208 255
176 208 255
176 208 255
176 208 255
176 208 255
176 208 255
176 208 255
176 208 255
176 208 255
176 208 255
176 208 255
176 208 255
176 208 255
177 208 255
177 208 255
177 208 255
177 208 255
177 208 255
177 208 255
177 208 255
177 208 255
177 208 255
177 208 255
177 208 255
177 208 255
177 208 255
177 208 255
177 208 255
177 208 255
177 208 255
176 208 255
176 208 255
176 208 255
176 208 255
176 208 255
176 208 255
176 208 255
176 208 255
176 208 255
176 208 255
176 208 255
176 208 255
176 208 255
176 208 255
176 208 255
176 208 255
176 208 255
175 207 255
175 207 255
175 207 255
175 207 255
175 207 255
175 207 255
175 207 255
175 207 255
175 207 255
175 207 255
175 207 255
175 207 255
175 207 255
175 207 255
175 207 255
175 207 255
174 207 255
174 207 255
174 207 255
174 207 255
174 207 255
174 207 255
174 207 255
174 207 255
174 207 255
174 207 255
174 206 255
174 206 255
174 206 255
174 206 255
174 206 255
173 206 255
173 206 255
173 206 255
173 206 255
173 206 255
173 206 255
173 206 255
173 206 255
173 206 255
173 206 255
173 206 255
173 206 255
173 206 255
172 206 255
172 206 255
172 206 255
172 206 255
172 205 255
172 205 255
172 205 255
172 205 255
172 205 255
172 205 255
172 205 255
172 205 255
172 205 255
171 205 255
171 205 255
171 205 255
171 205 255
171 205 255
171 205 255
171 205 255
171 205 255
171 205 255
171 205 255
171 205 255
171 205 255
170 204 255
170 204 255
170 204 255
170 204 255
170 204 255
170 204 255
170 204 255
170 204 255
170 204 255
170 204 255
170 204 255
170 204 255
169 204 255
169 204 255
169 204 255
169 204 255
169 204 255
169 204 255
169 204 255
169 204 255
169 203 255
169 203 255
169 203 255
169 203 255
168 203 255
168 203 255
168 203 255
168 203 255
168 203 255
168 203 255
168 203 255
168 203 255
168 203 255
168 203 255
168 203 255
168 203 255
167 203 255
167 203 255
167 203 255
167 203 255
167 202 255
167 202 255
167 202 255
167 202 255
167 202 255
167 202 255
167 202 255
167 202 255
167 202 255
166 202 255
166 202 255
166 202 255
166 202 255
166 202 255
166 202 255
166 202 255
166 202 255
166 202 255
166 202 255
166 202 255
166 202 255
166 202 255
166 202 255
165 201 255
165 201 255
77 95 120
23 28 36
13 16 21
16 20 26
19 25 33
17 22 28
16 20 26
17 21 27
14 17 23
15 19 24
18 22 28
15 19 24
14 18 23
14 18 23
16 20 27
18 22 29
18 22 29
18 22 28
15 19 24
18 22 29
19 23 29
15 19 25
16 20 26
17 22 29
15 19 24
16 20 26
15 19 24
16 20 26
16 20 26
19 23 31
16 20 26
17 21 27
17 21 28
16 20 26
16 20 26
16 20 26
19 24 30
17 21 27
13 17 22
16 20 26
16 20 26
14 17 22
15 20 26
15 19 25
17 21 27
17 22 29
19 23 30
19 24 31
16 21 28
17 21 27
18 22 28
17 21 27
20 24 31
16 20 26
13 16 21
15 19 24
15 20 26
18 23 30
17 22 28
17 21 27
15 19 25
14 18 23
15 19 25
18 22 29
17 21 28
17 22 28
15 19 24
16 20 26
16 20 26
15 19 25
15 19 25
16 19 25
18 22 29
16 20 26
20 25 32
71 87 111
163 198 251
166 202 255
166 202 255
166 202 255
166 202 255
166 202 255
166 202 255
166 202 255
166 202 255
166 202 255
166 202 255
166 202 255
166 202 255
166 202 255
166 202 255
166 202 255
167 202 255
167 202 255
167 202 255
167 202 255
167 202 255
167 202 255
167 202 255
167 202 255
167 202 255
167 203 255
167 203 255
167 203 255
167 203 255
168 203 255
168 203 255
168 203 255
168 203 255
168 203 255
168 203 255
168 203 255
168 203 255
168 203 255
168 203 255
168 203 255
168 203 255
169 203 255
169 203 255
169 203 255
169 203 255
169 204 255
169 204 255
169 204 255
169 204 255
169 204 255
169 204 255
169 204 255
169 204 255
170 204 255
170 204 255
170 204 255
170 204 255
170 204 255
170 204 255
170 204 255
170 204 255
170 204 255
170 204 255
170 204 255
170 204 255
171 205 255
171 205 255
171 205 255
171 205 255
171 205 255
171 205 255
171 205 255
171 205 255
171 205 255
171 205 255
171 205 255
171 205 255
172 205 255
172 205 255
172 205 255
172 205 255
172 205 255
172 205 255
172 205 255
172 205 255
172 205 255
172 206 255
172 206 255
172 206 255
172 206 255
173 206 255
173 206 255
173 206 255
173 206 255
173 206 255
173 206 255
173 206 255
173 206 255
173 206 255
173 206 255
173 206 255
173 206 255
173 206 255
173 206 255
174 206 255
174 206 255
174 206 255
174 206 255
174 207 255
174 207 255
174 207 255
174 207 255
174 207 255
174 207 255
174 207 255
174 207 255
174 207 255
174 207 255
175 207 255
175 207 255
175 207 255
175 207 255
175 207 255
175 207 255
175 207 255
175 207 255
175 207 255
175 207 255
175 207 255
175 207 255
175 207 255
175 207 255
175 207 255
175 207 255
176 208 255
176 208 255
176 208 255
176 208 255
176 208 255
176 208 255
176 208 255
176 208 255
176 208 255
176 208 255
176 208 255
176 208 255
176 208 255
176 208 255
176 208 255
176 208 255
176 208 255
177 208 255
177 208 255
177 208 255
177 208 255
177 208 255
177 208 255
177 208 255
177 208 255
177 208 255
177 208 255
177 208 255
177 209 255
177 209 255
177 209 255
177 208 255
177 208 255
177 208 255
177 208 255
177 208 255
177 208 255
177 208 255
177 208 255
177 208 255
177 208 255
177 208 255
177 208 255
177 208 255
176 208 255
176 208 255
176 208 255
176 208 255
176 208 255
176 208 255
176 208 255
176 208 255
176 208 255
176 208 255
176 208 255
176 208 255
176 208 255
176 208 255
176 208 255
176 208 255
176 208 255
175 207 255
175 207 255
175 207 255
175 207 255
175 207 255
175 207 255
175 207 255
175 207 255
175 207 255
175 207 255
175 207 255
175 207 255
175 207 255
175 207 255
175 207 255
175 207 255
174 207 255
174 207 255
174 207 255
174 207 255
174 207 255
174 207 255
174 207 255
174 207 255
174 207 255
174 206 255
174 206 255
174 206 255
174 206 255
174 206 255
173 206 255
173 206 255
173 206 255
173 206 255
173 206 255
173 206 255
173 206 255
173 206 255
173 206 255
173 206 255
173 206 255
173 206 255
173 206 255
172 206 255
172 206 255
172 206 255
172 206 255
172 206 255
172 205 255
172 205 255
172 205 255
172 205 255
172 205 255
172 205 255
172 205 255
172 205 255
171 205 255
171 205 255
171 205 255
171 205 255
171 205 255
171 205 255
171 205 255
171 205 255
171 205 255
171 205 255
171 205 255
171 205 255
170 204 255
170 204 255
170 204 255
170 204 255
170 204 255
170 204 255
170 204 255
170 204 255
170 204 255
170 204 255
170 204 255
170 204 255
169 204 255
169 204 255
169 204 255
169 204 255
169 204 255
169 204 255
169 204 255
169 204 255
169 203 255
169 203 255
169 203 255
169 203 255
169 203 255
168 203 255
168 203 255
168 203 255
168 203 255
168 203 255
168 203 255
168 203 255
168 203 255
168 203 255
168 203 255
168 203 255
168 203 255
167 203 255
167 203 255
167 203 255
167 203 255
167 202 255
167 202 255
167 202 255
167 202 255
167 202 255
167 202 255
167 202 255
167 202 255
167 202 255
166 202 255
166 202 255
166 202 255
166 202 255
166 202 255
166 202 255
166 202 255
166 202 255
166 202 255
146 177 225
45 55 70
16 20 25
15 19 24
15 19 24
17 21 27
16 20 26
12 15 19
18 23 30
15 19 25
16 21 27
18 23 29
14 18 23
16 20 25
15 19 24
17 21 27
13 16 21
16 20 26
16 20 26
16 20 26
18 22 28
16 20 27
17 22 28
18 22 29
16 20 26
15 19 24
17 21 28
17 21 28
16 20 26
14 18 23
15 18 24
17 21 28
17 21 27
15 18 24
17 21 27
15 19 25
13 17 22
18 22 29
16 20 26
17 21 28
16 20 26
17 21 28
15 19 25
18 23 30
15 18 24
15 19 24
15 19 25
16 19 25
15 19 24
17 22 29
15 19 25
16 20 25
14 18 23
15 19 24
17 21 28
16 20 27
16 20 26
17 22 28
17 21 28
17 21 27
16 20 26
16 20 26
15 18 24
16 21 27
11 14 19
16 19 25
17 22 29
20 25 32
16 20 26
12 16 20
15 18 24
15 19 25
16 20 27
12 15 20
13 17 22
12 16 21
18 22 28
15 19 24
49 60 76
149 182 230
166 202 255
166 202 255
166 202 255
166 202 255
166 202 255
166 202 255
166 202 255
166 202 255
166 202 255
167 202 255
167 202 255
167 202 255
167 202 255
167 202 255
167 202 255
167 202 255
167 202 255
167 202 255
167 203 255
167 203 255
167 203 255
167 203 255
168 203 255
168 203 255
168 203 255
168 203 255
168 203 255
168 203 255
168 203 255
168 203 255
168 203 255
168 203 255
168 203 255
168 203 255
168 203 255
169 203 255
169 203 255
169 203 255
169 203 255
169 204 255
169 204 255
169 204 255
169 204 255
169 204 255
169 204 255
169 204 255
169 204 255
170 204 255
170 204 255
170 204 255
170 204 255
170 204 255
170 204 255
170 204 255
170 204 255
170 204 255
170 204 255
170 204 255
170 204 255
171 205 255
171 205 255
171 205 255
171 205 255
171 205 255
171 205 255
171 205 255
171 205 255
171 205 255
171 205 255
171 205 255
171 205 255
172 205 255
172 205 255
172 205 255
172 205 255
172 205 255
172 205 255
172 205 255
172 205 255
172 206 255
172 206 255
172 206 255
172 206 255
172 206 255
173 206 255
173 206 255
173 206 255
173 206 255
173 206 255
173 206 255
173 206 255
173 206 255
173 206 255
173 206 255
173 206 255
173 206 255
173 206 255
174 206 255
174 206 255
174 206 255
174 206 255
174 206 255
174 207 255
174 207 255
174 207 255
174 207 255
174 207 255
174 207 255
174 207 255
174 207 255
174 207 255
175 207 255
175 207 255
175 207 255
175 207 255
175 207 255
175 207 255
175 207 255
175 207 255
175 207 255
175 207 255
175 207 255
175 207 255
175 207 255
175 207 255
175 207 255
175 207 255
176 208 255
176 208 255
176 208 255
176 208 255
176 208 255
176 208 255
176 208 255
176 208 255
176 208 255
176 208 255
176 208 255
176 208 255
176 208 255
176 208 255
176 208 255
176 208 255
176 208 255
177 208 255
177 208 255
177 208 255
177 208 255
177 208 255
177 208 255
177 208 255
177 208 255
177 208 255
177 208 255
177 208 255
177 208 255
177 209 255
177 209 255
177 209 255
177 209 255
178 209 255
178 209 255
177 209 255
177 209 255
177 209 255
177 209 255
177 209 255
177 209 255
177 209 255
177 208 255
177 208 255
177 208 255
177 208 255
177 208 255
177 208 255
177 208 255
177 208 255
177 208 255
177 208 255
177 208 255
177 208 255
176 208 255
176 208 255
176 208 255
176 208 255
176 208 255
176 208 255
176 208 255
176 208 255
176 208 255
176 208 255
176 208 255
176 208 255
176 208 255
176 208 255
176 208 255
176 208 255
175 207 255
175 207 255
175 207 255
175 207 255
175 207 255
175 207 255
175 207 255
175 207 255
175 207 255
175 207 255
175 207 255
175 207 255
175 207 255
175 207 255
175 207 255
175 207 255
174 207 255
174 207 255
174 207 255
174 207 255
174 207 255
174 207 255
174 207 255
174 207 255
174 207 255
174 206 255
174 206 255
174 206 255
174 206 255
174 206 255
173 206 255
173 206 255
173 206 255
173 206 255
173 206 255
173 206 255
173 206 255
173 206 255
173 206 255
173 206 255
173 206 255
173 206 255
173 206 255
172 206 255
172 206 255
172 206 255
172 206 255
172 206 255
172 205 255
172 205 255
172 205 255
172 205 255
172 205 255
172 205 255
172 205 255
172 205 255
171 205 255
171 205 255
171 205 255
171 205 255
171 205 255
171 205 255
171 205 255
171 205 255
171 205 255
171 205 255
171 205 255
171 205 255
171 205 255
170 204 255
170 204 255
170 204 255
170 204 255
170 204 255
170 204 255
170 204 255
170 204 255
170 204 255
170 204 255
170 204 255
170 204 255
169 204 255
169 204 255
169 204 255
169 204 255
169 204 255
169 204 255
169 204 255
169 204 255
169 203 255
169 203 255
169 203 255
169 203 255
168 203 255
168 203 255
168 203 255
168 203 255
168 203 255
168 203 255
168 203 255
168 203 255
168 203 255
168 203 255
168 203 255
168 203 255
168 203 255
167 203 255
167 203 255
167 203 255
167 203 255
167 203 255
167 202 255
167 202 255
167 202 255
167 202 255
167 202 255
167 202 255
167 202 255
167 202 255
167 202 255
167 202 255
166 202 255
120 146 185
33 41 52
17 21 28
16 19 25
15 18 24
16 20 26
16 21 27
16 20 26
15 18 24
16 20 26
17 21 26
14 17 23
16 20 26
17 21 28
14 18 23
15 18 24
14 18 23
19 24 31
15 19 25
17 21 27
16 19 25
15 18 23
15 19 24
14 18 23
18 23 30
16 20 26
18 22 29
15 19 25
16 20 26
18 23 29
17 22 29
15 20 26
13 16 21
18 22 29
17 21 27
16 20 26
15 18 24
18 23 30
14 17 22
14 18 23
17 21 28
15 20 26
16 20 25
17 21 28
16 20 26
15 19 25
16 20 26
17 21 28
18 22 29
17 22 28
16 20 26
17 21 28
15 19 25
17 20 26
16 21 27
15 18 24
15 19 25
14 18 24
18 23 30
13 17 22
15 19 25
15 19 25
17 21 27
15 19 25
18 23 31
15 19 25
15 19 25
14 18 23
17 21 27
15 19 25
16 20 26
16 20 27
18 22 29
18 22 29
18 22 28
17 21 28
14 17 23
16 20 26
15 19 24
15 19 25
29 35 45
130 158 200
166 202 255
167 202 255
167 202 255
167 202 255
167 202 255
167 202 255
167 202 255
167 202 255
167 202 255
167 202 255
167 202 255
167 203 255
167 203 255
167 203 255
167 203 255
167 203 255
168 203 255
168 203 255
168 203 255
168 203 255
168 203 255
168 203 255
168 203 255
168 203 255
168 203 255
168 203 255
168 203 255
168 203 255
168 203 255
169 203 255
169 203 255
169 203 255
169 203 255
169 204 255
169 204 255
169 204 255
169 204 255
169 204 255
169 204 255
169 204 255
169 204 255
170 204 255
170 204 255
170 204 255
170 204 255
170 204 255
170 204 255
170 204 255
170 204 255
170 204 255
170 204 255
170 204 255
170 204 255
171 205 255
171 205 255
171 205 255
171 205 255
171 205 255
171 205 255
171 205 255
171 205 255
171 205 255
171 205 255
171 205 255
171 205 255
172 205 255
172 205 255
172 205 255
172 205 255
172 205 255
172 205 255
172 205 255
172 205 255
172 205 255
172 206 255
172 206 255
172 206 255
172 206 255
173 206 255
173 206 255
173 206 255
173 206 255
173 206 255
173 206 255
173 206 255
173 206 255
173 206 255
173 206 255
173 206 255
173 206 255
173 206 255
173 206 255
174 206 255
174 206 255
174 206 255
174 206 255
174 207 255
174 207 255
174 207 255
174 207 255
174 207 255
174 207 255
174 207 255
174 207 255
174 207 255
174 207 255
175 207 255
175 207 255
175 207 255
175 207 255
175 207 255
175 207 255
175 207 255
175 207 255
175 207 255
175 207 255
175 207 255
175 207 255
175 207 255
175 207 255
175 207 255
175 207 255
176 208 255
176 208 255
176 208 255
176 208 255
176 208 255
176 208 255
176 208 255
176 208 255
176 208 255
176 208 255
176 208 255
176 208 255
176 208 255
176 208 255
176 208 255
176 208 255
177 208 255
177 208 255
177 208 255
177 208 255
177 208 255
177 208 255
177 208 255
177 208 255
177 208 255
177 208 255
177 208 255
177 208 255
177 209 255
177 209 255
177 209 255
177 209 255
177 209 255
177 209 255
177 209 255
178 209 255
178 209 255
178 209 255
178 209 255
178 209 255
178 209 255
178 209 255
178 209 255
178 209 255
177 209 255
177 209 255
177 209 255
177 209 255
177 209 255
177 209 255
177 209 255
177 208 255
177 208 255
177 208 255
177 208 255
177 208 255
177 208 255
177 208 255
177 208 255
177 208 255
177 208 255
177 208 255
177 208 255
176 208 255
176 208 255
176 208 255
176 208 255
176 208 255
176 208 255
176 208 255
176 208 255
176 208 255
176 208 255
176 208 255
176 208 255
176 208 255
176 208 255
176 208 255
176 208 255
175 207 255
175 207 255
175 207 255
175 207 255
175 207 255
175 207 255
175 207 255
175 207 255
175 207 255
175 207 255
175 207 255
175 207 255
175 207 255
175 207 255
175 207 255
175 207 255
174 207 255
174 207 255
174 207 255
174 207 255
174 207 255
174 207 255
174 207 255
174 207 255
174 207 255
174 206 255
174 206 255
174 206 255
174 206 255
174 206 255
173 206 255
173 206 255
173 206 255
173 206 255
173 206 255
173 206 255
173 206 255
173 206 255
173 206 255
173 206 255
173 206 255
173 206 255
173 206 255
172 206 255
172 206 255
172 206 255
172 206 255
172 205 255
172 205 255
172 205 255
172 205 255
172 205 255
172 205 255
172 205 255
172 205 255
172 205 255
171 205 255
171 205 255
171 205 255
171 205 255
171 205 255
171 205 255
171 205 255
171 205 255
171 205 255
171 205 255
171 205 255
171 205 255
170 204 255
170 204 255
170 204 255
170 204 255
170 204 255
170 204 255
170 204 255
170 204 255
170 204 255
170 204 255
170 204 255
170 204 255
169 204 255
169 204 255
169 204 255
169 204 255
169 204 255
169 204 255
169 204 255
169 204 255
169 204 255
169 203 255
169 203 255
169 203 255
169 203 255
168 203 255
168 203 255
168 203 255
168 203 255
168 203 255
168 203 255
168 203 255
168 203 255
168 203 255
168 203 255
168 203 255
168 203 255
168 203 255
168 203 255
167 203 255
167 203 255
167 203 255
167 203 255
167 203 255
167 202 255
167 202 255
167 202 255
167 202 255
95 115 146
13 17 21
17 21 28
19 23 31
17 21 27
17 22 28
19 23 29
19 23 30
16 20 26
16 19 25
16 21 27
14 18 23
15 19 25
14 18 24
17 21 27
15 18 24
16 20 25
16 20 26
17 21 28
17 22 29
16 20 26
15 18 24
17 22 28
15 18 23
16 20 26
18 22 29
16 20 26
17 21 27
14 18 24
15 18 24
17 21 27
15 19 24
16 19 25
18 22 29
16 20 26
18 23 29
15 19 25
16 20 26
16 19 25
13 16 21
16 19 25
19 23 29
16 20 26
16 20 25
18 23 29
16 20 25
15 19 25
16 20 26
14 18 23
15 19 25
15 19 25
17 21 27
15 19 24
17 22 28
16 19 25
17 21 27
14 18 23
16 20 27
17 22 29
16 20 26
17 21 27
16 20 27
16 20 26
16 20 26
17 21 27
17 22 28
19 23 30
18 22 29
14 17 22
16 20 26
14 17 23
16 20 26
17 22 29
17 21 27
17 20 26
16 20 26
17 22 28
16 20 26
16 20 26
14 18 24
16 20 26
15 19 25
15 19 25
98 120 151
167 202 255
167 202 255
167 202 255
167 202 255
167 203 255
167 203 255
167 203 255
167 203 255
167 203 255
168 203 255
168 203 255
168 203 255
168 203 255
168 203 255
168 203 255
168 203 255
168 203 255
168 203 255
168 203 255
168 203 255
168 203 255
168 203 255
168 203 255
169 203 255
169 203 255
169 203 255
169 203 255
169 204 255
169 204 255
169 204 255
169 204 255
169 204 255
169 204 255
169 204 255
169 204 255
170 204 255
170 204 255
170 204 255
170 204 255
170 204 255
170 204 255
170 204 255
170 204 255
170 204 255
170 204 255
170 204 255
170 204 255
170 204 255
171 205 255
171 205 255
171 205 255
171 205 255
171 205 255
171 205 255
171 205 255
171 205 255
171 205 255
171 205 255
171 205 255
171 205 255
171 205 255
172 205 255
172 205 255
172 205 255
172 205 255
172 205 255
172 205 255
172 205 255
172 205 255
172 206 255
172 206 255
172 206 255
172 206 255
173 206 255
173 206 255
173 206 255
173 206 255
173 206 255
173 206 255
173 206 255
173 206 255
173 206 255
173 206 255
173 206 255
173 206 255
173 206 255
174 206 255
174 206 255
174 206 255
174 206 255
174 206 255
174 207 255
174 207 255
174 207 255
174 207 255
174 207 255
174 207 255
174 207 255
174 207 255
174 207 255
175 207 255
175 207 255
175 207 255
175 207 255
175 207 255
175 207 255
175 207 255
175 207 255
175 207 255
175 207 255
175 207 255
175 207 255
175 207 255
175 207 255
175 207 255
175 207 255
176 208 255
176 208 255
176 208 255
176 208 255
176 208 255
176 208 255
176 208 255
176 208 255
176 208 255
176 208 255
176 208 255
176 208 255
176 208 255
176 208 255
176 208 255
176 208 255
177 208 255
177 208 255
177 208 255
177 208 255
177 208 255
177 208 255
177 208 255
177 208 255
177 208 255
177 208 255
177 208 255
177 208 255
177 209 255
177 209 255
177 209 255
177 209 255
177 209 255
177 209 255
178 209 255
178 209 255
178 209 255
178 209 255
178 209 255
178 209 255
178 209 255
178 209 255
178 209 255
178 209 255
178 209 255
178 209 255
178 209 255
178 209 255
178 209 255
178 209 255
178 209 255
178 209 255
178 209 255
178 209 255
177 209 255
177 209 255
177 209 255
177 209 255
177 209 255
177 209 255
177 209 255
177 208 255
177 208 255
177 208 255
177 208 255
177 208 255
177 208 255
177 208 255
177 208 255
177 208 255
177 208 255
177 208 255
177 208 255
176 208 255
176 208 255
176 208 255
176 208 255
176 208 255
176 208 255
176 208 255
176 208 255
176 208 255
176 208 255
176 208 255
176 208 255
176 208 255
176 208 255
176 208 255
176 208 255
175 207 255
175 207 255
175 207 255
175 207 255
175 207 255
175 207 255
175 207 255
175 207 255
175 207 255
175 207 255
175 207 255
175 207 255
175 207 255
175 207 255
175 207 255
174 207 255
174 207 255
174 207 255
174 207 255
174 207 255
174 207 255
174 207 255
174 207 255
174 207 255
174 207 255
174 206 255
174 206 255
174 206 255
174 206 255
173 206 255
173 206 255
173 206 255
173 206 255
173 206 255
173 206 255
173 206 255
173 206 255
173 206 255
173 206 255
173 206 255
173 206 255
173 206 255
172 206 255
172 206 255
172 206 255
172 206 255
172 206 255
172 205 255
172 205 255
172 205 255
172 205 255
172 205 255
172 205 255
172 205 255
172 205 255
172 205 255
171 205 255
171 205 255
171 205 255
171 205 255
171 205 255
171 205 255
171 205 255
171 205 255
171 205 255
171 205 255
171 205 255
171 205 255
170 204 255
170 204 255
170 204 255
170 204 255
170 204 255
170 204 255
170 204 255
170 204 255
170 204 255
170 204 255
170 204 255
170 204 255
169 204 255
169 204 255
169 204 255
169 204 255
169 204 255
169 204 255
169 204 255
169 204 255
169 204 255
169 203 255
169 203 255
169 203 255
169 203 255
168 203 255
168 203 255
168 203 255
168 203 255
168 203 255
168 203 255
168 203 255
168 203 255
168 203 255
168 203 255
168 203 255
168 203 255
168 203 255
168 203 255
168 203 255
167 203 255
164 199 251
66 81 103
17 21 27
18 22 29
19 24 30
16 20 26
15 18 24
15 19 25
15 19 24
17 21 28
10 13 17
16 20 27
17 21 28
17 22 28
15 19 25
15 19 24
17 21 27
14 18 24
20 24 31
15 19 24
16 20 25
17 21 27
16 20 26
16 20 26
15 19 25
15 19 25
14 17 23
16 20 26
13 16 21
16 20 26
16 20 26
18 22 27
13 17 22
15 19 24
15 19 24
16 19 25
17 21 28
15 19 24
16 19 25
15 19 25
19 23 31
16 20 25
15 19 25
15 19 25
17 21 28
17 21 27
17 22 28
16 20 25
17 21 28
16 20 26
15 18 24
18 22 28
16 20 26
16 20 25
18 23 30
19 23 29
16 19 25
18 23 30
17 21 26
15 18 24
18 22 29
16 19 25
14 18 24
16 20 26
18 23 29
18 23 29
16 20 26
18 23 29
16 20 26
17 21 28
17 21 28
17 21 27
14 17 22
15 18 23
13 16 22
17 21 27
17 22 28
16 21 27
18 22 29
17 21 27
16 20 26
17 21 27
18 22 29
17 21 26
16 19 25
14 18 23
66 80 101
167 203 255
167 203 255
168 203 255
168 203 255
168 203 255
168 203 255
168 203 255
168 203 255
168 203 255
168 203 255
168 203 255
168 203 255
168 203 255
168 203 255
168 203 255
168 203 255
169 203 255
169 203 255
169 203 255
169 203 255
169 203 255
169 204 255
169 204 255
169 204 255
169 204 255
169 204 255
169 204 255
169 204 255
169 204 255
169 204 255
170 204 255
170 204 255
170 204 255
170 204 255
170 204 255
170 204 255
170 204 255
170 204 255
170 204 255
170 204 255
170 204 255
170 204 255
171 205 255
171 205 255
171 205 255
171 205 255
171 205 255
171 205 255
171 205 255
171 205 255
171 205 255
171 205 255
171 205 255
171 205 255
171 205 255
172 205 255
172 205 255
172 205 255
172 205 255
172 205 255
172 205 255
172 205 255
172 205 255
172 206 255
172 206 255
172 206 255
172 206 255
173 206 255
173 206 255
173 206 255
173 206 255
173 206 255
173 206 255
173 206 255
173 206 255
173 206 255
173 206 255
173 206 255
173 206 255
173 206 255
173 206 255
174 206 255
174 206 255
174 206 255
174 206 255
174 207 255
174 207 255
174 207 255
174 207 255
174 207 255
174 207 255
174 207 255
174 207 255
174 207 255
174 207 255
175 207 255
175 207 255
175 207 255
175 207 255
175 207 255
175 207 255
175 207 255
175 207 255
175 207 255
175 207 255
175 207 255
175 207 255
175 207 255
175 207 255
175 207 255
176 208 255
176 208 255
176 208 255
176 208 255
176 208 255
176 208 255
176 208 255
176 208 255
176 208 255
176 208 255
176 208 255
176 208 255
176 208 255
176 208 255
176 208 255
176 208 255
177 208 255
177 208 255
177 208 255
177 208 255
177 208 255
177 208 255
177 208 255
177 208 255
177 208 255
177 208 255
177 208 255
177 208 255
177 209 255
177 209 255
177 209 255
177 209 255
177 209 255
177 209 255
177 209 255
178 209 255
178 209 255
178 209 255
178 209 255
178 209 255
178 209 255
178 209 255
178 209 255
178 209 255
178 209 255
178 209 255
178 209 255
178 209 255
178 209 255
178 209 255
178 209 255
178 209 255
178 209 255
178 209 255
178 209 255
178 209 255
178 209 255
178 209 255
178 209 255
178 209 255
178 209 255
178 209 255
178 209 255
178 209 255
178 209 255
177 209 255
177 209 255
177 209 255
177 209 255
177 209 255
177 209 255
177 208 255
177 208 255
177 208 255
177 208 255
177 208 255
177 208 255
177 208 255
177 208 255
177 208 255
177 208 255
177 208 255
177 208 255
176 208 255
176 208 255
176 208 255
176 208 255
176 208 255
176 208 255
176 208 255
176 208 255
176 208 255
176 208 255
176 208 255
176 208 255
176 208 255
176 208 255
176 208 255
176 208 255
175 207 255
175 207 255
175 207 255
175 207 255
175 207 255
175 207 255
175 207 255
175 207 255
175 207 255
175 207 255
175 207 255
175 207 255
175 207 255
175 207 255
175 207 255
174 207 255
174 207 255
174 207 255
174 207 255
174 207 255
174 207 255
174 207 255
174 207 255
174 207 255
174 206 255
174 206 255
174 206 255
174 206 255
174 206 255
173 206 255
173 206 255
173 206 255
173 206 255
173 206 255
173 206 255
173 206 255
173 206 255
173 206 255
173 206 255
173 206 255
173 206 255
173 206 255
172 206 255
172 206 255
172 206 255
172 206 255
172 206 255
172 205 255
172 205 255
172 205 255
172 205 255
172 205 255
172 205 255
172 205 255
172 205 255
171 205 255
171 205 255
171 205 255
171 205 255
171 205 255
171 205 255
171 205 255
171 205 255
171 205 255
171 205 255
171 205 255
171 205 255
171 205 255
170 204 255
170 204 255
170 204 255
170 204 255
170 204 255
170 204 255
170 204 255
170 204 255
170 204 255
170 204 255
170 204 255
170 204 255
169 204 255
169 204 255
169 204 255
169 204 255
169 204 255
169 204 255
169 204 255
169 204 255
169 204 255
169 204 255
169 203 255
169 203 255
169 203 255
169 203 255
169 203 255
168 203 255
168 203 255
168 203 255
168 203 255
168 203 255
168 203 255
168 203 255
168 203 255
165 199 250
59 72 91
16 20 27
16 20 27
17 22 28
16 20 25
15 19 25
16 20 26
14 18 23
16 20 26
19 24 31
16 20 26
16 20 26
19 23 30
16 21 27
18 23 30
12 15 20
16 21 27
17 21 27
17 21 27
13 16 20
17 21 27
17 21 27
13 16 21
16 19 25
16 20 25
16 20 27
13 16 21
17 22 28
17 21 27
16 21 28
18 22 28
15 19 24
13 16 20
15 18 24
14 17 22
13 17 22
12 16 20
13 16 21
14 18 23
16 20 26
15 18 23
16 20 27
16 20 26
16 20 26
14 17 22
16 20 27
16 20 26
16 20 26
14 17 22
16 20 25
17 22 28
13 17 22
15 19 25
17 22 28
15 18 23
18 23 29
16 20 26
18 22 29
16 20 25
17 22 28
15 19 25
19 23 29
15 19 24
17 21 28
17 21 27
17 21 27
17 21 28
16 19 25
19 23 30
16 20 26
16 20 26
14 18 24
16 20 26
18 22 29
16 20 26
14 18 24
15 19 25
16 20 26
15 19 24
14 17 22
14 17 21
16 21 27
15 20 26
16 20 27
17 21 28
15 19 25
16 20 26
51 62 78
163 197 249
168 203 255
168 203 255
168 203 255
168 203 255
168 203 255
168 203 255
168 203 255
168 203 255
168 203 255
169 203 255
169 203 255
169 203 255
169 203 255
169 203 255
169 204 255
169 204 255
169 204 255
169 204 255
169 204 255
169 204 255
169 204 255
169 204 255
170 204 255
170 204 255
170 204 255
170 204 255
170 204 255
170 204 255
170 204 255
170 204 255
170 204 255
170 204 255
170 204 255
170 204 255
170 204 255
171 205 255
171 205 255
171 205 255
171 205 255
171 205 255
171 205 255
171 205 255
171 205 255
171 205 255
171 205 255
171 205 255
171 205 255
171 205 255
172 205 255
172 205 255
172 205 255
172 205 255
172 205 255
172 205 255
172 205 255
172 205 255
172 205 255
172 206 255
172 206 255
172 206 255
173 206 255
173 206 255
173 206 255
173 206 255
173 206 255
173 206 255
173 206 255
173 206 255
173 206 255
173 206 255
173 206 255
173 206 255
173 206 255
173 206 255
174 206 255
174 206 255
174 206 255
174 206 255
174 206 255
174 207 255
174 207 255
174 207 255
174 207 255
174 207 255
174 207 255
174 207 255
174 207 255
174 207 255
175 207 255
175 207 255
175 207 255
175 207 255
175 207 255
175 207 255
175 207 255
175 207 255
175 207 255
175 207 255
175 207 255
175 207 255
175 207 255
175 207 255
175 207 255
176 208 255
176 208 255
176 208 255
176 208 255
176 208 255
176 208 255
176 208 255
176 208 255
176 208 255
176 208 255
176 208 255
176 208 255
176 208 255
176 208 255
176 208 255
176 208 255
177 208 255
177 208 255
177 208 255
177 208 255
177 208 255
177 208 255
177 208 255
177 208 255
177 208 255
177 208 255
177 208 255
177 208 255
177 209 255
177 209 255
177 209 255
177 209 255
177 209 255
177 209 255
178 209 255
178 209 255
178 209 255
178 209 255
178 209 255
178 209 255
178 209 255
178 209 255
178 209 255
178 209 255
178 209 255
178 209 255
178 209 255
178 209 255
178 209 255
178 209 255
178 209 255
178 209 255
179 209 255
179 209 255
179 209 255
179 209 255
178 209 255
178 209 255
178 209 255
178 209 255
178 209 255
178 209 255
178 209 255
178 209 255
178 209 255
178 209 255
178 209 255
178 209 255
178 209 255
178 209 255
178 209 255
178 209 255
178 209 255
178 209 255
178 209 255
177 209 255
177 209 255
177 209 255
177 209 255
177 209 255
177 209 255
177 208 255
177 208 255
177 208 255
177 208 255
177 208 255
177 208 255
177 208 255
177 208 255
177 208 255
177 208 255
177 208 255
177 208 255
176 208 255
176 208 255
176 208 255
176 208 255
176 208 255
176 208 255
176 208 255
176 208 255
176 208 255
176 208 255
176 208 255
176 208 255
176 208 255
176 208 255
176 208 255
176 208 255
175 207 255
175 207 255
175 207 255
175 207 255
175 207 255
175 207 255
175 207 255
175 207 255
175 207 255
175 207 255
175 207 255
175 207 255
175 207 255
175 207 255
175 207 255
174 207 255
174 207 255
174 207 255
174 207 255
174 207 255
174 207 255
174 207 255
174 207 255
174 207 255
174 206 255
174 206 255
174 206 255
174 206 255
174 206 255
173 206 255
173 206 255
173 206 255
173 206 255
173 206 255
173 206 255
173 206 255
173 206 255
173 206 255
173 206 255
173 206 255
173 206 255
173 206 255
172 206 255
172 206 255
172 206 255
172 206 255
172 205 255
172 205 255
172 205 255
172 205 255
172 205 255
172 205 255
172 205 255
172 205 255
172 205 255
171 205 255
171 205 255
171 205 255
171 205 255
171 205 255
171 205 255
171 205 255
171 205 255
171 205 255
171 205 255
171 205 255
171 205 255
171 205 255
170 204 255
170 204 255
170 204 255
170 204 255
170 204 255
170 204 255
170 204 255
170 204 255
170 204 255
170 204 255
170 204 255
170 204 255
170 204 255
169 204 255
169 204 255
169 204 255
169 204 255
169 204 255
169 204 255
169 204 255
169 204 255
169 204 255
169 203 255
169 203 255
169 203 255
169 203 255
169 203 255
169 203 255
168 203 255
164 198 249
51 62 79
15 19 24
19 23 31
17 21 27
15 19 24
17 22 28
14 18 23
16 20 27
16 20 26
16 19 25
17 21 28
14 18 24
18 23 29
15 19 25
16 20 26
17 22 29
17 21 27
16 20 25
15 19 24
17 21 27
14 18 23
15 19 24
16 20 27
17 20 26
18 22 29
17 21 28
15 19 25
17 20 26
16 20 26
15 19 25
18 23 29
15 19 24
18 23 30
17 22 28
14 17 23
16 20 26
14 17 22
17 21 26
13 16 20
12 15 19
17 21 27
13 16 21
14 18 23
9 12 16
18 23 30
14 18 23
17 22 28
16 20 26
13 17 22
14 17 23
11 14 19
15 19 24
13 16 21
14 18 23
17 21 27
13 16 22
15 19 24
14 18 24
19 24 31
17 21 28
16 20 26
16 19 24
17 21 27
15 18 24
15 19 25
14 17 22
17 21 27
17 22 29
15 18 24
13 17 22
14 18 23
18 23 29
16 21 27
15 19 25
17 21 27
14 18 24
16 20 26
16 20 26
17 21 27
11 14 19
16 20 26
13 16 21
16 20 26
16 20 26
16 20 26
17 21 27
16 20 25
17 21 28
16 20 26
62 75 95
162 195 246
168 203 255
169 203 255
169 203 255
169 203 255
169 203 255
169 203 255
169 204 255
169 204 255
169 204 255
169 204 255
169 204 255
169 204 255
169 204 255
169 204 255
169 204 255
169 204 255
170 204 255
170 204 255
170 204 255
170 204 255
170 204 255
170 204 255
170 204 255
170 204 255
170 204 255
170 204 255
170 204 255
170 204 255
170 204 255
171 205 255
171 205 255
171 205 255
171 205 255
171 205 255
171 205 255
171 205 255
171 205 255
171 205 255
171 205 255
171 205 255
171 205 255
171 205 255
172 205 255
172 205 255
172 205 255
172 205 255
172 205 255
172 205 255
172 205 255
172 205 255
172 205 255
172 206 255
172 206 255
172 206 255
172 206 255
173 206 255
173 206 255
173 206 255
173 206 255
173 206 255
173 206 255
173 206 255
173 206 255
173 206 255
173 206 255
173 206 255
173 206 255
173 206 255
174 206 255
174 206 255
174 206 255
174 206 255
174 206 255
174 207 255
174 207 255
174 207 255
174 207 255
174 207 255
174 207 255
174 207 255
174 207 255
174 207 255
175 207 255
175 207 255
175 207 255
175 207 255
175 207 255
175 207 255
175 207 255
175 207 255
175 207 255
175 207 255
175 207 255
175 207 255
175 207 255
175 207 255
175 207 255
176 208 255
176 208 255
176 208 255
176 208 255
176 208 255
176 208 255
176 208 255
176 208 255
176 208 255
176 208 255
176 208 255
176 208 255
176 208 255
176 208 255
176 208 255
176 208 255
177 208 255
177 208 255
177 208 255
177 208 255
177 208 255
177 208 255
177 208 255
177 208 255
177 208 255
177 208 255
177 208 255
177 208 255
177 209 255
177 209 255
177 209 255
177 209 255
177 209 255
177 209 255
178 209 255
178 209 255
178 209 255
178 209 255
178 209 255
178 209 255
178 209 255
178 209 255
178 209 255
178 209 255
178 209 255
178 209 255
178 209 255
178 209 255
178 209 255
178 209 255
178 209 255
178 209 255
178 209 255
178 209 255
179 209 255
179 209 255
179 209 255
179 210 255
179 210 255
179 209 255
179 209 255
179 209 255
179 209 255
179 209 255
179 209 255
179 209 255
178 209 255
178 209 255
178 209 255
178 209 255
178 209 255
178 209 255
178 209 255
178 209 255
178 209 255
178 209 255
178 209 255
178 209 255
178 209 255
178 209 255
178 209 255
178 209 255
178 209 255
178 209 255
178 209 255
178 209 255
177 209 255
177 209 255
177 209 255
177 209 255
177 209 255
177 208 255
177 208 255
177 208 255
177 208 255
177 208 255
177 208 255
177 208 255
177 208 255
177 208 255
177 208 255
177 208 255
177 208 255
176 208 255
176 208 255
176 208 255
176 208 255
176 208 255
176 208 255
176 208 255
176 208 255
176 208 255
176 208 255
176 208 255
176 208 255
176 208 255
176 208 255
176 208 255
176 208 255
175 207 255
175 207 255
175 207 255
175 207 255
175 207 255
175 207 255
175 207 255
175 207 255
175 207 255
175 207 255
175 207 255
175 207 255
175 207 255
175 207 255
175 207 255
174 207 255
174 207 255
174 207 255
174 207 255
174 207 255
174 207 255
174 207 255
174 207 255
174 207 255
174 206 255
174 206 255
174 206 255
174 206 255
174 206 255
173 206 255
173 206 255
173 206 255
173 206 255
173 206 255
173 206 255
173 206 255
173 206 255
173 206 255
173 206 255
173 206 255
173 206 255
173 206 255
172 206 255
172 206 255
172 206 255
172 206 255
172 205 255
172 205 255
172 205 255
172 205 255
172 205 255
172 205 255
172 205 255
172 205 255
172 205 255
171 205 255
171 205 255
171 205 255
171 205 255
171 205 255
171 205 255
171 205 255
171 205 255
171 205 255
171 205 255
171 205 255
171 205 255
171 205 255
170 204 255
170 204 255
170 204 255
170 204 255
170 204 255
170 204 255
170 204 255
170 204 255
170 204 255
170 204 255
170 204 255
170 204 255
170 204 255
170 204 255
169 204 255
169 204 255
169 204 255
169 204 255
169 204 255
169 204 255
169 204 255
169 204 255
169 204 255
156 189 237
38 46 59
14 18 24
15 19 24
14 18 23
18 23 29
15 18 24
17 22 28
17 22 28
13 16 21
14 18 23
15 19 25
16 20 26
15 19 26
17 22 29
16 21 27
13 17 22
18 23 29
14 18 22
18 22 30
15 18 24
15 18 24
17 21 27
18 22 29
14 18 23
16 19 25
16 20 26
14 17 22
15 19 25
13 17 22
15 18 23
16 21 27
16 19 25
16 20 25
16 21 27
19 23 30
15 19 24
14 18 24
15 18 23
15 18 24
13 17 22
17 21 27
18 22 29
15 18 24
15 19 25
15 18 24
14 17 22
16 19 25
12 15 19
18 22 30
15 19 24
17 21 27
15 18 24
14 17 22
13 17 22
17 21 27
18 22 28
16 21 27
15 18 24
15 19 25
15 19 24
15 19 25
14 18 23
16 20 26
17 21 27
14 17 22
17 22 28
15 19 25
14 18 23
15 19 24
15 19 24
20 25 32
15 19 24
16 20 26
16 20 26
15 19 25
15 19 25
15 18 24
17 21 27
14 17 23
16 21 27
17 21 27
16 20 26
14 18 24
15 20 26
15 19 25
16 20 26
17 21 27
15 19 25
15 19 25
19 23 30
14 18 23
41 51 64
163 196 246
169 204 255
169 204 255
169 204 255
169 204 255
169 204 255
169 204 255
169 204 255
169 204 255
169 204 255
170 204 255
170 204 255
170 204 255
170 204 255
170 204 255
170 204 255
170 204 255
170 204 255
170 204 255
170 204 255
170 204 255
170 204 255
170 204 255
170 204 255
171 205 255
171 205 255
171 205 255
171 205 255
171 205 255
171 205 255
171 205 255
171 205 255
171 205 255
171 205 255
171 205 255
171 205 255
171 205 255
172 205 255
172 205 255
172 205 255
172 205 255
172 205 255
172 205 255
172 205 255
172 205 255
172 205 255
172 206 255
172 206 255
172 206 255
172 206 255
173 206 255
173 206 255
173 206 255
173 206 255
173 206 255
173 206 255
173 206 255
173 206 255
173 206 255
173 206 255
173 206 255
173 206 255
173 206 255
173 206 255
174 206 255
174 206 255
174 206 255
174 206 255
174 207 255
174 207 255
174 207 255
174 207 255
174 207 255
174 207 255
174 207 255
174 207 255
174 207 255
175 207 255
175 207 255
175 207 255
175 207 255
175 207 255
175 207 255
175 207 255
175 207 255
175 207 255
175 207 255
175 207 255
175 207 255
175 207 255
175 207 255
175 207 255
176 208 255
176 208 255
176 208 255
176 208 255
176 208 255
176 208 255
176 208 255
176 208 255
176 208 255
176 208 255
176 208 255
176 208 255
176 208 255
176 208 255
176 208 255
176 208 255
177 208 255
177 208 255
177 208 255
177 208 255
177 208 255
177 208 255
177 208 255
177 208 255
177 208 255
177 208 255
177 208 255
177 208 255
177 209 255
177 209 255
177 209 255
177 209 255
177 209 255
177 209 255
178 209 255
178 209 255
178 209 255
178 209 255
178 209 255
178 209 255
178 209 255
178 209 255
178 209 255
178 209 255
178 209 255
178 209 255
178 209 255
178 209 255
178 209 255
178 209 255
178 209 255
178 209 255
178 209 255
179 209 255
179 209 255
179 209 255
179 209 255
179 209 255
179 209 255
179 209 255
179 210 255
179 210 255
179 210 255
179 210 255
179 210 255
179 210 255
179 210 255
179 210 255
179 210 255
179 210 255
179 209 255
179 209 255
179 209 255
179 209 255
179 209 255
179 209 255
179 209 255
178 209 255
178 209 255
178 209 255
178 209 255
178 209 255
178 209 255
178 209 255
178 209 255
178 209 255
178 209 255
178 209 255
178 209 255
178 209 255
178 209 255
178 209 255
178 209 255
178 209 255
178 209 255
177 209 255
177 209 255
177 209 255
177 209 255
177 209 255
177 209 255
177 209 255
177 208 255
177 208 255
177 208 255
177 208 255
177 208 255
177 208 255
177 208 255
177 208 255
177 208 255
177 208 255
177 208 255
176 208 255
176 208 255
176 208 255
176 208 255
176 208 255
176 208 255
176 208 255
176 208 255
176 208 255
176 208 255
176 208 255
176 208 255
176 208 255
176 208 255
176 208 255
176 208 255
175 207 255
175 207 255
175 207 255
175 207 255
175 207 255
175 207 255
175 207 255
175 207 255
175 207 255
175 207 255
175 207 255
175 207 255
175 207 255
175 207 255
175 207 255
174 207 255
174 207 255
174 207 255
174 207 255
174 207 255
174 207 255
174 207 255
174 207 255
174 207 255
174 206 255
174 206 255
174 206 255
174 206 255
174 206 255
173 206 255
173 206 255
173 206 255
173 206 255
173 206 255
173 206 255
173 206 255
173 206 255
173 206 255
173 206 255
173 206 255
173 206 255
173 206 255
172 206 255
172 206 255
172 206 255
172 206 255
172 205 255
172 205 255
172 205 255
172 205 255
172 205 255
172 205 255
172 205 255
172 205 255
172 205 255
171 205 255
171 205 255
171 205 255
171 205 255
171 205 255
171 205 255
171 205 255
171 205 255
171 205 255
171 205 255
171 205 255
171 205 255
171 205 255
171 205 255
170 204 255
170 204 255
170 204 255
170 204 255
170 204 255
170 204 255
170 204 255
170 204 255
170 204 255
170 204 255
170 204 255
170 204 255
170 204 255
170 204 255
170 204 255
169 204 255
162 195 244
47 57 73
16 20 26
16 20 26
18 22 29
17 22 29
15 19 25
14 17 22
13 17 21
18 22 29
14 17 22
17 22 28
15 20 26
16 20 26
14 17 23
18 22 28
17 21 27
16 20 26
18 22 28
16 21 27
16 20 26
14 18 23
15 20 26
15 19 25
14 17 22
17 22 28
15 18 24
19 23 30
16 20 27
16 20 26
15 19 25
17 21 28
14 17 22
14 18 23
14 18 24
16 20 26
14 17 22
15 19 25
16 20 26
15 18 24
13 17 22
13 16 20
16 19 25
13 16 21
16 20 26
16 20 26
14 18 24
14 17 22
14 17 22
18 23 30
14 18 23
15 19 24
16 20 26
14 17 22
16 19 25
14 18 23
14 18 23
15 19 24
14 18 23
15 18 24
15 19 24
15 18 24
16 20 25
13 16 21
16 20 26
15 18 24
14 18 23
13 16 20
14 18 23
18 22 29
15 19 25
16 20 26
17 21 27
17 21 28
16 20 26
16 20 26
14 18 24
15 19 26
17 22 28
17 21 27
14 18 24
17 21 27
15 19 25
15 19 25
15 19 24
14 18 23
12 15 20
16 20 27
16 19 25
15 18 24
18 22 29
18 23 30
14 18 24
14 17 23
50 61 77
159 192 240
169 204 255
169 204 255
170 204 255
170 204 255
170 204 255
170 204 255
170 204 255
170 204 255
170 204 255
170 204 255
170 204 255
170 204 255
170 204 255
170 204 255
170 204 255
170 204 255
171 205 255
171 205 255
171 205 255
171 205 255
171 205 255
171 205 255
171 205 255
171 205 255
171 205 255
171 205 255
171 205 255
171 205 255
171 205 255
171 205 255
172 205 255
172 205 255
172 205 255
172 205 255
172 205 255
172 205 255
172 205 255
172 205 255
172 205 255
172 206 255
172 206 255
172 206 255
172 206 255
173 206 255
173 206 255
173 206 255
173 206 255
173 206 255
173 206 255
173 206 255
173 206 255
173 206 255
173 206 255
173 206 255
173 206 255
173 206 255
174 206 255
174 206 255
174 206 255
174 206 255
174 206 255
174 207 255
174 207 255
174 207 255
174 207 255
174 207 255
174 207 255
174 207 255
174 207 255
174 207 255
175 207 255
175 207 255
175 207 255
175 207 255
175 207 255
175 207 255
175 207 255
175 207 255
175 207 255
175 207 255
175 207 255
175 207 255
175 207 255
175 207 255
175 207 255
176 208 255
176 208 255
176 208 255
176 208 255
176 208 255
176 208 255
176 208 255
176 208 255
176 208 255
176 208 255
176 208 255
176 208 255
176 208 255
176 208 255
176 208 255
176 208 255
177 208 255
177 208 255
177 208 255
177 208 255
177 208 255
177 208 255
177 208 255
177 208 255
177 208 255
177 208 255
177 208 255
177 209 255
177 209 255
177 209 255
177 209 255
177 209 255
177 209 255
178 209 255
178 209 255
178 209 255
178 209 255
178 209 255
178 209 255
178 209 255
178 209 255
178 209 255
178 209 255
178 209 255
178 209 255
178 209 255
178 209 255
178 209 255
178 209 255
178 209 255
178 209 255
178 209 255
179 209 255
179 209 255
179 209 255
179 209 255
179 209 255
179 209 255
179 209 255
179 210 255
179 210 255
179 210 255
179 210 255
179 210 255
179 210 255
179 210 255
179 210 255
179 210 255
179 210 255
179 210 255
179 210 255
179 210 255
179 210 255
179 210 255
179 210 255
179 210 255
179 210 255
179 210 255
179 210 255
179 210 255
179 209 255
179 209 255
179 209 255
179 209 255
179 209 255
179 209 255
179 209 255
178 209 255
178 209 255
178 209 255
178 209 255
178 209 255
178 209 255
178 209 255
178 209 255
178 209 255
178 209 255
178 209 255
178 209 255
178 209 255
178 209 255
178 209 255
178 209 255
178 209 255
178 209 255
178 209 255
177 209 255
177 209 255
177 209 255
177 209 255
177 209 255
177 209 255
177 208 255
177 208 255
177 208 255
177 208 255
177 208 255
177 208 255
177 208 255
177 208 255
177 208 255
177 208 255
177 208 255
176 208 255
176 208 255
176 208 255
176 208 255
176 208 255
176 208 255
176 208 255
176 208 255
176 208 255
176 208 255
176 208 255
176 208 255
176 208 255
176 208 255
176 208 255
176 208 255
175 207 255
175 207 255
175 207 255
175 207 255
175 207 255
175 207 255
175 207 255
175 207 255
175 207 255
175 207 255
175 207 255
175 207 255
175 207 255
175 207 255
175 207 255
174 207 255
174 207 255
174 207 255
174 207 255
174 207 255
174 207 255
174 207 255
174 207 255
174 207 255
174 206 255
174 206 255
174 206 255
174 206 255
174 206 255
173 206 255
173 206 255
173 206 255
173 206 255
173 206 255
173 206 255
173 206 255
173 206 255
173 206 255
173 206 255
173 206 255
173 206 255
173 206 255
172 206 255
172 206 255
172 206 255
172 206 255
172 206 255
172 205 255
172 205 255
172 205 255
172 205 255
172 205 255
172 205 255
172 205 255
172 205 255
172 205 255
171 205 255
171 205 255
171 205 255
171 205 255
171 205 255
171 205 255
171 205 255
171 205 255
171 205 255
171 205 255
171 205 255
171 205 255
171 205 255
171 205 255
170 204 255
170 204 255
170 204 255
170 204 255
170 204 255
170 204 255
170 204 255
170 204 255
170 204 255
167 201 251
47 57 72
19 23 29
16 20 26
15 19 25
14 18 23
15 19 24
16 20 26
18 23 29
15 20 26
15 18 24
16 20 25
15 18 24
16 19 25
17 21 27
16 20 26
17 22 28
15 18 24
16 20 26
17 21 27
19 23 31
15 19 25
15 18 23
17 21 27
16 21 28
18 22 29
17 21 27
15 19 24
15 19 24
15 19 24
13 16 21
14 18 24
16 20 26
13 17 22
18 23 30
16 20 25
15 19 25
14 18 24
15 19 25
18 22 29
16 20 27
16 21 27
15 19 25
12 16 20
15 19 25
15 19 24
14 17 22
17 21 27
16 19 25
15 19 24
14 18 23
15 18 24
13 17 22
17 21 28
13 16 21
12 15 20
14 19 25
11 14 18
13 17 21
14 17 22
15 18 24
18 22 29
13 16 21
14 18 23
14 17 23
16 20 25
17 21 27
13 17 22
14 18 23
16 20 26
13 16 21
17 21 27
18 22 29
16 20 26
13 16 21
17 21 28
16 20 26
14 17 23
18 22 29
15 19 25
14 18 23
15 19 25
18 22 28
15 19 25
15 19 25
17 22 28
15 19 25
17 22 28
14 17 23
14 17 22
16 20 26
16 20 26
16 21 27
17 21 27
17 22 28
15 19 25
58 71 90
168 202 253
170 204 255
170 204 255
170 204 255
170 204 255
170 204 255
170 204 255
170 204 255
170 204 255
170 204 255
171 205 255
171 205 255
171 205 255
171 205 255
171 205 255
171 205 255
171 205 255
171 205 255
171 205 255
171 205 255
171 205 255
171 205 255
171 205 255
171 205 255
171 205 255
172 205 255
172 205 255
172 205 255
172 205 255
172 205 255
172 205 255
172 205 255
172 205 255
172 206 255
172 206 255
172 206 255
172 206 255
172 206 255
173 206 255
173 206 255
173 206 255
173 206 255
173 206 255
173 206 255
173 206 255
173 206 255
173 206 255
173 206 255
173 206 255
173 206 255
173 206 255
174 206 255
174 206 255
174 206 255
174 206 255
174 206 255
174 207 255
174 207 255
174 207 255
174 207 255
174 207 255
174 207 255
174 207 255
174 207 255
174 207 255
175 207 255
175 207 255
175 207 255
175 207 255
175 207 255
175 207 255
175 207 255
175 207 255
175 207 255
175 207 255
175 207 255
175 207 255
175 207 255
175 207 255
175 207 255
176 208 255
176 208 255
176 208 255
176 208 255
176 208 255
176 208 255
176 208 255
176 208 255
176 208 255
176 208 255
176 208 255
176 208 255
176 208 255
176 208 255
176 208 255
176 208 255
177 208 255
177 208 255
177 208 255
177 208 255
177 208 255
177 208 255
177 208 255
177 208 255
177 208 255
177 208 255
177 208 255
177 209 255
177 209 255
177 209 255
177 209 255
177 209 255
177 209 255
178 209 255
178 209 255
178 209 255
178 209 255
178 209 255
178 209 255
178 209 255
178 209 255
178 209 255
178 209 255
178 209 255
178 209 255
178 209 255
178 209 255
178 209 255
178 209 255
178 209 255
178 209 255
178 209 255
179 209 255
179 209 255
179 209 255
179 209 255
179 209 255
179 209 255
179 209 255
179 210 255
179 210 255
179 210 255
179 210 255
179 210 255
179 210 255
179 210 255
179 210 255
179 210 255
179 210 255
179 210 255
179 210 255
179 210 255
180 210 255
180 210 255
180 210 255
180 210 255
180 210 255
179 210 255
179 210 255
179 210 255
179 210 255
179 210 255
179 210 255
179 210 255
179 210 255
179 210 255
179 210 255
179 210 255
179 210 255
179 210 255
179 210 255
179 209 255
179 209 255
179 209 255
179 209 255
179 209 255
179 209 255
179 209 255
178 209 255
178 209 255
178 209 255
178 209 255
178 209 255
178 209 255
178 209 255
178 209 255
178 209 255
178 209 255
178 209 255
178 209 255
178 209 255
178 209 255
178 209 255
178 209 255
178 209 255
178 209 255
178 209 255
177 209 255
177 209 255
177 209 255
177 209 255
177 209 255
177 209 255
177 208 255
177 208 255
177 208 255
177 208 255
177 208 255
177 208 255
177 208 255
177 208 255
177 208 255
177 208 255
177 208 255
176 208 255
176 208 255
176 208 255
176 208 255
176 208 255
176 208 255
176 208 255
176 208 255
176 208 255
176 208 255
176 208 255
176 208 255
176 208 255
176 208 255
176 208 255
175 207 255
175 207 255
175 207 255
175 207 255
175 207 255
175 207 255
175 207 255
175 207 255
175 207 255
175 207 255
175 207 255
175 207 255
175 207 255
175 207 255
175 207 255
174 207 255
174 207 255
174 207 255
174 207 255
174 207 255
174 207 255
174 207 255
174 207 255
174 207 255
174 206 255
174 206 255
174 206 255
174 206 255
174 206 255
173 206 255
173 206 255
173 206 255
173 206 255
173 206 255
173 206 255
173 206 255
173 206 255
173 206 255
173 206 255
173 206 255
173 206 255
173 206 255
172 206 255
172 206 255
172 206 255
172 206 255
172 206 255
172 205 255
172 205 255
172 205 255
172 205 255
172 205 255
172 205 255
172 205 255
172 205 255
172 205 255
171 205 255
171 205 255
171 205 255
171 205 255
171 205 255
171 205 255
171 205 255
171 205 255
171 205 255
171 205 255
171 205 255
171 205 255
171 205 255
171 205 255
171 205 255
171 205 255
170 204 255
168 201 251
65 78 98
17 22 28
14 18 23
17 22 28
16 20 25
16 20 27
14 18 23
16 20 26
19 23 30
16 20 27
16 19 25
16 20 26
13 16 21
13 16 20
16 20 26
16 20 27
17 21 27
17 22 28
16 19 25
16 19 25
16 19 25
15 19 25
14 17 22
13 17 22
14 17 23
15 18 23
15 19 25
17 21 27
13 17 22
15 19 24
16 20 26
17 21 28
15 19 25
15 19 25
15 19 25
17 21 28
15 18 24
15 19 25
12 15 20
15 19 24
13 16 21
17 21 28
14 18 23
13 16 21
13 17 22
14 18 23
15 19 25
15 19 24
14 17 22
13 16 21
13 16 21
15 18 23
15 19 26
17 21 28
15 18 24
12 15 20
18 23 29
15 19 25
14 18 23
15 19 25
15 19 24
16 21 27
16 20 26
17 21 28
14 18 23
18 22 29
15 19 25
16 20 26
16 19 25
16 20 26
15 18 24
15 18 24
15 18 24
16 19 25
14 18 23
15 19 24
14 18 24
16 20 27
15 19 25
18 22 28
13 17 22
15 18 24
14 18 23
15 19 24
18 23 30
15 20 26
15 18 24
14 17 23
14 18 24
19 24 30
14 18 24
14 17 22
13 17 23
16 20 26
18 23 30
14 18 24
16 20 26
66 80 101
170 204 255
170 204 255
170 204 255
171 205 255
171 205 255
171 205 255
171 205 255
171 205 255
171 205 255
171 205 255
171 205 255
171 205 255
171 205 255
171 205 255
171 205 255
171 205 255
171 205 255
171 205 255
172 205 255
172 205 255
172 205 255
172 205 255
172 205 255
172 205 255
172 205 255
172 205 255
172 205 255
172 206 255
172 206 255
172 206 255
172 206 255
173 206 255
173 206 255
173 206 255
173 206 255
173 206 255
173 206 255
173 206 255
173 206 255
173 206 255
173 206 255
173 206 255
173 206 255
173 206 255
173 206 255
174 206 255
174 206 255
174 206 255
174 206 255
174 206 255
174 207 255
174 207 255
174 207 255
174 207 255
174 207 255
174 207 255
174 207 255
174 207 255
174 207 255
175 207 255
175 207 255
175 207 255
175 207 255
175 207 255
175 207 255
175 207 255
175 207 255
175 207 255
175 207 255
175 207 255
175 207 255
175 207 255
175 207 255
175 207 255
176 208 255
176 208 255
176 208 255
176 208 255
176 208 255
176 208 255
176 208 255
176 208 255
176 208 255
176 208 255
176 208 255
176 208 255
176 208 255
176 208 255
176 208 255
176 208 255
177 208 255
177 208 255
177 208 255
177 208 255
177 208 255
177 208 255
177 208 255
177 208 255
177 208 255
177 208 255
177 208 255
177 209 255
177 209 255
177 209 255
177 209 255
177 209 255
178 209 255
178 209 255
178 209 255
178 209 255
178 209 255
178 209 255
178 209 255
178 209 255
178 209 255
178 209 255
178 209 255
178 209 255
178 209 255
178 209 255
178 209 255
178 209 255
178 209 255
178 209 255
178 209 255
179 209 255
179 209 255
179 209 255
179 209 255
179 209 255
179 209 255
179 209 255
179 210 255
179 210 255
179 210 255
179 210 255
179 210 255
179 210 255
179 210 255
179 210 255
179 210 255
179 210 255
179 210 255
179 210 255
179 210 255
179 210 255
180 210 255
180 210 255
180 210 255
180 210 255
180 210 255
180 210 255
180 210 255
180 210 255
180 210 255
180 210 255
180 210 255
180 210 255
180 210 255
180 210 255
180 210 255
180 210 255
179 210 255
179 210 255
179 210 255
179 210 255
179 210 255
179 210 255
179 210 255
179 210 255
179 210 255
179 210 255
179 210 255
179 210 255
179 210 255
179 210 255
179 209 255
179 209 255
179 209 255
179 209 255
179 209 255
179 209 255
179 209 255
178 209 255
178 209 255
178 209 255
178 209 255
178 209 255
178 209 255
178 209 255
178 209 255
178 209 255
178 209 255
178 209 255
178 209 255
178 209 255
178 209 255
178 209 255
178 209 255
178 209 255
178 209 255
177 209 255
177 209 255
177 209 255
177 209 255
177 209 255
177 209 255
177 208 255
177 208 255
177 208 255
177 208 255
177 208 255
177 208 255
177 208 255
177 208 255
177 208 255
177 208 255
177 208 255
176 208 255
176 208 255
176 208 255
176 208 255
176 208 255
176 208 255
176 208 255
176 208 255
176 208 255
176 208 255
176 208 255
176 208 255
176 208 255
176 208 255
176 208 255
175 207 255
175 207 255
175 207 255
175 207 255
175 207 255
175 207 255
175 207 255
175 207 255
175 207 255
175 207 255
175 207 255
175 207 255
175 207 255
175 207 255
175 207 255
174 207 255
174 207 255
174 207 255
174 207 255
174 207 255
174 207 255
174 207 255
174 207 255
174 207 255
174 206 255
174 206 255
174 206 255
174 206 255
174 206 255
173 206 255
173 206 255
173 206 255
173 206 255
173 206 255
173 206 255
173 206 255
173 206 255
173 206 255
173 206 255
173 206 255
173 206 255
173 206 255
173 206 255
172 206 255
172 206 255
172 206 255
172 206 255
172 206 255
172 205 255
172 205 255
172 205 255
172 205 255
172 205 255
172 205 255
172 205 255
172 205 255
172 205 255
172 205 255
171 205 255
171 205 255
171 205 255
171 205 255
171 205 255
171 205 255
171 205 255
171 205 255
171 205 255
171 205 255
82 99 124
14 18 24
16 20 27
13 16 20
16 20 26
16 20 26
14 18 24
15 19 25
16 20 26
14 18 23
16 20 26
21 26 33
16 20 26
14 18 23
14 17 23
17 21 27
13 17 22
17 21 27
15 19 25
16 20 26
17 21 28
12 15 20
12 15 20
15 18 24
14 18 24
18 22 29
16 20 26
17 21 27
17 22 28
15 19 24
15 19 24
14 17 23
14 18 23
16 20 25
17 22 28
16 19 25
14 18 23
14 17 23
12 15 20
16 20 27
16 19 25
12 15 20
13 17 22
12 16 21
15 18 24
12 15 19
14 18 23
18 22 29
14 17 23
15 18 24
15 18 24
16 20 26
14 17 23
13 16 20
15 18 24
15 18 24
15 19 23
13 16 21
14 17 22
16 20 26
16 19 25
15 19 25
16 20 26
16 20 25
17 22 28
13 17 22
15 19 25
16 20 25
13 17 22
14 18 24
13 16 20
18 22 29
15 19 25
17 21 27
18 23 30
16 20 25
15 19 25
17 21 28
15 18 24
15 19 24
18 22 28
17 22 28
16 21 27
14 18 24
15 19 24
16 20 26
15 19 25
15 19 24
15 18 23
16 20 26
13 17 23
16 20 26
18 22 28
15 19 24
17 22 28
15 18 24
14 18 23
14 17 22
16 20 26
83 100 126
171 205 255
171 205 255
171 205 255
171 205 255
171 205 255
171 205 255
171 205 255
171 205 255
171 205 255
171 205 255
171 205 255
172 205 255
172 205 255
172 205 255
172 205 255
172 205 255
172 205 255
172 205 255
172 205 255
172 205 255
172 206 255
172 206 255
172 206 255
172 206 255
172 206 255
173 206 255
173 206 255
173 206 255
173 206 255
173 206 255
173 206 255
173 206 255
173 206 255
173 206 255
173 206 255
173 206 255
173 206 255
173 206 255
173 206 255
174 206 255
174 206 255
174 206 255
174 206 255
174 207 255
174 207 255
174 207 255
174 207 255
174 207 255
174 207 255
174 207 255
174 207 255
174 207 255
174 207 255
175 207 255
175 207 255
175 207 255
175 207 255
175 207 255
175 207 255
175 207 255
175 207 255
175 207 255
175 207 255
175 207 255
175 207 255
175 207 255
175 207 255
175 207 255
176 208 255
176 208 255
176 208 255
176 208 255
176 208 255
176 208 255
176 208 255
176 208 255
176 208 255
176 208 255
176 208 255
176 208 255
176 208 255
176 208 255
176 208 255
177 208 255
177 208 255
177 208 255
177 208 255
177 208 255
177 208 255
177 208 255
177 208 255
177 208 255
177 208 255
177 208 255
177 209 255
177 209 255
177 209 255
177 209 255
177 209 255
177 209 255
178 209 255
178 209 255
178 209 255
178 209 255
178 209 255
178 209 255
178 209 255
178 209 255
178 209 255
178 209 255
178 209 255
178 209 255
178 209 255
178 209 255
178 209 255
178 209 255
178 209 255
178 209 255
179 209 255
179 209 255
179 209 255
179 209 255
179 209 255
179 209 255
179 209 255
179 210 255
179 210 255
179 210 255
179 210 255
179 210 255
179 210 255
179 210 255
179 210 255
179 210 255
179 210 255
179 210 255
179 210 255
179 210 255
179 210 255
180 210 255
180 210 255
180 210 255
180 210 255
180 210 255
180 210 255
180 210 255
180 210 255
180 210 255
180 210 255
180 210 255
180 210 255
180 210 255
180 210 255
180 210 255
180 210 255
180 210 255
180 210 255
180 210 255
180 210 255
180 210 255
180 210 255
180 210 255
180 210 255
180 210 255
180 210 255
180 210 255
180 210 255
179 210 255
179 210 255
179 210 255
179 210 255
179 210 255
179 210 255
179 210 255
179 210 255
179 210 255
179 210 255
179 210 255
179 210 255
179 210 255
179 210 255
179 209 255
179 209 255
179 209 255
179 209 255
179 209 255
179 209 255
179 209 255
178 209 255
178 209 255
178 209 255
178 209 255
178 209 255
178 209 255
178 209 255
178 209 255
178 209 255
178 209 255
178 209 255
178 209 255
178 209 255
178 209 255
178 209 255
178 209 255
178 209 255
178 209 255
177 209 255
177 209 255
177 209 255
177 209 255
177 209 255
177 208 255
177 208 255
177 208 255
177 208 255
177 208 255
177 208 255
177 208 255
177 208 255
177 208 255
177 208 255
177 208 255
176 208 255
176 208 255
176 208 255
176 208 255
176 208 255
176 208 255
176 208 255
176 208 255
176 208 255
176 208 255
176 208 255
176 208 255
176 208 255
176 208 255
176 208 255
176 208 255
175 207 255
175 207 255
175 207 255
175 207 255
175 207 255
175 207 255
175 207 255
175 207 255
175 207 255
175 207 255
175 207 255
175 207 255
175 207 255
175 207 255
175 207 255
174 207 255
174 207 255
174 207 255
174 207 255
174 207 255
174 207 255
174 207 255
174 207 255
174 207 255
174 206 255
174 206 255
174 206 255
174 206 255
174 206 255
173 206 255
173 206 255
173 206 255
173 206 255
173 206 255
173 206 255
173 206 255
173 206 255
173 206 255
173 206 255
173 206 255
173 206 255
173 206 255
173 206 255
172 206 255
172 206 255
172 206 255
172 206 255
172 206 255
172 205 255
172 205 255
172 205 255
172 205 255
172 205 255
172 205 255
172 205 255
172 205 255
172 205 255
172 205 255
171 205 255
171 205 255
171 205 255
125 150 187
15 19 25
18 22 28
16 19 25
18 23 29
19 23 30
13 16 20
15 19 25
15 18 24
15 19 24
17 21 27
14 17 23
14 18 23
16 20 26
16 20 27
15 19 24
16 20 27
14 18 24
14 18 23
16 20 26
16 20 26
13 16 22
18 22 28
13 16 21
13 17 23
15 19 25
14 18 24
16 20 26
14 17 22
15 19 25
13 16 20
12 16 21
15 18 24
15 19 24
16 20 26
18 23 29
14 18 24
16 19 25
16 19 25
11 14 18
16 19 24
13 16 21
15 19 24
14 18 24
16 20 26
14 17 21
16 20 26
12 16 21
16 19 25
14 18 23
14 18 23
14 18 23
15 19 25
16 19 25
16 19 25
14 18 23
14 17 23
12 15 20
13 16 21
17 21 27
15 19 24
14 18 23
12 15 20
17 21 27
14 18 23
16 20 26
15 18 24
15 19 24
13 16 21
14 18 24
15 19 24
15 18 24
13 17 22
12 15 20
17 22 28
15 19 24
16 21 27
15 19 25
14 18 23
15 18 24
16 19 25
16 20 26
16 20 26
14 18 22
13 16 21
16 20 26
15 19 25
13 16 22
15 18 24
16 20 26
15 19 25
17 21 27
13 16 21
16 20 26
15 19 25
14 17 22
15 20 26
17 21 27
14 18 23
15 18 24
13 16 21
113 135 169
171 205 255
171 205 255
171 205 255
172 205 255
172 205 255
172 205 255
172 205 255
172 205 255
172 205 255
172 205 255
172 205 255
172 205 255
172 205 255
172 206 255
172 206 255
172 206 255
172 206 255
172 206 255
173 206 255
173 206 255
173 206 255
173 206 255
173 206 255
173 206 255
173 206 255
173 206 255
173 206 255
173 206 255
173 206 255
173 206 255
173 206 255
173 206 255
174 206 255
174 206 255
174 206 255
174 206 255
174 206 255
174 207 255
174 207 255
174 207 255
174 207 255
174 207 255
174 207 255
174 207 255
174 207 255
174 207 255
175 207 255
175 207 255
175 207 255
175 207 255
175 207 255
175 207 255
175 207 255
175 207 255
175 207 255
175 207 255
175 207 255
175 207 255
175 207 255
175 207 255
175 207 255
176 208 255
176 208 255
176 208 255
176 208 255
176 208 255
176 208 255
176 208 255
176 208 255
176 208 255
176 208 255
176 208 255
176 208 255
176 208 255
176 208 255
176 208 255
177 208 255
177 208 255
177 208 255
177 208 255
177 208 255
177 208 255
177 208 255
177 208 255
177 208 255
177 208 255
177 208 255
177 208 255
177 209 255
177 209 255
177 209 255
177 209 255
177 209 255
178 209 255
178 209 255
178 209 255
178 209 255
178 209 255
178 209 255
178 209 255
178 209 255
178 209 255
178 209 255
178 209 255
178 209 255
178 209 255
178 209 255
178 209 255
178 209 255
178 209 255
178 209 255
179 209 255
179 209 255
179 209 255
179 209 255
179 209 255
179 209 255
179 209 255
179 210 255
179 210 255
179 210 255
179 210 255
179 210 255
179 210 255
179 210 255
179 210 255
179 210 255
179 210 255
179 210 255
179 210 255
179 210 255
179 210 255
180 210 255
180 210 255
180 210 255
180 210 255
180 210 255
180 210 255
180 210 255
180 210 255
180 210 255
180 210 255
180 210 255
180 210 255
180 210 255
180 210 255
180 210 255
180 210 255
180 210 255
180 210 255
180 210 255
180 210 255
180 210 255
180 210 255
180 210 255
180 210 255
180 210 255
180 210 255
180 210 255
180 210 255
180 210 255
180 210 255
180 210 255
180 210 255
180 210 255
180 210 255
180 210 255
180 210 255
180 210 255
180 210 255
180 210 255
180 210 255
179 210 255
179 210 255
179 210 255
179 210 255
179 210 255
179 210 255
179 210 255
179 210 255
179 210 255
179 210 255
179 210 255
179 210 255
179 210 255
179 210 255
179 209 255
179 209 255
179 209 255
179 209 255
179 209 255
179 209 255
178 209 255
178 209 255
178 209 255
178 209 255
178 209 255
178 209 255
178 209 255
178 209 255
178 209 255
178 209 255
178 209 255
178 209 255
178 209 255
178 209 255
178 209 255
178 209 255
178 209 255
178 209 255
178 209 255
177 209 255
177 209 255
177 209 255
177 209 255
177 209 255
177 208 255
177 208 255
177 208 255
177 208 255
177 208 255
177 208 255
177 208 255
177 208 255
177 208 255
177 208 255
177 208 255
176 208 255
176 208 255
176 208 255
176 208 255
176 208 255
176 208 255
176 208 255
176 208 255
176 208 255
176 208 255
176 208 255
176 208 255
176 208 255
176 208 255
176 208 255
175 207 255
175 207 255
175 207 255
175 207 255
175 207 255
175 207 255
175 207 255
175 207 255
175 207 255
175 207 255
175 207 255
175 207 255
175 207 255
175 207 255
175 207 255
174 207 255
174 207 255
174 207 255
174 207 255
174 207 255
174 207 255
174 207 255
174 207 255
174 207 255
174 207 255
174 206 255
174 206 255
174 206 255
174 206 255
174 206 255
173 206 255
173 206 255
173 206 255
173 206 255
173 206 255
173 206 255
173 206 255
173 206 255
173 206 255
173 206 255
173 206 255
173 206 255
173 206 255
173 206 255
172 206 255
172 206 255
172 206 255
172 206 255
172 206 255
172 206 255
172 205 255
172 205 255
172 205 255
172 205 255
172 205 255
150 179 223
22 27 35
15 19 24
16 20 26
17 22 28
16 20 25
14 17 21
15 19 25
16 20 26
14 17 22
15 19 25
17 20 26
16 19 25
15 19 24
16 20 26
16 20 25
16 20 26
10 13 17
16 21 27
16 20 26
14 18 23
15 19 24
12 15 19
14 18 23
15 19 25
18 22 28
13 16 21
13 17 21
15 18 24
15 19 25
15 18 24
19 23 29
14 17 22
17 21 27
15 19 25
15 19 25
13 16 21
14 17 22
12 15 20
16 20 25
13 16 20
12 15 20
16 19 24
14 17 21
16 19 25
11 14 18
16 20 26
15 19 24
13 16 21
15 19 25
11 14 18
17 21 27
11 14 19
15 19 25
15 18 24
13 17 22
14 18 23
13 17 21
15 19 25
15 18 24
14 18 24
14 17 22
15 19 24
17 21 27
13 16 21
14 17 22
15 18 23
13 17 22
14 17 22
16 20 26
18 23 30
12 16 21
14 17 23
16 20 26
13 17 22
13 16 21
15 18 24
14 18 24
16 19 25
14 17 22
13 16 21
15 19 25
15 18 24
16 19 25
14 17 23
16 20 26
17 21 27
14 18 23
16 20 25
14 17 22
16 20 26
16 20 26
15 19 25
17 22 28
13 16 20
15 19 24
14 17 22
14 18 23
17 21 27
16 20 27
14 17 22
17 22 28
18 23 30
139 167 208
172 205 255
172 205 255
172 205 255
172 205 255
172 205 255
172 206 255
172 206 255
172 206 255
172 206 255
172 206 255
173 206 255
173 206 255
173 206 255
173 206 255
173 206 255
173 206 255
173 206 255
173 206 255
173 206 255
173 206 255
173 206 255
173 206 255
173 206 255
173 206 255
173 206 255
174 206 255
174 206 255
174 206 255
174 206 255
174 206 255
174 207 255
174 207 255
174 207 255
174 207 255
174 207 255
174 207 255
174 207 255
174 207 255
174 207 255
174 207 255
175 207 255
175 207 255
175 207 255
175 207 255
175 207 255
175 207 255
175 207 255
175 207 255
175 207 255
175 207 255
175 207 255
175 207 255
175 207 255
175 207 255
175 207 255
176 208 255
176 208 255
176 208 255
176 208 255
176 208 255
176 208 255
176 208 255
176 208 255
176 208 255
176 208 255
176 208 255
176 208 255
176 208 255
176 208 255
176 208 255
177 208 255
177 208 255
177 208 255
177 208 255
177 208 255
177 208 255
177 208 255
177 208 255
177 208 255
177 208 255
177 208 255
177 209 255
177 209 255
177 209 255
177 209 255
177 209 255
178 209 255
178 209 255
178 209 255
178 209 255
178 209 255
178 209 255
178 209 255
178 209 255
178 209 255
178 209 255
178 209 255
178 209 255
178 209 255
178 209 255
178 209 255
178 209 255
178 209 255
178 209 255
178 209 255
179 209 255
179 209 255
179 209 255
179 209 255
179 209 255
179 209 255
179 210 255
179 210 255
179 210 255
179 210 255
179 210 255
179 210 255
179 210 255
179 210 255
179 210 255
179 210 255
179 210 255
179 210 255
179 210 255
179 210 255
180 210 255
180 210 255
180 210 255
180 210 255
180 210 255
180 210 255
180 210 255
180 210 255
180 210 255
180 210 255
180 210 255
180 210 255
180 210 255
180 210 255
180 210 255
180 210 255
180 210 255
180 210 255
180 210 255
180 210 255
180 210 255
180 210 255
180 210 255
181 211 255
181 211 255
181 211 255
181 211 255
181 211 255
181 211 255
181 211 255
180 210 255
180 210 255
180 210 255
180 210 255
180 210 255
180 210 255
180 210 255
180 210 255
180 210 255
180 210 255
180 210 255
180 210 255
180 210 255
180 210 255
180 210 255
180 210 255
180 210 255
180 210 255
180 210 255
180 210 255
180 210 255
180 210 255
179 210 255
179 210 255
179 210 255
179 210 255
179 210 255
179 210 255
179 210 255
179 210 255
179 210 255
179 210 255
179 210 255
179 210 255
179 210 255
179 210 255
179 209 255
179 209 255
179 209 255
179 209 255
179 209 255
179 209 255
178 209 255
178 209 255
178 209 255
178 209 255
178 209 255
178 209 255
178 209 255
178 209 255
178 209 255
178 209 255
178 209 255
178 209 255
178 209 255
178 209 255
178 209 255
178 209 255
178 209 255
178 209 255
177 209 255
177 209 255
177 209 255
177 209 255
177 209 255
177 209 255
177 208 255
177 208 255
177 208 255
177 208 255
177 208 255
177 208 255
177 208 255
177 208 255
177 208 255
177 208 255
177 208 255
176 208 255
176 208 255
176 208 255
176 208 255
176 208 255
176 208 255
176 208 255
176 208 255
176 208 255
176 208 255
176 208 255
176 208 255
176 208 255
176 208 255
176 208 255
175 207 255
175 207 255
175 207 255
175 207 255
175 207 255
175 207 255
175 207 255
175 207 255
175 207 255
175 207 255
175 207 255
175 207 255
175 207 255
175 207 255
175 207 255
174 207 255
174 207 255
174 207 255
174 207 255
174 207 255
174 207 255
174 207 255
174 207 255
174 207 255
174 207 255
174 206 255
174 206 255
174 206 255
174 206 255
174 206 255
173 206 255
173 206 255
173 206 255
173 206 255
173 206 255
173 206 255
173 206 255
173 206 255
173 206 255
173 206 255
173 206 255
173 206 255
173 206 255
173 206 255
173 206 255
172 206 255
172 206 255
172 206 255
165 196 244
33 40 51
15 19 24
12 15 19
17 21 27
14 18 23
13 17 22
16 21 27
12 16 20
13 16 21
16 20 26
15 19 24
15 19 25
15 18 24
12 16 21
11 14 19
16 20 26
13 16 21
14 18 23
14 17 22
16 20 26
17 21 27
18 22 28
15 19 24
15 18 24
13 17 22
15 18 24
18 22 28
16 19 25
17 21 27
17 21 27
17 22 28
16 20 26
17 22 28
13 17 21
12 16 20
16 19 25
12 16 21
14 17 22
13 17 22
14 17 22
14 17 22
16 20 26
17 21 28
15 19 24
14 18 23
15 19 24
14 17 22
17 21 26
15 19 24
15 19 24
15 20 26
13 16 22
13 17 22
15 19 24
15 19 24
13 17 22
14 18 23
11 14 19
15 18 23
13 17 22
16 21 28
14 18 23
14 17 22
15 19 25
13 17 22
16 20 27
15 18 24
15 19 24
13 16 20
16 20 27
15 19 25
13 16 20
17 21 28
14 17 22
13 16 21
16 20 26
14 17 22
13 16 21
15 18 24
16 19 25
15 19 25
14 18 23
15 18 23
17 21 27
14 17 22
18 22 29
15 19 25
16 20 25
15 19 25
14 18 24
17 22 28
15 18 23
18 23 30
14 17 22
15 18 23
16 20 26
13 17 22
15 19 25
14 17 22
14 17 22
14 17 23
15 19 24
13 16 21
28 34 43
165 197 244
172 206 255
172 206 255
173 206 255
173 206 255
173 206 255
173 206 255
173 206 255
173 206 255
173 206 255
173 206 255
173 206 255
173 206 255
173 206 255
173 206 255
173 206 255
173 206 255
173 206 255
173 206 255
174 206 255
174 206 255
174 206 255
174 206 255
174 206 255
174 207 255
174 207 255
174 207 255
174 207 255
174 207 255
174 207 255
174 207 255
174 207 255
174 207 255
174 207 255
175 207 255
175 207 255
175 207 255
175 207 255
175 207 255
175 207 255
175 207 255
175 207 255
175 207 255
175 207 255
175 207 255
175 207 255
175 207 255
175 207 255
175 207 255
176 208 255
176 208 255
176 208 255
176 208 255
176 208 255
176 208 255
176 208 255
176 208 255
176 208 255
176 208 255
176 208 255
176 208 255
176 208 255
176 208 255
176 208 255
176 208 255
177 208 255
177 208 255
177 208 255
177 208 255
177 208 255
177 208 255
177 208 255
177 208 255
177 208 255
177 208 255
177 209 255
177 209 255
177 209 255
177 209 255
177 209 255
177 209 255
178 209 255
178 209 255
178 209 255
178 209 255
178 209 255
178 209 255
178 209 255
178 209 255
178 209 255
178 209 255
178 209 255
178 209 255
178 209 255
178 209 255
178 209 255
178 209 255
178 209 255
179 209 255
179 209 255
179 209 255
179 209 255
179 209 255
179 209 255
179 209 255
179 210 255
179 210 255
179 210 255
179 210 255
179 210 255
179 210 255
179 210 255
179 210 255
179 210 255
179 210 255
179 210 255
179 210 255
179 210 255
179 210 255
180 210 255
180 210 255
180 210 255
180 210 255
180 210 255
180 210 255
180 210 255
180 210 255
180 210 255
180 210 255
180 210 255
180 210 255
180 210 255
180 210 255
180 210 255
180 210 255
180 210 255
180 210 255
180 210 255
180 210 255
180 210 255
180 210 255
181 211 255
181 211 255
181 211 255
181 211 255
181 211 255
181 211 255
181 211 255
181 211 255
181 211 255
181 211 255
181 211 255
181 211 255
181 211 255
181 211 255
181 211 255
181 211 255
181 211 255
181 211 255
181 211 255
181 211 255
180 210 255
180 210 255
180 210 255
180 210 255
180 210 255
180 210 255
180 210 255
180 210 255
180 210 255
180 210 255
180 210 255
180 210 255
180 210 255
180 210 255
180 210 255
180 210 255
180 210 255
180 210 255
180 210 255
180 210 255
180 210 255
180 210 255
179 210 255
179 210 255
179 210 255
179 210 255
179 210 255
179 210 255
179 210 255
179 210 255
179 210 255
179 210 255
179 210 255
179 210 255
179 210 255
179 210 255
179 209 255
179 209 255
179 209 255
179 209 255
179 209 255
179 209 255
179 209 255
178 209 255
178 209 255
178 209 255
178 209 255
178 209 255
178 209 255
178 209 255
178 209 255
178 209 255
178 209 255
178 209 255
178 209 255
178 209 255
178 209 255
178 209 255
178 209 255
178 209 255
177 209 255
177 209 255
177 209 255
177 209 255
177 209 255
177 209 255
177 208 255
177 208 255
177 208 255
177 208 255
177 208 255
177 208 255
177 208 255
177 208 255
177 208 255
177 208 255
177 208 255
176 208 255
176 208 255
176 208 255
176 208 255
176 208 255
176 208 255
176 208 255
176 208 255
176 208 255
176 208 255
176 208 255
176 208 255
176 208 255
176 208 255
176 208 255
175 207 255
175 207 255
175 207 255
175 207 255
175 207 255
175 207 255
175 207 255
175 207 255
175 207 255
175 207 255
175 207 255
175 207 255
175 207 255
175 207 255
175 207 255
174 207 255
174 207 255
174 207 255
174 207 255
174 207 255
174 207 255
174 207 255
174 207 255
174 207 255
174 207 255
174 207 255
174 206 255
174 206 255
174 206 255
174 206 255
173 206 255
173 206 255
173 206 255
173 206 255
173 206 255
173 206 255
173 206 255
173 206 255
173 206 255
173 206 255
173 206 255
173 206 255
61 73 92
14 18 23
16 19 25
16 20 25
15 18 24
14 18 23
15 19 24
16 19 25
15 19 25
15 18 24
16 20 26
13 16 21
19 23 30
15 18 24
15 19 25
13 17 22
18 22 28
15 19 24
16 20 26
14 18 24
16 20 26
16 20 26
15 19 24
15 19 25
17 22 28
13 16 21
15 18 23
16 20 26
18 22 29
13 16 21
15 19 24
13 16 21
15 19 24
16 20 26
13 17 22
15 19 25
15 19 25
15 18 24
15 18 24
14 17 22
13 16 21
14 18 23
12 15 20
13 16 21
13 16 21
14 18 23
16 19 25
14 17 22
13 17 22
14 18 23
15 18 24
14 17 23
14 17 22
16 20 26
15 18 24
15 19 25
13 16 21
13 16 20
14 18 24
14 18 24
12 14 19
13 16 21
18 22 28
15 18 24
12 15 20
17 20 26
14 17 23
12 15 19
13 17 22
11 14 18
12 15 20
17 21 27
13 16 21
15 18 24
12 14 18
12 16 21
14 17 23
13 16 21
15 19 24
10 13 17
13 17 22
13 16 21
17 21 27
16 20 25
14 18 23
13 17 23
16 20 26
16 20 26
11 14 18
12 15 19
15 19 24
15 19 25
17 22 29
16 20 26
15 19 24
18 22 28
17 22 28
14 18 23
15 18 24
16 19 25
17 21 28
13 16 21
17 21 27
15 18 24
11 14 18
69 83 103
173 206 255
173 206 255
173 206 255
173 206 255
173 206 255
173 206 255
173 206 255
173 206 255
173 206 255
173 206 255
173 206 255
174 206 255
174 206 255
174 206 255
174 206 255
174 206 255
174 206 255
174 207 255
174 207 255
174 207 255
174 207 255
174 207 255
174 207 255
174 207 255
174 207 255
174 207 255
174 207 255
175 207 255
175 207 255
175 207 255
175 207 255
175 207 255
175 207 255
175 207 255
175 207 255
175 207 255
175 207 255
175 207 255
175 207 255
175 207 255
175 207 255
175 207 255
176 208 255
176 208 255
176 208 255
176 208 255
176 208 255
176 208 255
176 208 255
176 208 255
176 208 255
176 208 255
176 208 255
176 208 255
176 208 255
176 208 255
176 208 255
177 208 255
177 208 255
177 208 255
177 208 255
177 208 255
177 208 255
177 208 255
177 208 255
177 208 255
177 208 255
177 208 255
177 208 255
177 209 255
177 209 255
177 209 255
177 209 255
177 209 255
178 209 255
178 209 255
178 209 255
178 209 255
178 209 255
178 209 255
178 209 255
178 209 255
178 209 255
178 209 255
178 209 255
178 209 255
178 209 255
178 209 255
178 209 255
178 209 255
178 209 255
178 209 255
179 209 255
179 209 255
179 209 255
179 209 255
179 209 255
179 209 255
179 210 255
179 210 255
179 210 255
179 210 255
179 210 255
179 210 255
179 210 255
179 210 255
179 210 255
179 210 255
179 210 255
179 210 255
179 210 255
180 210 255
180 210 255
180 210 255
180 210 255
180 210 255
180 210 255
180 210 255
180 210 255
180 210 255
180 210 255
180 210 255
180 210 255
180 210 255
180 210 255
180 210 255
180 210 255
180 210 255
180 210 255
180 210 255
180 210 255
180 210 255
180 210 255
181 211 255
181 211 255
181 211 255
181 211 255
181 211 255
181 211 255
181 211 255
181 211 255
181 211 255
181 211 255
181 211 255
181 211 255
181 211 255
181 211 255
181 211 255
181 211 255
181 211 255
181 211 255
181 211 255
181 211 255
181 211 255
181 211 255
181 211 255
181 211 255
181 211 255
181 211 255
181 211 255
181 211 255
181 211 255
181 211 255
181 211 255
181 211 255
181 211 255
181 211 255
180 210 255
180 210 255
180 210 255
180 210 255
180 210 255
180 210 255
180 210 255
180 210 255
180 210 255
180 210 255
180 210 255
180 210 255
180 210 255
180 210 255
180 210 255
180 210 255
180 210 255
180 210 255
180 210 255
180 210 255
180 210 255
180 210 255
179 210 255
179 210 255
179 210 255
179 210 255
179 210 255
179 210 255
179 210 255
179 210 255
179 210 255
179 210 255
179 210 255
179 210 255
179 210 255
179 209 255
179 209 255
179 209 255
179 209 255
179 209 255
179 209 255
179 209 255
178 209 255
178 209 255
178 209 255
178 209 255
178 209 255
178 209 255
178 209 255
178 209 255
178 209 255
178 209 255
178 209 255
178 209 255
178 209 255
178 209 255
178 209 255
178 209 255
178 209 255
178 209 255
177 209 255
177 209 255
177 209 255
177 209 255
177 209 255
177 208 255
177 208 255
177 208 255
177 208 255
177 208 255
177 208 255
177 208 255
177 208 255
177 208 255
177 208 255
176 208 255
176 208 255
176 208 255
176 208 255
176 208 255
176 208 255
176 208 255
176 208 255
176 208 255
176 208 255
176 208 255
176 208 255
176 208 255
176 208 255
176 208 255
176 208 255
175 207 255
175 207 255
175 207 255
175 207 255
175 207 255
175 207 255
175 207 255
175 207 255
175 207 255
175 207 255
175 207 255
175 207 255
175 207 255
175 207 255
175 207 255
175 207 255
174 207 255
174 207 255
174 207 255
174 207 255
174 207 255
174 207 255
174 207 255
174 207 255
174 207 255
174 207 255
174 206 255
174 206 255
174 206 255
174 206 255
174 206 255
174 206 255
173 206 255
173 206 255
173 206 255
114 136 169
11 14 18
16 20 26
16 19 25
14 17 23
14 18 24
14 18 24
15 18 23
15 19 25
14 17 22
13 16 21
16 20 26
15 19 24
13 16 20
13 17 22
13 16 22
14 18 24
15 18 23
13 16 20
14 18 23
16 20 26
14 18 23
16 20 26
13 16 21
16 21 27
13 17 22
15 19 24
14 17 22
14 18 23
15 19 24
12 15 20
15 19 24
15 19 24
14 17 23
16 21 27
15 18 24
14 18 23
13 17 22
16 20 26
12 16 21
17 21 27
13 17 22
15 18 24
15 19 24
12 15 20
16 20 25
12 15 20
13 17 21
12 15 20
12 15 20
15 19 24
15 18 24
11 14 17
15 18 23
15 18 24
16 19 25
14 17 21
14 17 22
15 19 24
13 16 22
14 17 23
15 19 24
14 18 23
15 18 24
15 18 24
13 16 21
18 22 29
14 18 23
14 18 23
15 19 25
15 18 23
16 20 26
12 15 20
13 17 22
14 17 21
16 19 25
13 16 21
15 18 24
14 18 23
13 17 22
15 18 24
14 18 23
15 18 24
13 17 21
15 18 24
14 18 23
12 15 20
15 19 25
16 20 26
16 21 27
14 18 24
14 18 24
14 17 22
13 16 21
15 19 24
13 16 21
19 24 31
15 18 23
15 19 25
13 17 22
14 17 23
17 21 26
15 19 24
13 16 21
16 20 27
16 20 27
18 22 29
121 144 179
173 206 255
173 206 255
173 206 255
174 206 255
174 206 255
174 206 255
174 206 255
174 206 255
174 206 255
174 207 255
174 207 255
174 207 255
174 207 255
174 207 255
174 207 255
174 207 255
174 207 255
174 207 255
174 207 255
175 207 255
175 207 255
175 207 255
175 207 255
175 207 255
175 207 255
175 207 255
175 207 255
175 207 255
175 207 255
175 207 255
175 207 255
175 207 255
175 207 255
175 207 255
175 207 255
176 208 255
176 208 255
176 208 255
176 208 255
176 208 255
176 208 255
176 208 255
176 208 255
176 208 255
176 208 255
176 208 255
176 208 255
176 208 255
176 208 255
176 208 255
177 208 255
177 208 255
177 208 255
177 208 255
177 208 255
177 208 255
177 208 255
177 208 255
177 208 255
177 208 255
177 208 255
177 209 255
177 209 255
177 209 255
177 209 255
177 209 255
177 209 255
178 209 255
178 209 255
178 209 255
178 209 255
178 209 255
178 209 255
178 209 255
178 209 255
178 209 255
178 209 255
178 209 255
178 209 255
178 209 255
178 209 255
178 209 255
178 209 255
178 209 255
178 209 255
179 209 255
179 209 255
179 209 255
179 209 255
179 209 255
179 209 255
179 210 255
179 210 255
179 210 255
179 210 255
179 210 255
179 210 255
179 210 255
179 210 255
179 210 255
179 210 255
179 210 255
179 210 255
179 210 255
180 210 255
180 210 255
180 210 255
180 210 255
180 210 255
180 210 255
180 210 255
180 210 255
180 210 255
180 210 255
180 210 255
180 210 255
180 210 255
180 210 255
180 210 255
180 210 255
180 210 255
180 210 255
180 210 255
180 210 255
180 210 255
180 210 255
181 211 255
181 211 255
181 211 255
181 211 255
181 211 255
181 211 255
181 211 255
181 211 255
181 211 255
181 211 255
181 211 255
181 211 255
181 211 255
181 211 255
181 211 255
181 211 255
181 211 255
181 211 255
181 211 255
181 211 255
182 211 255
182 211 255
182 211 255
181 211 255
181 211 255
181 211 255
181 211 255
181 211 255
181 211 255
181 211 255
181 211 255
181 211 255
181 211 255
181 211 255
181 211 255
181 211 255
181 211 255
181 211 255
181 211 255
181 211 255
181 211 255
181 211 255
181 211 255
181 211 255
181 211 255
181 211 255
181 211 255
180 210 255
180 210 255
180 210 255
180 210 255
180 210 255
180 210 255
180 210 255
180 210 255
180 210 255
180 210 255
180 210 255
180 210 255
180 210 255
180 210 255
180 210 255
180 210 255
180 210 255
180 210 255
180 210 255
180 210 255
180 210 255
180 210 255
179 210 255
179 210 255
179 210 255
179 210 255
179 210 255
179 210 255
179 210 255
179 210 255
179 210 255
179 210 255
179 210 255
179 210 255
179 210 255
179 209 255
179 209 255
179 209 255
179 209 255
179 209 255
179 209 255
178 209 255
178 209 255
178 209 255
178 209 255
178 209 255
178 209 255
178 209 255
178 209 255
178 209 255
178 209 255
178 209 255
178 209 255
178 209 255
178 209 255
178 209 255
178 209 255
178 209 255
177 209 255
177 209 255
177 209 255
177 209 255
177 209 255
177 209 255
177 208 255
177 208 255
177 208 255
177 208 255
177 208 255
177 208 255
177 208 255
177 208 255
177 208 255
177 208 255
177 208 255
176 208 255
176 208 255
176 208 255
176 208 255
176 208 255
176 208 255
176 208 255
176 208 255
176 208 255
176 208 255
176 208 255
176 208 255
176 208 255
176 208 255
176 208 255
175 207 255
175 207 255
175 207 255
175 207 255
175 207 255
175 207 255
175 207 255
175 207 255
175 207 255
175 207 255
175 207 255
175 207 255
175 207 255
175 207 255
175 207 255
175 207 255
175 207 255
174 207 255
174 207 255
174 207 255
174 207 255
174 207 255
174 207 255
174 207 255
174 207 255
174 207 255
174 207 255
174 207 255
164 195 241
29 36 46
16 20 26
15 19 24
15 19 24
14 18 24
15 18 24
13 16 20
14 17 22
14 18 23
12 15 20
13 16 21
16 20 26
16 19 25
13 17 22
15 19 24
13 17 23
16 19 25
13 17 22
12 15 19
15 19 25
16 20 26
14 18 23
14 17 22
14 18 23
15 19 24
16 20 26
12 15 20
13 16 21
14 18 23
15 18 24
15 19 24
14 17 22
15 19 24
14 18 23
14 18 23
16 20 25
15 19 24
14 18 23
10 12 16
15 19 24
14 18 23
11 14 18
13 17 22
13 16 21
13 16 21
15 19 25
13 16 21
12 15 20
14 18 24
11 13 17
14 17 22
14 18 23
13 16 21
11 14 18
13 16 21
14 17 23
13 16 21
14 18 23
10 13 17
13 17 22
12 15 19
13 16 21
15 19 25
14 17 22
15 19 24
18 23 29
14 18 24
13 17 21
11 13 17
14 17 22
19 23 30
14 18 23
12 15 20
12 15 19
13 16 21
13 16 21
12 15 20
16 20 26
14 18 23
15 19 25
13 16 21
12 15 20
12 15 20
13 17 22
16 20 26
14 17 22
14 18 23
16 21 27
14 17 22
16 19 25
12 15 20
14 17 23
13 16 21
17 21 26
13 16 21
14 17 22
15 19 25
16 20 26
16 20 25
16 20 26
16 20 26
15 18 24
13 16 21
14 18 23
16 20 26
15 19 25
14 17 22
18 22 28
161 191 237
174 207 255
174 207 255
174 207 255
174 207 255
174 207 255
174 207 255
174 207 255
174 207 255
174 207 255
174 207 255
174 207 255
175 207 255
175 207 255
175 207 255
175 207 255
175 207 255
175 207 255
175 207 255
175 207 255
175 207 255
175 207 255
175 207 255
175 207 255
175 207 255
175 207 255
175 207 255
175 207 255
176 208 255
176 208 255
176 208 255
176 208 255
176 208 255
176 208 255
176 208 255
176 208 255
176 208 255
176 208 255
176 208 255
176 208 255
176 208 255
176 208 255
176 208 255
176 208 255
177 208 255
177 208 255
177 208 255
177 208 255
177 208 255
177 208 255
177 208 255
177 208 255
177 208 255
177 208 255
177 208 255
177 209 255
177 209 255
177 209 255
177 209 255
177 209 255
177 209 255
178 209 255
178 209 255
178 209 255
178 209 255
178 209 255
178 209 255
178 209 255
178 209 255
178 209 255
178 209 255
178 209 255
178 209 255
178 209 255
178 209 255
178 209 255
178 209 255
178 209 255
179 209 255
179 209 255
179 209 255
179 209 255
179 209 255
179 209 255
179 209 255
179 210 255
179 210 255
179 210 255
179 210 255
179 210 255
179 210 255
179 210 255
179 210 255
179 210 255
179 210 255
179 210 255
179 210 255
180 210 255
180 210 255
180 210 255
180 210 255
180 210 255
180 210 255
180 210 255
180 210 255
180 210 255
180 210 255
180 210 255
180 210 255
180 210 255
180 210 255
180 210 255
180 210 255
180 210 255
180 210 255
180 210 255
180 210 255
180 210 255
180 210 255
181 211 255
181 211 255
181 211 255
181 211 255
181 211 255
181 211 255
181 211 255
181 211 255
181 211 255
181 211 255
181 211 255
181 211 255
181 211 255
181 211 255
181 211 255
181 211 255
181 211 255
181 211 255
181 211 255
181 211 255
181 211 255
181 211 255
181 211 255
181 211 255
182 211 255
182 211 255
182 211 255
182 211 255
182 211 255
182 211 255
182 211 255
182 211 255
182 211 255
182 211 255
182 211 255
182 211 255
182 211 255
181 211 255
181 211 255
181 211 255
181 211 255
181 211 255
181 211 255
181 211 255
181 211 255
181 211 255
181 211 255
181 211 255
181 211 255
181 211 255
181 211 255
181 211 255
181 211 255
181 211 255
181 211 255
181 211 255
181 211 255
181 211 255
181 211 255
181 211 255
181 211 255
180 210 255
180 210 255
180 210 255
180 210 255
180 210 255
180 210 255
180 210 255
180 210 255
180 210 255
180 210 255
180 210 255
180 210 255
180 210 255
180 210 255
180 210 255
180 210 255
180 210 255
180 210 255
180 210 255
180 210 255
180 210 255
179 210 255
179 210 255
179 210 255
179 210 255
179 210 255
179 210 255
179 210 255
179 210 255
179 210 255
179 210 255
179 210 255
179 210 255
179 210 255
179 209 255
179 209 255
179 209 255
179 209 255
179 209 255
179 209 255
178 209 255
178 209 255
178 209 255
178 209 255
178 209 255
178 209 255
178 209 255
178 209 255
178 209 255
178 209 255
178 209 255
178 209 255
178 209 255
178 209 255
178 209 255
178 209 255
178 209 255
178 209 255
177 209 255
177 209 255
177 209 255
177 209 255
177 209 255
177 209 255
177 208 255
177 208 255
177 208 255
177 208 255
177 208 255
177 208 255
177 208 255
177 208 255
177 208 255
177 208 255
176 208 255
176 208 255
176 208 255
176 208 255
176 208 255
176 208 255
176 208 255
176 208 255
176 208 255
176 208 255
176 208 255
176 208 255
176 208 255
176 208 255
176 208 255
176 208 255
176 208 255
175 207 255
175 207 255
175 207 255
175 207 255
175 207 255
175 207 255
175 207 255
175 207 255
175 207 255
175 207 255
175 207 255
175 207 255
175 207 255
175 207 255
175 207 255
175 207 255
174 207 255
174 207 255
174 207 255
174 207 255
59 71 88
17 21 28
15 19 25
14 18 24
13 17 22
14 18 23
14 18 23
12 16 20
17 21 27
12 16 20
13 16 21
14 17 22
14 17 23
14 17 23
16 20 26
13 17 22
14 18 23
14 18 23
16 20 25
17 21 26
12 15 20
14 17 23
17 21 28
15 18 24
16 19 25
10 13 16
15 19 25
15 18 22
16 20 26
13 17 22
15 18 23
12 14 18
14 17 23
13 16 21
16 20 26
13 16 20
16 20 25
12 15 20
13 17 22
16 19 25
13 16 20
14 18 23
15 18 24
15 19 24
16 20 25
15 19 24
15 18 24
12 16 20
14 17 22
15 18 24
17 20 26
12 15 20
14 18 24
13 16 21
13 16 21
13 17 21
14 17 22
14 17 22
15 18 24
14 17 22
13 17 21
13 17 22
13 17 22
14 17 22
14 17 22
14 17 22
13 16 21
16 19 25
15 18 23
14 17 22
14 17 23
16 20 26
12 15 20
14 17 22
14 18 23
13 16 21
13 16 20
13 17 22
15 18 23
16 19 25
13 17 22
15 19 25
15 19 25
14 18 23
16 20 26
14 17 22
13 16 20
15 18 23
11 14 18
13 17 22
13 16 20
18 22 28
14 17 22
15 19 25
15 18 24
13 16 21
12 16 21
18 22 29
12 15 19
15 19 24
15 19 24
16 19 25
13 16 21
15 19 25
14 18 23
15 19 24
18 22 29
16 20 25
17 21 27
67 80 100
174 207 255
174 207 255
174 207 255
174 207 255
175 207 255
175 207 255
175 207 255
175 207 255
175 207 255
175 207 255
175 207 255
175 207 255
175 207 255
175 207 255
175 207 255
175 207 255
175 207 255
175 207 255
175 207 255
175 207 255
175 207 255
176 208 255
176 208 255
176 208 255
176 208 255
176 208 255
176 208 255
176 208 255
176 208 255
176 208 255
176 208 255
176 208 255
176 208 255
176 208 255
176 208 255
176 208 255
176 208 255
177 208 255
177 208 255
177 208 255
177 208 255
177 208 255
177 208 255
177 208 255
177 208 255
177 208 255
177 208 255
177 208 255
177 209 255
177 209 255
177 209 255
177 209 255
177 209 255
178 209 255
178 209 255
178 209 255
178 209 255
178 209 255
178 209 255
178 209 255
178 209 255
178 209 255
178 209 255
178 209 255
178 209 255
178 209 255
178 209 255
178 209 255
178 209 255
178 209 255
178 209 255
179 209 255
179 209 255
179 209 255
179 209 255
179 209 255
179 210 255
179 210 255
179 210 255
179 210 255
179 210 255
179 210 255
179 210 255
179 210 255
179 210 255
179 210 255
179 210 255
179 210 255
179 210 255
179 210 255
180 210 255
180 210 255
180 210 255
180 210 255
180 210 255
180 210 255
180 210 255
180 210 255
180 210 255
180 210 255
180 210 255
180 210 255
180 210 255
180 210 255
180 210 255
180 210 255
180 210 255
180 210 255
180 210 255
180 210 255
180 210 255
181 211 255
181 211 255
181 211 255
181 211 255
181 211 255
181 211 255
181 211 255
181 211 255
181 211 255
181 211 255
181 211 255
181 211 255
181 211 255
181 211 255
181 211 255
181 211 255
181 211 255
181 211 255
181 211 255
181 211 255
181 211 255
181 211 255
181 211 255
181 211 255
182 211 255
182 211 255
182 211 255
182 211 255
182 211 255
182 211 255
182 211 255
182 211 255
182 211 255
182 211 255
182 211 255
182 211 255
182 211 255
182 211 255
182 211 255
182 211 255
182 211 255
182 211 255
182 211 255
182 211 255
182 211 255
182 211 255
182 211 255
182 211 255
182 211 255
182 211 255
182 211 255
181 211 255
181 211 255
181 211 255
181 211 255
181 211 255
181 211 255
181 211 255
181 211 255
181 211 255
181 211 255
181 211 255
181 211 255
181 211 255
181 211 255
181 211 255
181 211 255
181 211 255
181 211 255
181 211 255
181 211 255
181 211 255
181 211 255
181 211 255
181 211 255
180 210 255
180 210 255
180 210 255
180 210 255
180 210 255
180 210 255
180 210 255
180 210 255
180 210 255
180 210 255
180 210 255
180 210 255
180 210 255
180 210 255
180 210 255
180 210 255
180 210 255
180 210 255
180 210 255
180 210 255
180 210 255
179 210 255
179 210 255
179 210 255
179 210 255
179 210 255
179 210 255
179 210 255
179 210 255
179 210 255
179 210 255
179 210 255
179 210 255
179 210 255
179 209 255
179 209 255
179 209 255
179 209 255
179 209 255
179 209 255
178 209 255
178 209 255
178 209 255
178 209 255
178 209 255
178 209 255
178 209 255
178 209 255
178 209 255
178 209 255
178 209 255
178 209 255
178 209 255
178 209 255
178 209 255
178 209 255
178 209 255
178 209 255
177 209 255
177 209 255
177 209 255
177 209 255
177 209 255
177 208 255
177 208 255
177 208 255
177 208 255
177 208 255
177 208 255
177 208 255
177 208 255
177 208 255
177 208 255
177 208 255
176 208 255
176 208 255
176 208 255
176 208 255
176 208 255
176 208 255
176 208 255
176 208 255
176 208 255
176 208 255
176 208 255
176 208 255
176 208 255
176 208 255
176 208 255
176 208 255
175 207 255
175 207 255
175 207 255
175 207 255
175 207 255
175 207 255
175 207 255
175 207 255
175 207 255
175 207 255
175 207 255
175 207 255
175 207 255
120 143 177
16 20 25
15 18 24
17 21 26
17 21 27
14 18 23
13 16 21
15 19 24
16 20 25
14 17 22
17 22 29
15 18 24
16 19 25
15 19 24
12 15 20
16 20 26
19 24 31
15 19 24
14 17 22
16 20 26
15 19 24
13 16 21
15 19 24
16 19 25
13 17 22
17 21 27
17 21 27
17 20 26
13 17 22
13 16 21
16 19 25
16 20 26
13 17 22
15 19 25
14 17 22
13 16 20
16 20 26
15 19 25
12 15 20
14 18 23
15 18 24
16 20 27
14 17 23
13 17 22
15 19 24
13 15 20
13 16 21
15 18 23
11 14 19
15 19 24
13 16 21
15 18 24
13 15 20
15 18 24
14 17 22
14 18 23
15 19 25
13 16 21
14 17 22
13 16 21
13 16 21
14 18 23
15 18 24
13 16 21
12 16 20
15 18 23
14 18 23
13 17 22
13 16 21
11 14 18
15 19 24
14 17 22
14 18 23
19 24 31
13 16 21
15 18 23
13 17 22
13 17 21
18 22 28
12 15 19
14 17 22
17 22 28
13 17 23
15 19 25
14 17 23
13 17 22
15 18 23
16 20 26
13 17 23
16 20 26
16 20 26
14 18 23
15 19 25
14 18 23
15 19 25
13 16 21
16 20 26
13 16 21
15 18 23
13 17 22
15 19 24
15 19 25
11 14 19
15 18 24
13 16 21
14 17 22
15 19 24
15 19 25
16 20 25
16 20 26
16 20 26
129 154 190
175 207 255
175 207 255
175 207 255
175 207 255
175 207 255
175 207 255
175 207 255
175 207 255
175 207 255
175 207 255
175 207 255
175 207 255
176 208 255
176 208 255
176 208 255
176 208 255
176 208 255
176 208 255
176 208 255
176 208 255
176 208 255
176 208 255
176 208 255
176 208 255
176 208 255
176 208 255
176 208 255
176 208 255
176 208 255
177 208 255
177 208 255
177 208 255
177 208 255
177 208 255
177 208 255
177 208 255
177 208 255
177 208 255
177 208 255
177 208 255
177 209 255
177 209 255
177 209 255
177 209 255
177 209 255
177 209 255
178 209 255
178 209 255
178 209 255
178 209 255
178 209 255
178 209 255
178 209 255
178 209 255
178 209 255
178 209 255
178 209 255
178 209 255
178 209 255
178 209 255
178 209 255
178 209 255
178 209 255
179 209 255
179 209 255
179 209 255
179 209 255
179 209 255
179 209 255
179 210 255
179 210 255
179 210 255
179 210 255
179 210 255
179 210 255
179 210 255
179 210 255
179 210 255
179 210 255
179 210 255
179 210 255
179 210 255
180 210 255
180 210 255
180 210 255
180 210 255
180 210 255
180 210 255
180 210 255
180 210 255
180 210 255
180 210 255
180 210 255
180 210 255
180 210 255
180 210 255
180 210 255
180 210 255
180 210 255
180 210 255
180 210 255
180 210 255
180 210 255
181 211 255
181 211 255
181 211 255
181 211 255
181 211 255
181 211 255
181 211 255
181 211 255
181 211 255
181 211 255
181 211 255
181 211 255
181 211 255
181 211 255
181 211 255
181 211 255
181 211 255
181 211 255
181 211 255
181 211 255
181 211 255
181 211 255
181 211 255
181 211 255
182 211 255
182 211 255
182 211 255
182 211 255
182 211 255
182 211 255
182 211 255
182 211 255
182 211 255
182 211 255
182 211 255
182 211 255
182 211 255
182 211 255
182 211 255
182 211 255
182 211 255
182 212 255
182 212 255
182 212 255
182 212 255
182 212 255
182 212 255
182 211 255
182 211 255
182 211 255
182 211 255
182 211 255
182 211 255
182 211 255
182 211 255
182 211 255
182 211 255
182 211 255
182 211 255
182 211 255
182 211 255
182 211 255
182 211 255
182 211 255
182 211 255
181 211 255
181 211 255
181 211 255
181 211 255
181 211 255
181 211 255
181 211 255
181 211 255
181 211 255
181 211 255
181 211 255
181 211 255
181 211 255
181 211 255
181 211 255
181 211 255
181 211 255
181 211 255
181 211 255
181 211 255
181 211 255
181 211 255
181 211 255
181 211 255
180 210 255
180 210 255
180 210 255
180 210 255
180 210 255
180 210 255
180 210 255
180 210 255
180 210 255
180 210 255
180 210 255
180 210 255
180 210 255
180 210 255
180 210 255
180 210 255
180 210 255
180 210 255
180 210 255
180 210 255
180 210 255
179 210 255
179 210 255
179 210 255
179 210 255
179 210 255
179 210 255
179 210 255
179 210 255
179 210 255
179 210 255
179 210 255
179 210 255
179 209 255
179 209 255
179 209 255
179 209 255
179 209 255
179 209 255
178 209 255
178 209 255
178 209 255
178 209 255
178 209 255
178 209 255
178 209 255
178 209 255
178 209 255
178 209 255
178 209 255
178 209 255
178 209 255
178 209 255
178 209 255
178 209 255
178 209 255
178 209 255
177 209 255
177 209 255
177 209 255
177 209 255
177 209 255
177 209 255
177 208 255
177 208 255
177 208 255
177 208 255
177 208 255
177 208 255
177 208 255
177 208 255
177 208 255
177 208 255
177 208 255
176 208 255
176 208 255
176 208 255
176 208 255
176 208 255
176 208 255
176 208 255
176 208 255
176 208 255
176 208 255
176 208 255
176 208 255
176 208 255
176 208 255
176 208 255
176 208 255
176 208 255
175 207 255
175 207 255
175 207 255
175 207 255
169 200 246
29 36 45
15 19 24
16 20 25
16 20 26
15 18 24
13 16 21
14 17 22
14 18 23
13 16 21
15 18 24
13 17 22
16 19 25
15 19 24
17 21 27
16 20 26
16 20 26
16 20 26
13 16 21
14 18 23
14 17 22
18 22 28
15 19 25
14 17 22
13 16 21
15 18 23
13 17 21
16 20 26
13 17 21
17 21 27
12 15 20
16 20 26
14 18 23
17 21 28
13 16 21
15 18 24
13 16 20
15 20 26
13 16 20
15 18 24
14 18 24
16 19 25
15 18 24
13 16 21
10 13 17
12 15 20
14 17 22
14 18 23
11 13 17
15 19 25
13 16 21
13 16 21
10 13 17
15 18 24
16 19 25
11 14 18
12 16 21
13 17 22
12 14 19
13 16 21
11 14 18
14 17 22
15 19 25
14 17 22
14 17 23
14 17 23
15 18 24
12 15 20
14 18 22
14 18 23
13 16 21
16 20 26
14 17 22
15 18 23
15 19 24
13 17 22
16 20 27
14 17 23
13 16 21
14 18 24
14 17 23
16 21 27
16 19 25
12 15 19
14 17 23
12 15 20
16 19 25
17 21 27
16 20 26
15 19 25
15 19 25
15 19 25
12 15 20
15 19 25
13 16 21
12 16 21
16 20 26
15 20 26
15 18 24
15 19 25
16 19 25
15 19 25
14 18 23
14 18 23
15 19 26
15 18 24
17 21 28
15 18 23
15 19 25
14 17 22
12 15 20
14 18 23
35 42 53
165 196 241
175 207 255
175 207 255
175 207 255
175 207 255
176 208 255
176 208 255
176 208 255
176 208 255
176 208 255
176 208 255
176 208 255
176 208 255
176 208 255
176 208 255
176 208 255
176 208 255
176 208 255
176 208 255
176 208 255
176 208 255
176 208 255
177 208 255
177 208 255
177 208 255
177 208 255
177 208 255
177 208 255
177 208 255
177 208 255
177 208 255
177 208 255
177 208 255
177 209 255
177 209 255
177 209 255
177 209 255
177 209 255
177 209 255
178 209 255
178 209 255
178 209 255
178 209 255
178 209 255
178 209 255
178 209 255
178 209 255
178 209 255
178 209 255
178 209 255
178 209 255
178 209 255
178 209 255
178 209 255
178 209 255
178 209 255
179 209 255
179 209 255
179 209 255
179 209 255
179 209 255
179 209 255
179 210 255
179 210 255
179 210 255
179 210 255
179 210 255
179 210 255
179 210 255
179 210 255
179 210 255
179 210 255
179 210 255
179 210 255
179 210 255
180 210 255
180 210 255
180 210 255
180 210 255
180 210 255
180 210 255
180 210 255
180 210 255
180 210 255
180 210 255
180 210 255
180 210 255
180 210 255
180 210 255
180 210 255
180 210 255
180 210 255
180 210 255
180 210 255
180 210 255
180 210 255
181 211 255
181 211 255
181 211 255
181 211 255
181 211 255
181 211 255
181 211 255
181 211 255
181 211 255
181 211 255
181 211 255
181 211 255
181 211 255
181 211 255
181 211 255
181 211 255
181 211 255
181 211 255
181 211 255
181 211 255
181 211 255
181 211 255
181 211 255
181 211 255
182 211 255
182 211 255
182 211 255
182 211 255
182 211 255
182 211 255
182 211 255
182 211 255
182 211 255
182 211 255
182 211 255
182 211 255
182 211 255
182 211 255
182 211 255
182 211 255
182 211 255
182 211 255
182 212 255
182 212 255
182 212 255
182 212 255
182 212 255
182 212 255
183 212 255
183 212 255
183 212 255
183 212 255
183 212 255
182 212 255
182 212 255
182 212 255
182 212 255
182 212 255
182 212 255
182 212 255
182 212 255
182 212 255
182 211 255
182 211 255
182 211 255
182 211 255
182 211 255
182 211 255
182 211 255
182 211 255
182 211 255
182 211 255
182 211 255
182 211 255
182 211 255
182 211 255
182 211 255
182 211 255
182 211 255
182 211 255
181 211 255
181 211 255
181 211 255
181 211 255
181 211 255
181 211 255
181 211 255
181 211 255
181 211 255
181 211 255
181 211 255
181 211 255
181 211 255
181 211 255
181 211 255
181 211 255
181 211 255
181 211 255
181 211 255
181 211 255
181 211 255
181 211 255
181 211 255
180 210 255
180 210 255
180 210 255
180 210 255
180 210 255
180 210 255
180 210 255
180 210 255
180 210 255
180 210 255
180 210 255
180 210 255
180 210 255
180 210 255
180 210 255
180 210 255
180 210 255
180 210 255
180 210 255
180 210 255
180 210 255
179 210 255
179 210 255
179 210 255
179 210 255
179 210 255
179 210 255
179 210 255
179 210 255
179 210 255
179 210 255
179 210 255
179 210 255
179 209 255
179 209 255
179 209 255
179 209 255
179 209 255
179 209 255
178 209 255
178 209 255
178 209 255
178 209 255
178 209 255
178 209 255
178 209 255
178 209 255
178 209 255
178 209 255
178 209 255
178 209 255
178 209 255
178 209 255
178 209 255
178 209 255
178 209 255
178 209 255
177 209 255
177 209 255
177 209 255
177 209 255
177 209 255
177 209 255
177 208 255
177 208 255
177 208 255
177 208 255
177 208 255
177 208 255
177 208 255
177 208 255
177 208 255
177 208 255
177 208 255
177 208 255
176 208 255
176 208 255
176 208 255
176 208 255
176 208 255
176 208 255
176 208 255
176 208 255
176 208 255
176 208 255
176 208 255
176 208 255
176 208 255
108 128 159
15 19 24
11 14 18
12 16 21
14 18 22
12 15 20
14 18 23
16 19 25
16 20 26
16 20 26
15 19 25
13 16 21
15 18 24
15 19 24
17 21 28
16 20 26
13 16 21
16 20 26
14 17 22
14 17 22
13 17 22
14 17 22
13 16 20
15 19 24
14 18 23
14 18 24
13 16 21
14 17 22
11 14 19
16 20 26
12 16 21
13 16 20
14 18 23
16 20 26
15 18 23
13 16 21
14 18 23
13 16 20
16 20 26
15 19 25
14 17 22
15 19 25
17 21 27
15 19 24
16 20 26
14 18 23
11 14 18
12 16 20
14 18 23
14 18 24
16 20 25
13 16 21
14 18 23
14 18 23
16 20 26
15 18 24
13 16 21
11 14 19
14 17 23
14 18 24
13 16 21
15 18 23
12 15 19
13 16 20
12 15 19
14 18 23
12 15 20
12 14 18
16 20 26
13 16 20
12 14 18
12 15 19
15 19 25
14 17 22
14 17 22
16 20 27
14 17 22
11 15 20
13 16 21
13 17 22
15 19 25
15 19 24
14 18 23
13 16 21
13 17 22
14 18 24
13 16 21
14 17 22
15 19 24
14 17 22
12 15 20
11 14 18
11 14 18
12 15 20
12 15 19
12 15 20
17 21 27
12 15 20
16 20 25
13 16 20
13 16 22
15 18 24
16 21 28
14 18 23
11 14 18
16 20 26
14 18 23
14 17 22
15 19 25
16 20 25
13 16 22
14 17 22
15 19 25
80 95 117
176 208 255
176 208 255
176 208 255
176 208 255
176 208 255
176 208 255
176 208 255
176 208 255
176 208 255
176 208 255
176 208 255
176 208 255
176 208 255
176 208 255
177 208 255
177 208 255
177 208 255
177 208 255
177 208 255
177 208 255
177 208 255
177 208 255
177 208 255
177 208 255
177 208 255
177 209 255
177 209 255
177 209 255
177 209 255
177 209 255
177 209 255
178 209 255
178 209 255
178 209 255
178 209 255
178 209 255
178 209 255
178 209 255
178 209 255
178 209 255
178 209 255
178 209 255
178 209 255
178 209 255
178 209 255
178 209 255
178 209 255
178 209 255
179 209 255
179 209 255
179 209 255
179 209 255
179 209 255
179 209 255
179 209 255
179 210 255
179 210 255
179 210 255
179 210 255
179 210 255
179 210 255
179 210 255
179 210 255
179 210 255
179 210 255
179 210 255
179 210 255
180 210 255
180 210 255
180 210 255
180 210 255
180 210 255
180 210 255
180 210 255
180 210 255
180 210 255
180 210 255
180 210 255
180 210 255
180 210 255
180 210 255
180 210 255
180 210 255
180 210 255
180 210 255
180 210 255
180 210 255
180 210 255
181 211 255
181 211 255
181 211 255
181 211 255
181 211 255
181 211 255
181 211 255
181 211 255
181 211 255
181 211 255
181 211 255
181 211 255
181 211 255
181 211 255
181 211 255
181 211 255
181 211 255
181 211 255
181 211 255
181 211 255
181 211 255
181 211 255
181 211 255
182 211 255
182 211 255
182 211 255
182 211 255
182 211 255
182 211 255
182 211 255
182 211 255
182 211 255
182 211 255
182 211 255
182 211 255
182 211 255
182 211 255
182 211 255
182 211 255
182 211 255
182 211 255
182 212 255
182 212 255
182 212 255
182 212 255
182 212 255
182 212 255
182 212 255
182 212 255
182 212 255
183 212 255
183 212 255
183 212 255
183 212 255
183 212 255
183 212 255
183 212 255
183 212 255
183 212 255
183 212 255
183 212 255
183 212 255
183 212 255
183 212 255
183 212 255
183 212 255
183 212 255
183 212 255
182 212 255
182 212 255
182 212 255
182 212 255
182 212 255
182 212 255
182 212 255
182 212 255
182 212 255
182 211 255
182 211 255
182 211 255
182 211 255
182 211 255
182 211 255
182 211 255
182 211 255
182 211 255
182 211 255
182 211 255
182 211 255
182 211 255
182 211 255
182 211 255
182 211 255
182 211 255
181 211 255
181 211 255
181 211 255
181 211 255
181 211 255
181 211 255
181 211 255
181 211 255
181 211 255
181 211 255
181 211 255
181 211 255
181 211 255
181 211 255
181 211 255
181 211 255
181 211 255
181 211 255
181 211 255
181 211 255
181 211 255
181 211 255
181 211 255
180 210 255
180 210 255
180 210 255
180 210 255
180 210 255
180 210 255
180 210 255
180 210 255
180 210 255
180 210 255
180 210 255
180 210 255
180 210 255
180 210 255
180 210 255
180 210 255
180 210 255
180 210 255
180 210 255
180 210 255
180 210 255
179 210 255
179 210 255
179 210 255
179 210 255
179 210 255
179 210 255
179 210 255
179 210 255
179 210 255
179 210 255
179 210 255
179 210 255
179 210 255
179 209 255
179 209 255
179 209 255
179 209 255
179 209 255
178 209 255
178 209 255
178 209 255
178 209 255
178 209 255
178 209 255
178 209 255
178 209 255
178 209 255
178 209 255
178 209 255
178 209 255
178 209 255
178 209 255
178 209 255
178 209 255
178 209 255
178 209 255
178 209 255
177 209 255
177 209 255
177 209 255
177 209 255
177 209 255
177 209 255
177 208 255
177 208 255
177 208 255
177 208 255
177 208 255
177 208 255
177 208 255
177 208 255
177 208 255
177 208 255
177 208 255
177 208 255
176 208 255
176 208 255
176 208 255
176 208 255
159 187 230
22 27 34
14 18 23
14 18 23
16 21 27
13 17 22
14 18 24
16 20 26
17 21 26
14 18 23
13 16 21
15 19 25
16 20 26
16 20 25
13 16 21
14 18 23
14 18 24
16 20 25
14 17 22
14 17 23
13 17 22
14 17 22
18 22 28
12 16 20
12 15 19
15 18 23
14 18 23
13 17 21
14 18 23
13 17 21
13 16 21
13 16 21
12 16 20
14 18 23
13 16 20
14 17 22
15 19 24
16 20 26
14 18 23
12 15 19
15 19 25
12 16 21
15 19 24
11 13 16
12 14 19
14 17 22
14 18 23
13 17 22
13 16 21
12 15 20
13 16 21
13 16 21
17 21 27
14 18 23
16 20 26
10 12 16
10 12 16
15 18 24
11 14 18
12 15 19
15 18 23
14 18 23
12 16 21
14 18 23
15 19 25
13 16 21
15 18 24
10 13 17
13 16 21
19 24 31
13 16 21
13 17 22
15 19 25
15 18 24
15 18 24
17 21 28
17 21 27
15 18 24
13 16 21
14 18 23
13 17 22
15 18 23
13 16 21
14 18 23
12 15 20
16 20 26
14 18 23
12 14 19
13 16 22
15 19 24
16 20 26
15 19 25
14 17 22
15 18 22
13 16 21
12 16 20
16 21 27
15 19 24
13 17 22
16 20 26
14 18 23
11 14 19
14 17 22
14 17 22
13 16 21
13 16 20
14 17 22
17 20 26
17 21 27
14 17 22
14 18 25
15 19 24
17 21 28
16 20 26
22 27 34
162 191 235
176 208 255
176 208 255
176 208 255
176 208 255
177 208 255
177 208 255
177 208 255
177 208 255
177 208 255
177 208 255
177 208 255
177 208 255
177 208 255
177 208 255
177 208 255
177 208 255
177 208 255
177 209 255
177 209 255
177 209 255
177 209 255
177 209 255
177 209 255
178 209 255
178 209 255
178 209 255
178 209 255
178 209 255
178 209 255
178 209 255
178 209 255
178 209 255
178 209 255
178 209 255
178 209 255
178 209 255
178 209 255
178 209 255
178 209 255
178 209 255
178 209 255
179 209 255
179 209 255
179 209 255
179 209 255
179 209 255
179 210 255
179 210 255
179 210 255
179 210 255
179 210 255
179 210 255
179 210 255
179 210 255
179 210 255
179 210 255
179 210 255
179 210 255
179 210 255
180 210 255
180 210 255
180 210 255
180 210 255
180 210 255
180 210 255
180 210 255
180 210 255
180 210 255
180 210 255
180 210 255
180 210 255
180 210 255
180 210 255
180 210 255
180 210 255
180 210 255
180 210 255
180 210 255
180 210 255
181 211 255
181 211 255
181 211 255
181 211 255
181 211 255
181 211 255
181 211 255
181 211 255
181 211 255
181 211 255
181 211 255
181 211 255
181 211 255
181 211 255
181 211 255
181 211 255
181 211 255
181 211 255
181 211 255
181 211 255
181 211 255
181 211 255
181 211 255
182 211 255
182 211 255
182 211 255
182 211 255
182 211 255
182 211 255
182 211 255
182 211 255
182 211 255
182 211 255
182 211 255
182 211 255
182 211 255
182 211 255
182 211 255
182 211 255
182 211 255
182 211 255
182 212 255
182 212 255
182 212 255
182 212 255
182 212 255
182 212 255
182 212 255
182 212 255
182 212 255
183 212 255
183 212 255
183 212 255
183 212 255
183 212 255
183 212 255
183 212 255
183 212 255
183 212 255
183 212 255
183 212 255
183 212 255
183 212 255
183 212 255
183 212 255
183 212 255
183 212 255
183 212 255
183 212 255
183 212 255
183 212 255
183 212 255
183 212 255
183 212 255
183 212 255
183 212 255
183 212 255
183 212 255
183 212 255
183 212 255
183 212 255
183 212 255
183 212 255
183 212 255
182 212 255
182 212 255
182 212 255
182 212 255
182 212 255
182 212 255
182 212 255
182 212 255
182 212 255
182 212 255
182 211 255
182 211 255
182 211 255
182 211 255
182 211 255
182 211 255
182 211 255
182 211 255
182 211 255
182 211 255
182 211 255
182 211 255
182 211 255
182 211 255
182 211 255
182 211 255
181 211 255
181 211 255
181 211 255
181 211 255
181 211 255
181 211 255
181 211 255
181 211 255
181 211 255
181 211 255
181 211 255
181 211 255
181 211 255
181 211 255
181 211 255
181 211 255
181 211 255
181 211 255
181 211 255
181 211 255
181 211 255
181 211 255
181 211 255
180 210 255
180 210 255
180 210 255
180 210 255
180 210 255
180 210 255
180 210 255
180 210 255
180 210 255
180 210 255
180 210 255
180 210 255
180 210 255
180 210 255
180 210 255
180 210 255
180 210 255
180 210 255
180 210 255
180 210 255
179 210 255
179 210 255
179 210 255
179 210 255
179 210 255
179 210 255
179 210 255
179 210 255
179 210 255
179 210 255
179 210 255
179 210 255
179 210 255
179 209 255
179 209 255
179 209 255
179 209 255
179 209 255
179 209 255
178 209 255
178 209 255
178 209 255
178 209 255
178 209 255
178 209 255
178 209 255
178 209 255
178 209 255
178 209 255
178 209 255
178 209 255
178 209 255
178 209 255
178 209 255
178 209 255
178 209 255
178 209 255
178 209 255
177 209 255
177 209 255
177 209 255
177 209 255
177 209 255
177 209 255
177 208 255
177 208 255
177 208 255
177 208 255
177 208 255
177 208 255
177 208 255
177 208 255
88 105 129
13 16 21
14 17 22
11 14 17
17 21 27
14 18 23
14 18 23
14 18 24
13 17 21
16 19 25
16 20 25
16 20 26
12 15 19
14 18 22
15 18 23
12 15 20
13 16 21
14 18 23
15 19 24
13 17 22
12 16 20
14 17 23
14 18 23
14 18 23
14 17 22
15 18 23
12 15 20
15 19 24
15 19 24
14 17 23
19 23 30
15 19 25
14 17 23
12 16 21
13 17 22
14 17 23
11 14 18
13 16 21
16 20 25
13 16 21
13 16 20
14 17 23
12 15 19
14 18 24
16 20 26
13 16 20
15 19 25
12 16 21
16 19 25
13 16 20
13 16 20
12 15 20
12 15 20
13 16 21
14 17 22
15 18 24
14 17 22
13 16 21
12 15 20
14 17 23
12 15 20
14 18 23
14 17 22
14 17 22
15 18 24
14 17 22
14 17 22
13 16 21
12 15 19
16 20 26
14 17 23
12 15 19
17 22 28
16 20 26
13 16 21
16 20 26
14 17 22
13 17 21
15 18 23
14 17 22
12 15 20
13 16 21
17 21 27
15 18 24
14 18 22
15 19 24
14 18 24
15 18 23
15 19 25
12 15 19
16 20 26
13 17 22
14 17 21
14 18 23
14 17 23
16 19 25
14 17 22
13 16 20
17 21 26
19 23 29
14 17 21
14 17 22
12 15 20
13 16 21
12 15 19
13 17 21
15 19 24
15 18 24
17 21 27
15 18 23
15 20 26
12 14 18
14 17 23
16 20 26
14 18 24
72 86 106
177 208 255
177 208 255
177 208 255
177 208 255
177 208 255
177 208 255
177 208 255
177 208 255
177 209 255
177 209 255
177 209 255
177 209 255
177 209 255
177 209 255
177 209 255
178 209 255
178 209 255
178 209 255
178 209 255
178 209 255
178 209 255
178 209 255
178 209 255
178 209 255
178 209 255
178 209 255
178 209 255
178 209 255
178 209 255
178 209 255
178 209 255
178 209 255
178 209 255
179 209 255
179 209 255
179 209 255
179 209 255
179 209 255
179 209 255
179 210 255
179 210 255
179 210 255
179 210 255
179 210 255
179 210 255
179 210 255
179 210 255
179 210 255
179 210 255
179 210 255
179 210 255
179 210 255
180 210 255
180 210 255
180 210 255
180 210 255
180 210 255
180 210 255
180 210 255
180 210 255
180 210 255
180 210 255
180 210 255
180 210 255
180 210 255
180 210 255
180 210 255
180 210 255
180 210 255
180 210 255
180 210 255
180 210 255
181 211 255
181 211 255
181 211 255
181 211 255
181 211 255
181 211 255
181 211 255
181 211 255
181 211 255
181 211 255
181 211 255
181 211 255
181 211 255
181 211 255
181 211 255
181 211 255
181 211 255
181 211 255
181 211 255
181 211 255
181 211 255
181 211 255
181 211 255
182 211 255
182 211 255
182 211 255
182 211 255
182 211 255
182 211 255
182 211 255
182 211 255
182 211 255
182 211 255
182 211 255
182 211 255
182 211 255
182 211 255
182 211 255
182 211 255
182 211 255
182 212 255
182 212 255
182 212 255
182 212 255
182 212 255
182 212 255
182 212 255
182 212 255
182 212 255
183 212 255
183 212 255
183 212 255
183 212 255
183 212 255
183 212 255
183 212 255
183 212 255
183 212 255
183 212 255
183 212 255
183 212 255
183 212 255
183 212 255
183 212 255
183 212 255
183 212 255
183 212 255
183 212 255
183 212 255
183 212 255
183 212 255
183 212 255
183 212 255
183 212 255
183 212 255
183 212 255
183 212 255
183 212 255
183 212 255
183 212 255
183 212 255
183 212 255
183 212 255
183 212 255
183 212 255
183 212 255
183 212 255
183 212 255
183 212 255
183 212 255
183 212 255
183 212 255
183 212 255
183 212 255
183 212 255
183 212 255
183 212 255
183 212 255
183 212 255
182 212 255
182 212 255
182 212 255
182 212 255
182 212 255
182 212 255
182 212 255
182 212 255
182 212 255
182 211 255
182 211 255
182 211 255
182 211 255
182 211 255
182 211 255
182 211 255
182 211 255
182 211 255
182 211 255
182 211 255
182 211 255
182 211 255
182 211 255
182 211 255
182 211 255
182 211 255
181 211 255
181 211 255
181 211 255
181 211 255
181 211 255
181 211 255
181 211 255
181 211 255
181 211 255
181 211 255
181 211 255
181 211 255
181 211 255
181 211 255
181 211 255
181 211 255
181 211 255
181 211 255
181 211 255
181 211 255
181 211 255
181 211 255
180 210 255
180 210 255
180 210 255
180 210 255
180 210 255
180 210 255
180 210 255
180 210 255
180 210 255
180 210 255
180 210 255
180 210 255
180 210 255
180 210 255
180 210 255
180 210 255
180 210 255
180 210 255
180 210 255
180 210 255
180 210 255
179 210 255
179 210 255
179 210 255
179 210 255
179 210 255
179 210 255
179 210 255
179 210 255
179 210 255
179 210 255
179 210 255
179 210 255
179 210 255
179 209 255
179 209 255
179 209 255
179 209 255
179 209 255
179 209 255
178 209 255
178 209 255
178 209 255
178 209 255
178 209 255
178 209 255
178 209 255
178 209 255
178 209 255
178 209 255
178 209 255
178 209 255
178 209 255
178 209 255
178 209 255
178 209 255
178 209 255
178 209 255
178 209 255
177 209 255
177 209 255
177 209 255
177 209 255
177 209 255
146 172 211
18 23 29
16 20 27
13 16 21
13 17 22
18 22 28
13 16 21
18 22 28
13 16 21
18 22 28
13 16 21
13 17 22
14 17 22
14 17 22
16 19 24
15 19 24
14 17 22
14 18 24
15 19 25
15 18 23
15 19 24
16 20 27
15 19 25
14 17 22
14 18 23
11 13 17
15 19 25
11 14 19
14 18 23
14 17 22
14 18 23
13 16 21
10 13 16
15 19 24
16 20 26
14 17 21
14 18 23
12 14 18
12 15 19
13 16 21
12 15 19
14 17 22
15 19 25
15 19 25
14 17 22
13 17 22
15 19 25
11 14 18
15 19 24
15 19 24
15 18 24
11 13 16
16 19 25
12 15 20
14 17 22
16 20 26
15 19 25
11 14 18
13 16 20
14 18 23
13 17 22
13 17 22
11 14 18
13 17 22
15 19 24
14 18 23
16 20 26
12 15 19
15 19 24
13 16 20
14 17 21
11 14 19
10 13 16
15 19 24
15 19 25
13 16 21
11 14 18
12 15 20
15 19 24
14 18 23
13 16 21
13 17 22
15 19 25
15 19 24
13 16 20
15 19 25
15 19 24
15 19 25
16 20 26
14 18 23
12 15 20
13 16 20
16 20 26
15 18 23
18 22 29
15 18 23
14 18 23
14 18 23
14 17 23
14 18 23
16 19 25
14 18 23
18 23 29
12 15 19
11 14 19
15 18 24
13 16 21
16 19 25
13 16 21
13 17 22
16 20 25
12 15 20
13 16 21
14 17 23
14 18 23
13 17 23
17 21 27
154 181 222
177 209 255
177 209 255
177 209 255
177 209 255
177 209 255
178 209 255
178 209 255
178 209 255
178 209 255
178 209 255
178 209 255
178 209 255
178 209 255
178 209 255
178 209 255
178 209 255
178 209 255
178 209 255
178 209 255
178 209 255
178 209 255
178 209 255
178 209 255
178 209 255
179 209 255
179 209 255
179 209 255
179 209 255
179 209 255
179 209 255
179 209 255
179 210 255
179 210 255
179 210 255
179 210 255
179 210 255
179 210 255
179 210 255
179 210 255
179 210 255
179 210 255
179 210 255
179 210 255
180 210 255
180 210 255
180 210 255
180 210 255
180 210 255
180 210 255
180 210 255
180 210 255
180 210 255
180 210 255
180 210 255
180 210 255
180 210 255
180 210 255
180 210 255
180 210 255
180 210 255
180 210 255
180 210 255
180 210 255
180 210 255
181 211 255
181 211 255
181 211 255
181 211 255
181 211 255
181 211 255
181 211 255
181 211 255
181 211 255
181 211 255
181 211 255
181 211 255
181 211 255
181 211 255
181 211 255
181 211 255
181 211 255
181 211 255
181 211 255
181 211 255
181 211 255
182 211 255
182 211 255
182 211 255
182 211 255
182 211 255
182 211 255
182 211 255
182 211 255
182 211 255
182 211 255
182 211 255
182 211 255
182 211 255
182 211 255
182 211 255
182 211 255
182 211 255
182 212 255
182 212 255
182 212 255
182 212 255
182 212 255
182 212 255
182 212 255
182 212 255
182 212 255
183 212 255
183 212 255
183 212 255
183 212 255
183 212 255
183 212 255
183 212 255
183 212 255
183 212 255
183 212 255
183 212 255
183 212 255
183 212 255
183 212 255
183 212 255
183 212 255
183 212 255
183 212 255
183 212 255
183 212 255
183 212 255
183 212 255
183 212 255
183 212 255
183 212 255
183 212 255
183 212 255
183 212 255
183 212 255
183 212 255
184 212 255
184 212 255
184 212 255
184 212 255
184 212 255
184 212 255
184 212 255
184 212 255
183 212 255
183 212 255
183 212 255
183 212 255
183 212 255
183 212 255
183 212 255
183 212 255
183 212 255
183 212 255
183 212 255
183 212 255
183 212 255
183 212 255
183 212 255
183 212 255
183 212 255
183 212 255
183 212 255
183 212 255
183 212 255
183 212 255
183 212 255
183 212 255
183 212 255
183 212 255
183 212 255
183 212 255
183 212 255
183 212 255
182 212 255
182 212 255
182 212 255
182 212 255
182 212 255
182 212 255
182 212 255
182 212 255
182 212 255
182 211 255
182 211 255
182 211 255
182 211 255
182 211 255
182 211 255
182 211 255
182 211 255
182 211 255
182 211 255
182 211 255
182 211 255
182 211 255
182 211 255
182 211 255
182 211 255
181 211 255
181 211 255
181 211 255
181 211 255
181 211 255
181 211 255
181 211 255
181 211 255
181 211 255
181 211 255
181 211 255
181 211 255
181 211 255
181 211 255
181 211 255
181 211 255
181 211 255
181 211 255
181 211 255
181 211 255
181 211 255
181 211 255
181 211 255
180 210 255
180 210 255
180 210 255
180 210 255
180 210 255
180 210 255
180 210 255
180 210 255
180 210 255
180 210 255
180 210 255
180 210 255
180 210 255
180 210 255
180 210 255
180 210 255
180 210 255
180 210 255
180 210 255
180 210 255
179 210 255
179 210 255
179 210 255
179 210 255
179 210 255
179 210 255
179 210 255
179 210 255
179 210 255
179 210 255
179 210 255
179 210 255
179 210 255
179 209 255
179 209 255
179 209 255
179 209 255
179 209 255
179 209 255
178 209 255
178 209 255
178 209 255
178 209 255
178 209 255
178 209 255
178 209 255
178 209 255
178 209 255
178 209 255
178 209 255
178 209 255
178 209 255
178 209 255
178 209 255
178 209 255
80 95 117
16 20 25
16 20 26
15 19 25
14 17 23
17 21 27
16 21 27
12 16 20
16 19 25
15 19 25
16 20 26
12 16 20
14 17 23
14 18 24
15 19 24
15 18 24
11 14 18
13 17 21
12 15 20
17 21 28
16 20 26
12 15 19
11 14 19
11 14 18
14 18 23
16 20 26
13 16 20
14 17 22
14 17 22
15 18 24
13 16 20
13 16 22
14 17 22
15 19 24
13 16 21
16 19 25
15 19 24
13 16 21
10 13 17
15 19 24
13 16 20
16 20 25
11 14 18
12 15 20
16 19 25
13 17 22
11 14 18
12 16 20
13 15 19
10 13 17
13 17 23
14 18 24
14 17 22
13 17 22
12 15 20
10 13 17
11 14 18
15 18 24
13 16 21
12 15 19
14 16 21
16 21 27
14 17 22
16 20 27
15 18 24
15 19 24
12 15 20
11 13 17
13 16 21
13 16 21
13 16 21
13 17 22
16 20 25
12 15 20
14 18 23
10 13 17
14 17 22
12 15 20
14 17 22
13 16 20
14 17 22
14 17 21
12 15 19
12 15 19
17 20 26
12 15 19
16 20 26
14 18 24
17 21 27
13 16 20
14 17 22
14 18 23
15 18 23
14 18 23
14 17 23
14 17 22
14 18 23
14 18 23
14 18 22
15 19 24
15 18 23
13 16 21
15 18 24
18 22 29
13 17 22
16 20 26
13 17 21
16 19 25
13 17 21
16 20 25
13 16 21
16 20 25
13 17 22
14 17 22
15 18 23
14 18 23
16 20 25
62 73 90
178 209 255
178 209 255
178 209 255
178 209 255
178 209 255
178 209 255
178 209 255
178 209 255
178 209 255
178 209 255
178 209 255
178 209 255
178 209 255
178 209 255
178 209 255
178 209 255
179 209 255
179 209 255
179 209 255
179 209 255
179 209 255
179 209 255
179 210 255
179 210 255
179 210 255
179 210 255
179 210 255
179 210 255
179 210 255
179 210 255
179 210 255
179 210 255
179 210 255
179 210 255
179 210 255
180 210 255
180 210 255
180 210 255
180 210 255
180 210 255
180 210 255
180 210 255
180 210 255
180 210 255
180 210 255
180 210 255
180 210 255
180 210 255
180 210 255
180 210 255
180 210 255
180 210 255
180 210 255
180 210 255
180 210 255
181 211 255
181 211 255
181 211 255
181 211 255
181 211 255
181 211 255
181 211 255
181 211 255
181 211 255
181 211 255
181 211 255
181 211 255
181 211 255
181 211 255
181 211 255
181 211 255
181 211 255
181 211 255
181 211 255
181 211 255
181 211 255
181 211 255
181 211 255
182 211 255
182 211 255
182 211 255
182 211 255
182 211 255
182 211 255
182 211 255
182 211 255
182 211 255
182 211 255
182 211 255
182 211 255
182 211 255
182 211 255
182 211 255
182 211 255
182 212 255
182 212 255
182 212 255
182 212 255
182 212 255
182 212 255
182 212 255
182 212 255
182 212 255
183 212 255
183 212 255
183 212 255
183 212 255
183 212 255
183 212 255
183 212 255
183 212 255
183 212 255
183 212 255
183 212 255
183 212 255
183 212 255
183 212 255
183 212 255
183 212 255
183 212 255
183 212 255
183 212 255
183 212 255
183 212 255
183 212 255
183 212 255
183 212 255
183 212 255
183 212 255
183 212 255
183 212 255
183 212 255
183 212 255
184 212 255
184 212 255
184 212 255
184 212 255
184 212 255
184 212 255
184 212 255
184 212 255
184 213 255
184 213 255
184 213 255
184 213 255
184 213 255
184 213 255
184 213 255
184 212 255
184 212 255
184 212 255
184 212 255
184 212 255
184 212 255
184 212 255
184 212 255
184 212 255
184 212 255
183 212 255
183 212 255
183 212 255
183 212 255
183 212 255
183 212 255
183 212 255
183 212 255
183 212 255
183 212 255
183 212 255
183 212 255
183 212 255
183 212 255
183 212 255
183 212 255
183 212 255
183 212 255
183 212 255
183 212 255
183 212 255
183 212 255
183 212 255
183 212 255
183 212 255
183 212 255
183 212 255
183 212 255
183 212 255
183 212 255
182 212 255
182 212 255
182 212 255
182 212 255
182 212 255
182 212 255
182 212 255
182 212 255
182 212 255
182 211 255
182 211 255
182 211 255
182 211 255
182 211 255
182 211 255
182 211 255
182 211 255
182 211 255
182 211 255
182 211 255
182 211 255
182 211 255
182 211 255
182 211 255
182 211 255
181 211 255
181 211 255
181 211 255
181 211 255
181 211 255
181 211 255
181 211 255
181 211 255
181 211 255
181 211 255
181 211 255
181 211 255
181 211 255
181 211 255
181 211 255
181 211 255
181 211 255
181 211 255
181 211 255
181 211 255
181 211 255
181 211 255
180 210 255
180 210 255
180 210 255
180 210 255
180 210 255
180 210 255
180 210 255
180 210 255
180 210 255
180 210 255
180 210 255
180 210 255
180 210 255
180 210 255
180 210 255
180 210 255
180 210 255
180 210 255
180 210 255
180 210 255
179 210 255
179 210 255
179 210 255
179 210 255
179 210 255
179 210 255
179 210 255
179 210 255
179 210 255
179 210 255
179 210 255
179 210 255
179 210 255
179 210 255
179 209 255
179 209 255
179 209 255
179 209 255
179 209 255
179 209 255
178 209 255
178 209 255
178 209 255
178 209 255
178 209 255
178 209 255
167 196 240
16 20 27
17 21 28
16 19 25
15 19 25
16 20 26
15 19 24
16 20 26
16 20 26
13 16 21
14 18 23
14 17 22
14 17 23
15 19 25
13 17 22
14 18 23
14 17 22
15 19 25
15 18 24
14 17 23
13 17 22
15 18 24
17 21 28
14 17 23
15 19 25
12 15 20
13 16 21
15 19 24
15 18 24
14 18 23
12 15 19
14 17 22
14 18 23
16 20 26
13 17 22
14 18 23
11 15 19
12 15 20
13 16 21
15 19 24
13 16 20
11 14 18
16 19 25
11 14 19
15 19 24
10 13 17
12 14 18
11 13 18
11 14 18
14 18 23
12 15 19
10 13 17
14 18 23
14 17 22
13 17 23
15 19 25
9 11 15
12 15 20
15 18 24
14 17 23
12 15 20
14 17 23
13 16 21
14 18 23
13 16 21
15 19 25
13 16 20
13 17 21
16 20 26
15 19 25
16 20 26
11 14 19
13 17 21
12 15 19
11 13 17
12 16 21
13 16 21
15 19 24
13 17 22
14 17 23
11 14 19
13 17 21
14 17 22
13 16 21
13 16 21
13 16 21
15 18 23
11 14 18
16 20 25
13 17 22
14 17 22
16 20 26
16 20 26
16 20 26
14 18 23
12 15 20
16 20 27
16 20 26
12 15 20
13 16 20
15 19 25
16 20 26
13 16 21
13 16 21
16 20 26
16 21 27
13 16 20
14 17 23
13 15 20
12 16 21
13 17 22
15 18 23
14 17 22
14 18 24
14 18 23
19 24 30
15 19 24
15 18 24
18 23 29
163 191 234
178 209 255
178 209 255
178 209 255
178 209 255
178 209 255
178 209 255
179 209 255
179 209 255
179 209 255
179 209 255
179 209 255
179 209 255
179 210 255
179 210 255
179 210 255
179 210 255
179 210 255
179 210 255
179 210 255
179 210 255
179 210 255
179 210 255
179 210 255
179 210 255
179 210 255
179 210 255
180 210 255
180 210 255
180 210 255
180 210 255
180 210 255
180 210 255
180 210 255
180 210 255
180 210 255
180 210 255
180 210 255
180 210 255
180 210 255
180 210 255
180 210 255
180 210 255
180 210 255
180 210 255
180 210 255
180 210 255
181 211 255
181 211 255
181 211 255
181 211 255
181 211 255
181 211 255
181 211 255
181 211 255
181 211 255
181 211 255
181 211 255
181 211 255
181 211 255
181 211 255
181 211 255
181 211 255
181 211 255
181 211 255
181 211 255
181 211 255
181 211 255
181 211 255
182 211 255
182 211 255
182 211 255
182 211 255
182 211 255
182 211 255
182 211 255
182 211 255
182 211 255
182 211 255
182 211 255
182 211 255
182 211 255
182 211 255
182 211 255
182 211 255
182 212 255
182 212 255
182 212 255
182 212 255
182 212 255
182 212 255
182 212 255
182 212 255
182 212 255
183 212 255
183 212 255
183 212 255
183 212 255
183 212 255
183 212 255
183 212 255
183 212 255
183 212 255
183 212 255
183 212 255
183 212 255
183 212 255
183 212 255
183 212 255
183 212 255
183 212 255
183 212 255
183 212 255
183 212 255
183 212 255
183 212 255
183 212 255
183 212 255
183 212 255
183 212 255
183 212 255
183 212 255
183 212 255
184 212 255
184 212 255
184 212 255
184 212 255
184 212 255
184 212 255
184 212 255
184 212 255
184 212 255
184 212 255
184 212 255
184 212 255
184 213 255
184 213 255
184 213 255
184 213 255
184 213 255
184 213 255
184 213 255
184 213 255
184 213 255
184 213 255
184 213 255
184 213 255
184 213 255
184 213 255
184 213 255
184 213 255
184 213 255
184 213 255
184 213 255
184 213 255
184 213 255
184 213 255
184 212 255
184 212 255
184 212 255
184 212 255
184 212 255
184 212 255
184 212 255
184 212 255
184 212 255
184 212 255
184 212 255
183 212 255
183 212 255
183 212 255
183 212 255
183 212 255
183 212 255
183 212 255
183 212 255
183 212 255
183 212 255
183 212 255
183 212 255
183 212 255
183 212 255
183 212 255
183 212 255
183 212 255
183 212 255
183 212 255
183 212 255
183 212 255
183 212 255
183 212 255
183 212 255
183 212 255
183 212 255
183 212 255
183 212 255
183 212 255
182 212 255
182 212 255
182 212 255
182 212 255
182 212 255
182 212 255
182 212 255
182 212 255
182 211 255
182 211 255
182 211 255
182 211 255
182 211 255
182 211 255
182 211 255
182 211 255
182 211 255
182 211 255
182 211 255
182 211 255
182 211 255
182 211 255
182 211 255
182 211 255
181 211 255
181 211 255
181 211 255
181 211 255
181 211 255
181 211 255
181 211 255
181 211 255
181 211 255
181 211 255
181 211 255
181 211 255
181 211 255
181 211 255
181 211 255
181 211 255
181 211 255
181 211 255
181 211 255
181 211 255
181 211 255
181 211 255
181 210 255
180 210 255
180 210 255
180 210 255
180 210 255
180 210 255
180 210 255
180 210 255
180 210 255
180 210 255
180 210 255
180 210 255
180 210 255
180 210 255
180 210 255
180 210 255
180 210 255
180 210 255
180 210 255
180 210 255
180 210 255
179 210 255
179 210 255
179 210 255
179 210 255
179 210 255
179 210 255
179 210 255
179 210 255
179 210 255
179 210 255
179 210 255
179 210 255
179 210 255
179 210 255
179 210 255
179 209 255
179 209 255
95 112 138
13 16 21
14 18 24
14 17 22
13 16 21
15 18 24
15 19 24
14 17 23
15 18 23
15 19 25
13 16 21
14 18 23
13 16 21
15 19 25
15 19 24
15 19 25
15 19 25
14 18 23
13 16 21
14 17 22
15 18 23
13 16 21
14 18 23
13 17 21
14 18 23
15 19 25
13 16 21
17 21 27
12 15 20
14 17 22
14 17 22
14 18 23
14 17 22
13 17 22
14 18 23
10 13 17
12 15 20
16 20 26
14 18 23
14 17 22
12 15 19
11 14 17
12 14 19
14 18 24
15 19 25
14 18 23
12 16 21
15 18 23
14 17 21
11 14 18
12 15 19
15 19 24
12 15 20
13 16 20
13 16 21
12 15 19
15 19 24
12 15 19
14 17 22
13 16 21
15 19 25
13 16 20
15 19 24
13 16 20
13 17 22
14 17 22
13 16 20
12 15 20
15 18 23
13 16 21
12 16 21
14 18 23
15 18 23
15 19 24
12 15 19
12 15 19
12 14 18
14 17 21
15 19 24
13 16 20
15 18 24
13 16 21
14 18 23
14 17 22
14 18 23
14 18 23
15 18 24
15 19 25
17 21 27
13 16 20
16 19 25
15 18 24
13 17 22
14 17 22
15 19 24
15 19 25
11 14 19
14 17 21
15 18 23
13 16 21
15 18 24
15 18 24
12 15 20
11 14 18
13 16 21
15 18 24
15 19 24
13 16 20
16 20 27
16 19 25
15 18 24
14 17 22
15 18 23
14 17 23
14 17 23
15 18 24
12 14 18
13 17 22
18 22 28
85 100 122
179 209 255
179 209 255
179 210 255
179 210 255
179 210 255
179 210 255
179 210 255
179 210 255
179 210 255
179 210 255
179 210 255
179 210 255
179 210 255
179 210 255
179 210 255
179 210 255
179 210 255
180 210 255
180 210 255
180 210 255
180 210 255
180 210 255
180 210 255
180 210 255
180 210 255
180 210 255
180 210 255
180 210 255
180 210 255
180 210 255
180 210 255
180 210 255
180 210 255
180 210 255
180 210 255
180 210 255
180 210 255
181 211 255
181 211 255
181 211 255
181 211 255
181 211 255
181 211 255
181 211 255
181 211 255
181 211 255
181 211 255
181 211 255
181 211 255
181 211 255
181 211 255
181 211 255
181 211 255
181 211 255
181 211 255
181 211 255
181 211 255
181 211 255
181 211 255
181 211 255
182 211 255
182 211 255
182 211 255
182 211 255
182 211 255
182 211 255
182 211 255
182 211 255
182 211 255
182 211 255
182 211 255
182 211 255
182 211 255
182 211 255
182 211 255
182 211 255
182 212 255
182 212 255
182 212 255
182 212 255
182 212 255
182 212 255
182 212 255
182 212 255
183 212 255
183 212 255
183 212 255
183 212 255
183 212 255
183 212 255
183 212 255
183 212 255
183 212 255
183 212 255
183 212 255
183 212 255
183 212 255
183 212 255
183 212 255
183 212 255
183 212 255
183 212 255
183 212 255
183 212 255
183 212 255
183 212 255
183 212 255
183 212 255
183 212 255
183 212 255
183 212 255
183 212 255
183 212 255
184 212 255
184 212 255
184 212 255
184 212 255
184 212 255
184 212 255
184 212 255
184 212 255
184 212 255
184 212 255
184 213 255
184 213 255
184 213 255
184 213 255
184 213 255
184 213 255
184 213 255
184 213 255
184 213 255
184 213 255
184 213 255
184 213 255
184 213 255
184 213 255
184 213 255
184 213 255
184 213 255
185 213 255
185 213 255
185 213 255
184 213 255
184 213 255
184 213 255
184 213 255
184 213 255
184 213 255
184 213 255
184 213 255
184 213 255
184 213 255
184 213 255
184 213 255
184 213 255
184 213 255
184 213 255
184 213 255
184 213 255
184 213 255
184 213 255
184 213 255
184 213 255
184 213 255
184 213 255
184 212 255
184 212 255
184 212 255
184 212 255
184 212 255
184 212 255
184 212 255
184 212 255
184 212 255
184 212 255
184 212 255
183 212 255
183 212 255
183 212 255
183 212 255
183 212 255
183 212 255
183 212 255
183 212 255
183 212 255
183 212 255
183 212 255
183 212 255
183 212 255
183 212 255
183 212 255
183 212 255
183 212 255
183 212 255
183 212 255
183 212 255
183 212 255
183 212 255
183 212 255
183 212 255
183 212 255
183 212 255
183 212 255
183 212 255
182 212 255
182 212 255
182 212 255
182 212 255
182 212 255
182 212 255
182 212 255
182 212 255
182 212 255
182 211 255
182 211 255
182 211 255
182 211 255
182 211 255
182 211 255
182 211 255
182 211 255
182 211 255
182 211 255
182 211 255
182 211 255
182 211 255
182 211 255
182 211 255
181 211 255
181 211 255
181 211 255
181 211 255
181 211 255
181 211 255
181 211 255
181 211 255
181 211 255
181 211 255
181 211 255
181 211 255
181 211 255
181 211 255
181 211 255
181 211 255
181 211 255
181 211 255
181 211 255
181 211 255
181 211 255
181 211 255
180 210 255
180 210 255
180 210 255
180 210 255
180 210 255
180 210 255
180 210 255
180 210 255
180 210 255
180 210 255
180 210 255
180 210 255
180 210 255
180 210 255
180 210 255
180 210 255
180 210 255
180 210 255
180 210 255
180 210 255
180 210 255
180 210 255
179 210 255
179 210 255
179 210 255
179 210 255
179 210 255
179 210 255
174 204 248
33 40 51
13 16 21
15 19 25
14 17 22
13 16 21
15 18 23
16 20 26
16 20 25
18 22 28
14 17 22
12 16 21
13 16 21
17 21 27
11 14 18
16 20 26
13 17 22
15 18 23
13 16 21
15 19 25
11 14 19
12 15 19
16 20 26
16 19 25
15 19 24
15 18 23
14 18 23
12 15 20
15 18 23
16 20 25
14 17 22
13 16 20
18 22 28
12 15 20
13 16 21
13 16 21
14 18 23
14 18 23
12 15 20
12 16 21
14 18 23
12 15 19
11 13 17
14 18 23
13 16 20
15 18 24
13 17 22
13 16 20
15 18 23
12 14 18
13 17 22
13 17 22
15 19 24
13 15 20
14 17 22
12 15 20
14 17 23
13 17 22
13 17 21
13 16 20
14 18 24
15 19 24
13 15 20
11 13 17
12 15 19
14 17 22
11 14 19
8 10 13
12 14 18
10 13 18
13 16 21
9 12 15
12 16 21
11 14 18
15 19 24
14 17 22
13 16 21
14 17 22
10 13 17
12 16 21
12 16 21
12 14 19
14 17 22
14 17 22
11 13 17
13 16 20
14 17 22
14 17 22
16 19 25
13 16 21
12 15 20
11 14 19
13 17 21
15 19 24
11 13 17
13 16 21
16 20 26
14 17 23
14 18 23
14 18 23
14 18 23
16 20 26
12 15 20
14 18 23
13 16 21
14 17 22
11 14 18
15 18 23
13 16 21
15 19 24
16 19 25
16 20 26
14 18 24
16 21 27
12 15 20
12 15 20
15 18 23
15 18 24
13 17 22
15 19 25
25 30 38
176 206 251
179 210 255
179 210 255
179 210 255
179 210 255
179 210 255
179 210 255
180 210 255
180 210 255
180 210 255
180 210 255
180 210 255
180 210 255
180 210 255
180 210 255
180 210 255
180 210 255
180 210 255
180 210 255
180 210 255
180 210 255
180 210 255
180 210 255
180 210 255
180 210 255
180 210 255
180 210 255
180 210 255
180 210 255
181 211 255
181 211 255
181 211 255
181 211 255
181 211 255
181 211 255
181 211 255
181 211 255
181 211 255
181 211 255
181 211 255
181 211 255
181 211 255
181 211 255
181 211 255
181 211 255
181 211 255
181 211 255
181 211 255
181 211 255
181 211 255
181 211 255
182 211 255
182 211 255
182 211 255
182 211 255
182 211 255
182 211 255
182 211 255
182 211 255
182 211 255
182 211 255
182 211 255
182 211 255
182 211 255
182 211 255
182 211 255
182 211 255
182 212 255
182 212 255
182 212 255
182 212 255
182 212 255
182 212 255
182 212 255
182 212 255
183 212 255
183 212 255
183 212 255
183 212 255
183 212 255
183 212 255
183 212 255
183 212 255
183 212 255
183 212 255
183 212 255
183 212 255
183 212 255
183 212 255
183 212 255
183 212 255
183 212 255
183 212 255
183 212 255
183 212 255
183 212 255
183 212 255
183 212 255
183 212 255
183 212 255
183 212 255
183 212 255
183 212 255
184 212 255
184 212 255
184 212 255
184 212 255
184 212 255
184 212 255
184 212 255
184 212 255
184 212 255
184 212 255
184 212 255
184 213 255
184 213 255
184 213 255
184 213 255
184 213 255
184 213 255
184 213 255
184 213 255
184 213 255
184 213 255
184 213 255
184 213 255
184 213 255
184 213 255
184 213 255
184 213 255
184 213 255
184 213 255
184 213 255
184 213 255
184 213 255
184 213 255
184 213 255
184 213 255
185 213 255
185 213 255
185 213 255
185 213 255
185 213 255
185 213 255
185 213 255
185 213 255
185 213 255
185 213 255
185 213 255
185 213 255
185 213 255
185 213 255
185 213 255
184 213 255
184 213 255
184 213 255
184 213 255
184 213 255
184 213 255
184 213 255
184 213 255
184 213 255
184 213 255
184 213 255
184 213 255
184 213 255
184 213 255
184 213 255
184 213 255
184 213 255
184 213 255
184 213 255
184 213 255
184 213 255
184 213 255
184 213 255
184 212 255
184 212 255
184 212 255
184 212 255
184 212 255
184 212 255
184 212 255
184 212 255
184 212 255
184 212 255
183 212 255
183 212 255
183 212 255
183 212 255
183 212 255
183 212 255
183 212 255
183 212 255
183 212 255
183 212 255
183 212 255
183 212 255
183 212 255
183 212 255
183 212 255
183 212 255
183 212 255
183 212 255
183 212 255
183 212 255
183 212 255
183 212 255
183 212 255
183 212 255
183 212 255
183 212 255
183 212 255
183 212 255
182 212 255
182 212 255
182 212 255
182 212 255
182 212 255
182 212 255
182 212 255
182 212 255
182 211 255
182 211 255
182 211 255
182 211 255
182 211 255
182 211 255
182 211 255
182 211 255
182 211 255
182 211 255
182 211 255
182 211 255
182 211 255
182 211 255
182 211 255
182 211 255
181 211 255
181 211 255
181 211 255
181 211 255
181 211 255
181 211 255
181 211 255
181 211 255
181 211 255
181 211 255
181 211 255
181 211 255
181 211 255
181 211 255
181 211 255
181 211 255
181 211 255
181 211 255
181 211 255
181 211 255
181 211 255
181 211 255
180 210 255
180 210 255
180 210 255
180 210 255
180 210 255
180 210 255
180 210 255
180 210 255
180 210 255
180 210 255
180 210 255
180 210 255
180 210 255
180 210 255
180 210 255
180 210 255
180 210 255
180 210 255
180 210 255
113 133 162
14 18 23
12 15 19
13 16 21
13 16 21
15 19 24
14 18 23
17 21 27
12 15 19
16 20 27
17 20 26
16 20 26
17 21 27
14 18 23
14 18 23
13 17 22
14 17 22
15 19 24
14 18 24
14 17 23
12 15 19
13 17 21
13 17 22
12 15 19
13 16 21
12 15 20
16 19 24
14 18 24
13 17 22
14 17 22
17 21 28
12 15 19
14 18 23
9 12 16
11 13 18
17 21 27
11 14 18
14 17 22
15 19 24
14 17 22
14 17 22
14 17 22
14 18 22
14 18 23
11 14 19
14 17 22
14 18 22
10 13 17
14 17 22
15 18 23
10 12 16
12 14 19
15 18 23
13 17 21
14 18 24
15 18 23
15 19 24
12 15 19
14 17 22
14 17 22
13 17 21
14 17 21
12 15 20
13 16 20
13 17 22
14 17 22
14 17 22
12 14 18
15 18 23
11 14 18
14 18 23
12 16 21
12 15 20
12 14 19
11 14 18
12 15 19
12 15 19
16 20 25
11 14 18
10 13 17
10 12 16
12 15 20
13 16 21
14 17 22
12 15 19
13 16 22
14 17 22
15 18 24
13 16 20
12 15 19
15 19 24
14 18 23
11 14 18
16 19 24
16 20 26
13 16 21
14 18 23
13 16 21
14 18 23
17 21 27
16 20 26
13 16 20
13 16 21
12 15 19
15 19 25
15 18 24
16 20 26
15 18 23
14 17 22
15 19 24
14 17 22
15 18 24
16 19 25
15 18 23
15 18 24
16 19 25
12 16 20
14 18 23
14 18 24
16 20 25
12 15 19
124 145 177
180 210 255
180 210 255
180 210 255
180 210 255
180 210 255
180 210 255
180 210 255
180 210 255
180 210 255
180 210 255
180 210 255
180 210 255
180 210 255
180 210 255
180 210 255
180 210 255
180 210 255
180 210 255
181 211 255
181 211 255
181 211 255
181 211 255
181 211 255
181 211 255
181 211 255
181 211 255
181 211 255
181 211 255
181 211 255
181 211 255
181 211 255
181 211 255
181 211 255
181 211 255
181 211 255
181 211 255
181 211 255
181 211 255
181 211 255
181 211 255
181 211 255
182 211 255
182 211 255
182 211 255
182 211 255
182 211 255
182 211 255
182 211 255
182 211 255
182 211 255
182 211 255
182 211 255
182 211 255
182 211 255
182 211 255
182 211 255
182 211 255
182 212 255
182 212 255
182 212 255
182 212 255
182 212 255
182 212 255
182 212 255
182 212 255
183 212 255
183 212 255
183 212 255
183 212 255
183 212 255
183 212 255
183 212 255
183 212 255
183 212 255
183 212 255
183 212 255
183 212 255
183 212 255
183 212 255
183 212 255
183 212 255
183 212 255
183 212 255
183 212 255
183 212 255
183 212 255
183 212 255
183 212 255
183 212 255
183 212 255
183 212 255
183 212 255
183 212 255
184 212 255
184 212 255
184 212 255
184 212 255
184 212 255
184 212 255
184 212 255
184 212 255
184 212 255
184 212 255
184 213 255
184 213 255
184 213 255
184 213 255
184 213 255
184 213 255
184 213 255
184 213 255
184 213 255
184 213 255
184 213 255
184 213 255
184 213 255
184 213 255
184 213 255
184 213 255
184 213 255
184 213 255
184 213 255
184 213 255
184 213 255
184 213 255
184 213 255
185 213 255
185 213 255
185 213 255
185 213 255
185 213 255
185 213 255
185 213 255
185 213 255
185 213 255
185 213 255
185 213 255
185 213 255
185 213 255
185 213 255
185 213 255
185 213 255
185 213 255
185 213 255
185 213 255
185 213 255
185 213 255
185 213 255
185 213 255
185 213 255
185 213 255
185 213 255
185 213 255
185 213 255
185 213 255
185 213 255
185 213 255
185 213 255
185 213 255
185 213 255
185 213 255
185 213 255
185 213 255
184 213 255
184 213 255
184 213 255
184 213 255
184 213 255
184 213 255
184 213 255
184 213 255
184 213 255
184 213 255
184 213 255
184 213 255
184 213 255
184 213 255
184 213 255
184 213 255
184 213 255
184 213 255
184 213 255
184 213 255
184 213 255
184 213 255
184 212 255
184 212 255
184 212 255
184 212 255
184 212 255
184 212 255
184 212 255
184 212 255
184 212 255
184 212 255
183 212 255
183 212 255
183 212 255
183 212 255
183 212 255
183 212 255
183 212 255
183 212 255
183 212 255
183 212 255
183 212 255
183 212 255
183 212 255
183 212 255
183 212 255
183 212 255
183 212 255
183 212 255
183 212 255
183 212 255
183 212 255
183 212 255
183 212 255
183 212 255
183 212 255
183 212 255
183 212 255
183 212 255
182 212 255
182 212 255
182 212 255
182 212 255
182 212 255
182 212 255
182 212 255
182 212 255
182 211 255
182 211 255
182 211 255
182 211 255
182 211 255
182 211 255
182 211 255
182 211 255
182 211 255
182 211 255
182 211 255
182 211 255
182 211 255
182 211 255
182 211 255
182 211 255
181 211 255
181 211 255
181 211 255
181 211 255
181 211 255
181 211 255
181 211 255
181 211 255
181 211 255
181 211 255
181 211 255
181 211 255
181 211 255
181 211 255
181 211 255
181 211 255
181 211 255
181 211 255
181 211 255
181 211 255
181 211 255
181 211 255
181 211 255
180 210 255
180 210 255
180 210 255
180 210 255
180 210 255
180 210 255
180 210 255
180 210 255
52 62 76
16 20 26
13 17 21
15 18 24
15 18 23
13 17 21
14 17 23
14 17 22
16 20 25
15 18 23
15 18 24
13 16 20
14 17 23
13 17 22
15 19 25
11 13 17
15 18 23
11 14 18
16 19 25
12 15 19
16 19 25
15 18 23
17 21 27
14 18 23
13 16 21
11 14 19
12 15 19
10 13 17
12 14 19
15 19 24
11 14 18
16 20 26
16 19 25
12 15 20
13 16 20
12 15 19
15 19 25
16 19 25
16 19 25
13 17 22
12 14 18
14 18 23
13 16 21
13 17 22
14 18 23
13 16 21
13 16 20
11 14 18
15 19 24
15 18 24
15 18 24
13 16 20
12 15 20
14 17 22
11 14 19
11 14 19
11 14 19
13 16 20
12 14 19
16 20 26
11 14 18
10 12 16
13 15 20
13 16 20
10 13 17
12 15 20
13 16 21
12 15 20
13 16 21
14 17 23
13 16 22
10 13 17
14 17 22
12 15 19
11 14 18
12 15 19
13 16 20
14 17 23
14 18 23
14 17 22
14 17 21
10 13 18
14 18 23
16 19 25
11 14 18
14 17 22
14 17 22
9 12 15
13 17 21
14 18 23
12 15 20
13 16 21
13 16 20
15 19 24
14 17 22
14 17 22
9 11 15
14 18 23
14 17 22
17 21 27
14 17 23
11 14 18
14 18 23
13 16 21
13 17 22
14 17 22
13 16 21
14 18 23
15 19 25
12 15 20
16 20 25
12 16 20
14 17 22
15 18 23
14 17 23
14 18 23
14 17 22
14 18 23
15 18 23
17 21 27
12 16 20
40 48 59
180 210 255
180 210 255
180 210 255
180 210 255
180 210 255
180 210 255
180 210 255
180 210 255
181 211 255
181 211 255
181 211 255
181 211 255
181 211 255
181 211 255
181 211 255
181 211 255
181 211 255
181 211 255
181 211 255
181 211 255
181 211 255
181 211 255
181 211 255
181 211 255
181 211 255
181 211 255
181 211 255
181 211 255
181 211 255
181 211 255
181 211 255
182 211 255
182 211 255
182 211 255
182 211 255
182 211 255
182 211 255
182 211 255
182 211 255
182 211 255
182 211 255
182 211 255
182 211 255
182 211 255
182 211 255
182 211 255
182 211 255
182 212 255
182 212 255
182 212 255
182 212 255
182 212 255
182 212 255
182 212 255
182 212 255
183 212 255
183 212 255
183 212 255
183 212 255
183 212 255
183 212 255
183 212 255
183 212 255
183 212 255
183 212 255
183 212 255
183 212 255
183 212 255
183 212 255
183 212 255
183 212 255
183 212 255
183 212 255
183 212 255
183 212 255
183 212 255
183 212 255
183 212 255
183 212 255
183 212 255
183 212 255
183 212 255
184 212 255
184 212 255
184 212 255
184 212 255
184 212 255
184 212 255
184 212 255
184 212 255
184 212 255
184 212 255
184 212 255
184 213 255
184 213 255
184 213 255
184 213 255
184 213 255
184 213 255
184 213 255
184 213 255
184 213 255
184 213 255
184 213 255
184 213 255
184 213 255
184 213 255
184 213 255
184 213 255
184 213 255
184 213 255
184 213 255
184 213 255
184 213 255
184 213 255
185 213 255
185 213 255
185 213 255
185 213 255
185 213 255
185 213 255
185 213 255
185 213 255
185 213 255
185 213 255
185 213 255
185 213 255
185 213 255
185 213 255
185 213 255
185 213 255
185 213 255
185 213 255
185 213 255
185 213 255
185 213 255
185 213 255
185 213 255
185 213 255
185 213 255
185 213 255
185 213 255
185 213 255
185 213 255
185 213 255
185 213 255
185 213 255
185 213 255
185 213 255
185 213 255
185 213 255
185 213 255
185 213 255
185 213 255
185 213 255
185 213 255
185 213 255
185 213 255
185 213 255
185 213 255
185 213 255
185 213 255
185 213 255
185 213 255
185 213 255
185 213 255
185 213 255
185 213 255
185 213 255
185 213 255
185 213 255
185 213 255
185 213 255
184 213 255
184 213 255
184 213 255
184 213 255
184 213 255
184 213 255
184 213 255
184 213 255
184 213 255
184 213 255
184 213 255
184 213 255
184 213 255
184 213 255
184 213 255
184 213 255
184 213 255
184 213 255
184 213 255
184 213 255
184 213 255
184 213 255
184 212 255
184 212 255
184 212 255
184 212 255
184 212 255
184 212 255
184 212 255
184 212 255
184 212 255
184 212 255
184 212 255
183 212 255
183 212 255
183 212 255
183 212 255
183 212 255
183 212 255
183 212 255
183 212 255
183 212 255
183 212 255
183 212 255
183 212 255
183 212 255
183 212 255
183 212 255
183 212 255
183 212 255
183 212 255
183 212 255
183 212 255
183 212 255
183 212 255
183 212 255
183 212 255
183 212 255
183 212 255
182 212 255
182 212 255
182 212 255
182 212 255
182 212 255
182 212 255
182 212 255
182 212 255
182 212 255
182 211 255
182 211 255
182 211 255
182 211 255
182 211 255
182 211 255
182 211 255
182 211 255
182 211 255
182 211 255
182 211 255
182 211 255
182 211 255
182 211 255
182 211 255
182 211 255
181 211 255
181 211 255
181 211 255
181 211 255
181 211 255
181 211 255
181 211 255
181 211 255
181 211 255
181 211 255
181 211 255
181 211 255
181 211 255
181 211 255
181 211 255
181 211 255
181 211 255
181 211 255
181 211 255
181 211 255
157 183 222
13 16 21
12 15 19
11 14 18
16 20 26
17 21 28
14 17 22
14 18 23
16 20 26
14 17 22
14 18 23
14 18 24
15 19 24
14 17 22
12 15 20
15 19 24
14 17 22
15 18 24
15 18 24
13 17 22
15 18 24
15 19 25
15 18 23
12 15 20
14 17 22
15 18 23
14 17 22
15 19 24
14 18 23
13 17 22
13 16 21
12 15 19
14 17 22
13 16 20
14 18 23
14 17 22
15 19 25
14 17 22
13 16 21
13 16 21
13 16 21
14 18 23
11 13 18
16 20 26
11 14 19
15 19 25
12 15 20
14 17 22
11 14 18
12 15 20
9 12 15
13 16 20
12 15 19
14 18 23
12 15 19
11 13 17
11 14 18
11 14 18
12 15 19
10 12 16
14 17 21
15 18 24
14 17 22
13 16 21
12 14 18
13 17 22
13 17 21
14 17 21
11 14 18
12 15 19
13 15 20
11 13 17
13 16 21
9 12 15
11 14 18
14 18 23
11 14 18
12 15 20
13 16 20
17 20 26
13 16 21
12 15 20
15 19 24
12 15 19
12 15 20
15 18 23
16 19 25
14 18 23
14 17 22
13 16 20
13 16 21
10 12 16
13 16 20
12 14 18
13 16 20
13 17 22
12 15 19
15 19 24
13 16 21
14 17 22
17 21 27
13 16 21
14 17 22
13 16 22
11 14 18
15 18 23
14 17 22
16 20 26
17 21 28
14 18 23
11 14 17
14 17 22
16 20 25
14 18 23
17 20 26
15 19 25
18 22 28
16 20 25
15 18 23
14 17 23
14 18 23
13 16 21
16 20 26
167 195 237
181 211 255
181 211 255
181 211 255
181 211 255
181 211 255
181 211 255
181 211 255
181 211 255
181 211 255
181 211 255
181 211 255
181 211 255
181 211 255
181 211 255
181 211 255
181 211 255
181 211 255
181 211 255
181 211 255
181 211 255
182 211 255
182 211 255
182 211 255
182 211 255
182 211 255
182 211 255
182 211 255
182 211 255
182 211 255
182 211 255
182 211 255
182 211 255
182 211 255
182 211 255
182 211 255
182 211 255
182 212 255
182 212 255
182 212 255
182 212 255
182 212 255
182 212 255
182 212 255
182 212 255
182 212 255
183 212 255
183 212 255
183 212 255
183 212 255
183 212 255
183 212 255
183 212 255
183 212 255
183 212 255
183 212 255
183 212 255
183 212 255
183 212 255
183 212 255
183 212 255
183 212 255
183 212 255
183 212 255
183 212 255
183 212 255
183 212 255
183 212 255
183 212 255
183 212 255
183 212 255
183 212 255
183 212 255
184 212 255
184 212 255
184 212 255
184 212 255
184 212 255
184 212 255
184 212 255
184 212 255
184 212 255
184 212 255
184 213 255
184 213 255
184 213 255
184 213 255
184 213 255
184 213 255
184 213 255
184 213 255
184 213 255
184 213 255
184 213 255
184 213 255
184 213 255
184 213 255
184 213 255
184 213 255
184 213 255
184 213 255
184 213 255
184 213 255
185 213 255
184 213 255
185 213 255
185 213 255
185 213 255
185 213 255
185 213 255
185 213 255
185 213 255
185 213 255
185 213 255
185 213 255
185 213 255
185 213 255
185 213 255
185 213 255
185 213 255
185 213 255
185 213 255
185 213 255
185 213 255
185 213 255
185 213 255
185 213 255
185 213 255
185 213 255
185 213 255
185 213 255
185 213 255
185 213 255
185 213 255
185 213 255
185 213 255
185 213 255
185 213 255
185 213 255
186 214 255
186 214 255
186 214 255
186 214 255
186 214 255
186 214 255
186 214 255
185 213 255
185 213 255
185 213 255
185 213 255
185 213 255
185 213 255
185 213 255
185 213 255
185 213 255
185 213 255
185 213 255
185 213 255
185 213 255
185 213 255
185 213 255
185 213 255
185 213 255
185 213 255
185 213 255
185 213 255
185 213 255
185 213 255
185 213 255
185 213 255
185 213 255
185 213 255
185 213 255
185 213 255
185 213 255
185 213 255
185 213 255
185 213 255
185 213 255
185 213 255
185 213 255
185 213 255
185 213 255
185 213 255
185 213 255
184 213 255
184 213 255
184 213 255
184 213 255
184 213 255
184 213 255
184 213 255
184 213 255
184 213 255
184 213 255
184 213 255
184 213 255
184 213 255
184 213 255
184 213 255
184 213 255
184 213 255
184 213 255
184 213 255
184 213 255
184 213 255
184 212 255
184 212 255
184 212 255
184 212 255
184 212 255
184 212 255
184 212 255
184 212 255
184 212 255
184 212 255
183 212 255
183 212 255
183 212 255
183 212 255
183 212 255
183 212 255
183 212 255
183 212 255
183 212 255
183 212 255
183 212 255
183 212 255
183 212 255
183 212 255
183 212 255
183 212 255
183 212 255
183 212 255
183 212 255
183 212 255
183 212 255
183 212 255
183 212 255
183 212 255
183 212 255
183 212 255
183 212 255
182 212 255
182 212 255
182 212 255
182 212 255
182 212 255
182 212 255
182 212 255
182 212 255
182 212 255
182 211 255
182 211 255
182 211 255
182 211 255
182 211 255
182 211 255
182 211 255
182 211 255
182 211 255
182 211 255
182 211 255
182 211 255
182 211 255
182 211 255
182 211 255
182 211 255
182 211 255
181 211 255
181 211 255
181 211 255
181 211 255
181 211 255
181 211 255
181 211 255
181 211 255
116 136 165
11 13 17
13 17 21
11 14 18
13 16 21
15 19 24
14 18 23
14 18 24
14 18 23
16 20 25
13 16 21
14 17 22
13 17 21
14 18 24
12 15 20
17 21 26
16 19 24
15 18 24
12 15 19
16 20 25
15 19 24
13 16 21
16 20 25
11 14 18
13 16 21
16 19 25
15 18 24
12 15 19
15 18 23
16 19 25
14 18 23
10 12 15
13 16 20
16 19 25
11 14 19
13 17 22
15 19 24
15 19 24
13 16 21
13 16 20
14 18 23
12 16 20
13 16 21
10 13 17
14 18 24
14 17 22
14 17 23
13 16 21
13 16 21
13 16 21
12 15 19
12 15 19
13 16 20
11 14 19
13 16 20
12 15 20
13 16 21
13 16 20
11 13 17
13 17 22
11 14 18
12 15 19
15 18 23
14 17 22
15 18 24
11 14 18
11 13 17
15 19 25
12 15 19
16 20 26
15 19 24
12 15 19
12 14 18
14 17 23
13 16 21
12 15 20
14 18 23
15 19 24
15 19 24
13 16 20
13 16 20
11 14 18
14 17 22
13 16 20
13 16 21
10 13 16
12 15 19
12 15 20
13 16 21
14 17 22
12 15 19
13 17 21
14 17 23
15 19 24
12 15 19
15 19 24
12 14 19
12 15 19
13 17 22
14 18 23
14 18 23
15 19 24
13 17 22
11 13 17
13 17 22
14 17 22
11 13 17
15 18 23
16 20 25
12 15 20
15 19 25
14 18 23
15 19 24
14 17 22
12 16 20
15 18 23
15 18 23
14 17 22
11 14 18
15 18 24
15 18 24
13 17 22
10 13 16
109 128 155
181 211 255
181 211 255
181 211 255
181 211 255
181 211 255
181 211 255
181 211 255
181 211 255
181 211 255
182 211 255
182 211 255
182 211 255
182 211 255
182 211 255
182 211 255
182 211 255
182 211 255
182 211 255
182 211 255
182 211 255
182 211 255
182 211 255
182 211 255
182 211 255
182 211 255
182 212 255
182 212 255
182 212 255
182 212 255
182 212 255
182 212 255
182 212 255
182 212 255
182 212 255
183 212 255
183 212 255
183 212 255
183 212 255
183 212 255
183 212 255
183 212 255
183 212 255
183 212 255
183 212 255
183 212 255
183 212 255
183 212 255
183 212 255
183 212 255
183 212 255
183 212 255
183 212 255
183 212 255
183 212 255
183 212 255
183 212 255
183 212 255
183 212 255
183 212 255
183 212 255
183 212 255
184 212 255
184 212 255
184 212 255
184 212 255
184 212 255
184 212 255
184 212 255
184 212 255
184 212 255
184 212 255
184 213 255
184 213 255
184 213 255
184 213 255
184 213 255
184 213 255
184 213 255
184 213 255
184 213 255
184 213 255
184 213 255
184 213 255
184 213 255
184 213 255
184 213 255
184 213 255
184 213 255
184 213 255
184 213 255
184 213 255
184 213 255
185 213 255
185 213 255
185 213 255
185 213 255
185 213 255
185 213 255
185 213 255
185 213 255
185 213 255
185 213 255
185 213 255
185 213 255
185 213 255
185 213 255
185 213 255
185 213 255
185 213 255
185 213 255
185 213 255
185 213 255
185 213 255
185 213 255
185 213 255
185 213 255
185 213 255
185 213 255
185 213 255
185 213 255
185 213 255
185 213 255
185 213 255
185 213 255
185 213 255
185 213 255
185 213 255
185 213 255
185 213 255
185 213 255
186 214 255
186 214 255
186 214 255
186 214 255
186 214 255
186 214 255
186 214 255
186 214 255
186 214 255
186 214 255
186 214 255
186 214 255
186 214 255
186 214 255
186 214 255
186 214 255
186 214 255
186 214 255
186 214 255
186 214 255
186 214 255
186 214 255
186 214 255
186 214 255
186 214 255
186 214 255
186 214 255
186 214 255
185 213 255
185 213 255
185 213 255
185 213 255
185 213 255
185 213 255
185 213 255
185 213 255
185 213 255
185 213 255
185 213 255
185 213 255
185 213 255
185 213 255
185 213 255
185 213 255
185 213 255
185 213 255
185 213 255
185 213 255
185 213 255
185 213 255
185 213 255
185 213 255
185 213 255
185 213 255
185 213 255
185 213 255
185 213 255
185 213 255
185 213 255
185 213 255
185 213 255
185 213 255
185 213 255
185 213 255
185 213 255
184 213 255
184 213 255
184 213 255
184 213 255
184 213 255
184 213 255
184 213 255
184 213 255
184 213 255
184 213 255
184 213 255
184 213 255
184 213 255
184 213 255
184 213 255
184 213 255
184 213 255
184 213 255
184 213 255
184 213 255
184 213 255
184 212 255
184 212 255
184 212 255
184 212 255
184 212 255
184 212 255
184 212 255
184 212 255
184 212 255
184 212 255
183 212 255
183 212 255
183 212 255
183 212 255
183 212 255
183 212 255
183 212 255
183 212 255
183 212 255
183 212 255
183 212 255
183 212 255
183 212 255
183 212 255
183 212 255
183 212 255
183 212 255
183 212 255
183 212 255
183 212 255
183 212 255
183 212 255
183 212 255
183 212 255
183 212 255
183 212 255
183 212 255
182 212 255
182 212 255
182 212 255
182 212 255
182 212 255
182 212 255
182 212 255
182 212 255
182 212 255
182 211 255
182 211 255
182 211 255
182 211 255
182 211 255
182 211 255
182 211 255
182 211 255
182 211 255
182 211 255
182 211 255
182 211 255
182 211 255
182 211 255
49 58 71
14 17 23
13 17 22
13 16 21
17 21 26
16 19 25
16 20 26
14 17 22
15 18 23
12 15 20
13 17 22
14 17 21
13 17 21
14 18 24
12 16 20
16 20 26
12 15 19
15 19 24
14 18 23
13 16 21
14 17 22
13 17 22
13 17 22
12 15 20
12 15 19
13 17 22
15 19 25
13 16 21
12 14 19
16 19 24
13 17 21
15 18 23
11 13 17
13 15 19
14 18 23
11 13 17
14 17 22
13 16 20
12 15 20
13 16 20
11 14 18
13 17 21
12 14 19
12 14 18
12 15 19
13 16 20
15 18 24
13 17 22
14 17 22
15 18 24
14 17 21
11 14 18
12 15 20
11 13 17
14 17 22
12 15 19
12 15 20
11 14 18
10 13 16
12 15 19
13 17 22
17 21 27
12 15 19
12 15 19
11 13 17
13 17 21
11 14 17
12 15 19
13 16 21
15 18 23
13 16 21
11 14 18
14 17 22
14 17 22
11 14 18
11 14 18
13 16 21
12 16 20
11 14 18
16 19 25
12 15 20
12 15 19
13 16 20
15 19 25
15 19 24
11 14 18
12 15 20
14 17 22
14 17 22
12 15 19
10 12 16
15 19 25
17 21 27
14 17 23
11 14 18
10 13 16
14 18 23
14 17 23
13 16 21
12 15 20
13 16 21
13 16 21
12 15 20
15 18 24
13 16 20
9 11 15
16 20 25
13 15 20
17 22 28
16 20 25
14 18 23
12 15 20
11 14 19
16 19 25
12 15 19
13 16 21
14 18 22
17 20 26
15 18 24
11 14 18
14 17 22
16 20 26
14 18 24
41 49 60
182 211 255
182 211 255
182 211 255
182 211 255
182 211 255
182 211 255
182 211 255
182 211 255
182 211 255
182 211 255
182 211 255
182 211 255
182 211 255
182 212 255
182 212 255
182 212 255
182 212 255
182 212 255
182 212 255
182 212 255
182 212 255
182 212 255
183 212 255
183 212 255
183 212 255
183 212 255
183 212 255
183 212 255
183 212 255
183 212 255
183 212 255
183 212 255
183 212 255
183 212 255
183 212 255
183 212 255
183 212 255
183 212 255
183 212 255
183 212 255
183 212 255
183 212 255
183 212 255
183 212 255
183 212 255
183 212 255
183 212 255
183 212 255
183 212 255
183 212 255
184 212 255
184 212 255
184 212 255
184 212 255
184 212 255
184 212 255
184 212 255
184 212 255
184 212 255
184 212 255
184 213 255
184 213 255
184 213 255
184 213 255
184 213 255
184 213 255
184 213 255
184 213 255
184 213 255
184 213 255
184 213 255
184 213 255
184 213 255
184 213 255
184 213 255
184 213 255
184 213 255
184 213 255
184 213 255
184 213 255
184 213 255
185 213 255
185 213 255
185 213 255
185 213 255
185 213 255
185 213 255
185 213 255
185 213 255
185 213 255
185 213 255
185 213 255
185 213 255
185 213 255
185 213 255
185 213 255
185 213 255
185 213 255
185 213 255
185 213 255
185 213 255
185 213 255
185 213 255
185 213 255
185 213 255
185 213 255
185 213 255
185 213 255
185 213 255
185 213 255
185 213 255
185 213 255
185 213 255
185 213 255
185 213 255
185 213 255
185 213 255
185 213 255
186 214 255
186 214 255
186 214 255
186 214 255
186 214 255
186 214 255
186 214 255
186 214 255
186 214 255
186 214 255
186 214 255
186 214 255
186 214 255
186 214 255
186 214 255
186 214 255
186 214 255
186 214 255
186 214 255
186 214 255
186 214 255
186 214 255
186 214 255
186 214 255
186 214 255
186 214 255
186 214 255
186 214 255
186 214 255
186 214 255
186 214 255
186 214 255
186 214 255
186 214 255
186 214 255
186 214 255
186 214 255
186 214 255
186 214 255
186 214 255
186 214 255
186 214 255
186 214 255
186 214 255
186 214 255
186 214 255
186 214 255
186 214 255
186 214 255
186 214 255
186 214 255
186 214 255
186 214 255
185 213 255
185 213 255
185 213 255
185 213 255
185 213 255
185 213 255
185 213 255
185 213 255
185 213 255
185 213 255
185 213 255
185 213 255
185 213 255
185 213 255
185 213 255
185 213 255
185 213 255
185 213 255
185 213 255
185 213 255
185 213 255
185 213 255
185 213 255
185 213 255
185 213 255
185 213 255
185 213 255
185 213 255
185 213 255
185 213 255
185 213 255
185 213 255
185 213 255
185 213 255
185 213 255
185 213 255
184 213 255
184 213 255
184 213 255
184 213 255
184 213 255
184 213 255
184 213 255
184 213 255
184 213 255
184 213 255
184 213 255
184 213 255
184 213 255
184 213 255
184 213 255
184 213 255
184 213 255
184 213 255
184 213 255
184 213 255
184 213 255
184 212 255
184 212 255
184 212 255
184 212 255
184 212 255
184 212 255
184 212 255
184 212 255
184 212 255
183 212 255
183 212 255
183 212 255
183 212 255
183 212 255
183 212 255
183 212 255
183 212 255
183 212 255
183 212 255
183 212 255
183 212 255
183 212 255
183 212 255
183 212 255
183 212 255
183 212 255
183 212 255
183 212 255
183 212 255
183 212 255
183 212 255
183 212 255
183 212 255
183 212 255
183 212 255
183 212 255
183 212 255
182 212 255
182 212 255
182 212 255
182 212 255
182 212 255
182 212 255
182 212 255
182 212 255
182 212 255
182 212 255
160 186 225
15 19 24
16 20 25
15 18 23
12 15 20
13 17 21
15 19 24
13 16 20
18 22 29
14 18 24
14 17 22
15 18 24
13 16 21
16 20 26
12 15 19
13 17 22
17 21 27
15 19 25
11 13 18
16 20 26
12 15 20
13 16 20
12 15 19
16 19 25
14 18 23
14 17 22
13 16 21
12 16 20
15 19 25
14 17 23
12 16 20
12 15 20
13 16 20
12 15 19
14 17 22
12 15 20
12 15 19
12 15 20
15 19 25
12 16 21
11 14 19
13 16 21
9 12 15
13 16 21
9 12 15
17 21 27
14 17 22
12 15 20
12 15 20
10 13 17
13 16 21
12 14 19
13 16 21
14 17 22
12 15 20
12 15 20
18 21 27
12 15 20
14 17 22
12 15 19
15 19 24
12 15 19
13 16 20
10 12 16
13 16 21
13 16 20
15 19 24
11 14 19
13 15 20
12 15 20
12 15 19
14 18 23
10 13 17
12 15 19
15 18 24
11 14 19
14 17 22
13 16 20
11 13 17
12 15 19
13 16 21
13 15 20
14 17 22
13 16 20
10 13 17
16 20 25
11 14 18
13 16 20
14 18 23
14 17 23
14 17 22
14 17 22
13 16 20
11 14 18
11 14 18
14 18 23
13 16 21
16 20 26
14 17 23
16 20 26
13 16 21
14 17 22
15 19 25
15 18 23
14 17 22
12 15 19
11 13 17
14 17 21
14 17 23
15 19 24
12 15 19
14 17 22
15 19 24
15 19 24
12 15 20
17 21 27
13 16 21
16 20 26
14 18 23
13 17 22
16 19 25
15 19 25
13 17 22
16 20 25
16 19 25
160 186 225
182 212 255
182 212 255
182 212 255
182 212 255
182 212 255
182 212 255
182 212 255
182 212 255
182 212 255
182 212 255
183 212 255
183 212 255
183 212 255
183 212 255
183 212 255
183 212 255
183 212 255
183 212 255
183 212 255
183 212 255
183 212 255
183 212 255
183 212 255
183 212 255
183 212 255
183 212 255
183 212 255
183 212 255
183 212 255
183 212 255
183 212 255
183 212 255
183 212 255
183 212 255
183 212 255
183 212 255
183 212 255
184 212 255
184 212 255
184 212 255
184 212 255
184 212 255
184 212 255
184 212 255
184 212 255
184 212 255
184 212 255
184 213 255
184 213 255
184 213 255
184 213 255
184 213 255
184 213 255
184 213 255
184 213 255
184 213 255
184 213 255
184 213 255
184 213 255
184 213 255
184 213 255
184 213 255
184 213 255
184 213 255
184 213 255
184 213 255
184 213 255
184 213 255
185 213 255
185 213 255
185 213 255
185 213 255
185 213 255
185 213 255
185 213 255
185 213 255
185 213 255
185 213 255
185 213 255
185 213 255
185 213 255
185 213 255
185 213 255
185 213 255
185 213 255
185 213 255
185 213 255
185 213 255
185 213 255
185 213 255
185 213 255
185 213 255
185 213 255
185 213 255
185 213 255
185 213 255
185 213 255
185 213 255
185 213 255
185 213 255
185 213 255
185 213 255
185 213 255
185 213 255
185 213 255
186 214 255
186 214 255
186 214 255
186 214 255
186 214 255
186 214 255
186 214 255
186 214 255
186 214 255
186 214 255
186 214 255
186 214 255
186 214 255
186 214 255
186 214 255
186 214 255
186 214 255
186 214 255
186 214 255
186 214 255
186 214 255
186 214 255
186 214 255
186 214 255
186 214 255
186 214 255
186 214 255
186 214 255
186 214 255
186 214 255
186 214 255
186 214 255
186 214 255
186 214 255
186 214 255
186 214 255
186 214 255
186 214 255
186 214 255
186 214 255
186 214 255
186 214 255
186 214 255
186 214 255
186 214 255
186 214 255
186 214 255
186 214 255
186 214 255
186 214 255
186 214 255
186 214 255
186 214 255
186 214 255
186 214 255
186 214 255
186 214 255
186 214 255
186 214 255
186 214 255
186 214 255
186 214 255
186 214 255
186 214 255
186 214 255
186 214 255
186 214 255
186 214 255
186 214 255
186 214 255
186 214 255
186 214 255
186 214 255
186 214 255
186 214 255
186 214 255
186 214 255
185 213 255
185 213 255
185 213 255
185 213 255
185 213 255
185 213 255
185 213 255
185 213 255
185 213 255
185 213 255
185 213 255
185 213 255
185 213 255
185 213 255
185 213 255
185 213 255
185 213 255
185 213 255
185 213 255
185 213 255
185 213 255
185 213 255
185 213 255
185 213 255
185 213 255
185 213 255
185 213 255
185 213 255
185 213 255
185 213 255
185 213 255
185 213 255
185 213 255
185 213 255
185 213 255
185 213 255
185 213 255
184 213 255
184 213 255
184 213 255
184 213 255
184 213 255
184 213 255
184 213 255
184 213 255
184 213 255
184 213 255
184 213 255
184 213 255
184 213 255
184 213 255
184 213 255
184 213 255
184 213 255
184 213 255
184 213 255
184 213 255
184 212 255
184 212 255
184 212 255
184 212 255
184 212 255
184 212 255
184 212 255
184 212 255
184 212 255
184 212 255
183 212 255
183 212 255
183 212 255
183 212 255
183 212 255
183 212 255
183 212 255
183 212 255
183 212 255
183 212 255
183 212 255
183 212 255
183 212 255
183 212 255
183 212 255
183 212 255
183 212 255
183 212 255
183 212 255
183 212 255
183 212 255
183 212 255
183 212 255
183 212 255
183 212 255
110 128 155
12 15 19
14 17 22
12 15 19
13 17 22
13 16 21
15 19 24
15 18 24
14 18 23
15 18 23
15 18 23
16 20 25
15 18 23
13 16 21
14 18 23
15 18 24
16 19 24
15 18 24
13 17 22
12 16 20
12 15 19
13 16 21
16 19 24
12 15 19
15 18 24
11 14 18
14 17 22
13 16 20
13 16 21
13 16 21
11 14 18
13 16 21
14 18 23
12 15 19
16 20 26
13 16 21
15 18 23
11 14 18
13 16 20
16 20 25
14 17 22
12 15 19
16 20 25
12 16 20
12 15 20
11 14 18
13 16 21
11 14 19
11 14 18
14 17 22
13 16 21
13 16 21
13 16 20
11 14 18
12 14 19
15 18 24
13 16 20
14 17 23
16 19 25
13 16 20
12 15 20
15 18 24
16 20 26
12 15 19
11 14 18
11 14 19
11 13 17
13 16 21
13 16 20
12 15 20
14 18 23
12 15 19
13 17 22
12 15 19
15 18 23
13 16 20
11 14 18
12 15 19
12 15 19
12 15 20
12 16 20
13 16 21
9 11 15
15 19 24
12 15 20
13 16 20
14 17 22
15 18 24
14 17 22
13 17 21
12 15 20
16 19 25
12 15 20
12 15 20
13 16 20
10 13 16
11 13 17
12 14 19
11 13 17
12 15 19
12 15 19
14 17 22
11 13 17
15 19 25
14 18 23
14 17 22
12 16 20
14 17 22
15 18 24
12 15 19
14 17 23
14 17 22
13 16 20
15 18 24
15 18 23
12 15 20
13 16 22
13 16 21
14 18 23
15 18 24
15 19 24
14 17 22
13 17 22
15 18 24
12 15 20
114 132 160
183 212 255
183 212 255
183 212 255
183 212 255
183 212 255
183 212 255
183 212 255
183 212 255
183 212 255
183 212 255
183 212 255
183 212 255
183 212 255
183 212 255
183 212 255
183 212 255
183 212 255
183 212 255
183 212 255
183 212 255
183 212 255
183 212 255
183 212 255
183 212 255
183 212 255
184 212 255
184 212 255
184 212 255
184 212 255
184 212 255
184 212 255
184 212 255
184 212 255
184 212 255
184 212 255
184 213 255
184 213 255
184 213 255
184 213 255
184 213 255
184 213 255
184 213 255
184 213 255
184 213 255
184 213 255
184 213 255
184 213 255
184 213 255
184 213 255
184 213 255
184 213 255
184 213 255
184 213 255
184 213 255
184 213 255
184 213 255
185 213 255
185 213 255
185 213 255
185 213 255
185 213 255
185 213 255
185 213 255
185 213 255
185 213 255
185 213 255
185 213 255
185 213 255
185 213 255
185 213 255
185 213 255
185 213 255
185 213 255
185 213 255
185 213 255
185 213 255
185 213 255
185 213 255
185 213 255
185 213 255
185 213 255
185 213 255
185 213 255
185 213 255
185 213 255
185 213 255
185 213 255
185 213 255
185 213 255
185 213 255
185 213 255
185 213 255
186 214 255
186 214 255
186 214 255
186 214 255
186 214 255
186 214 255
186 214 255
186 214 255
186 214 255
186 214 255
186 214 255
186 214 255
186 214 255
186 214 255
186 214 255
186 214 255
186 214 255
186 214 255
186 214 255
186 214 255
186 214 255
186 214 255
186 214 255
186 214 255
186 214 255
186 214 255
186 214 255
186 214 255
186 214 255
186 214 255
186 214 255
186 214 255
186 214 255
186 214 255
186 214 255
186 214 255
186 214 255
186 214 255
186 214 255
186 214 255
186 214 255
186 214 255
186 214 255
186 214 255
186 214 255
187 214 255
187 214 255
187 214 255
187 214 255
187 214 255
187 214 255
187 214 255
187 214 255
187 214 255
187 214 255
187 214 255
187 214 255
187 214 255
187 214 255
187 214 255
186 214 255
186 214 255
186 214 255
186 214 255
186 214 255
186 214 255
186 214 255
186 214 255
186 214 255
186 214 255
186 214 255
186 214 255
186 214 255
186 214 255
186 214 255
186 214 255
186 214 255
186 214 255
186 214 255
186 214 255
186 214 255
186 214 255
186 214 255
186 214 255
186 214 255
186 214 255
186 214 255
186 214 255
186 214 255
186 214 255
186 214 255
186 214 255
186 214 255
186 214 255
186 214 255
186 214 255
186 214 255
186 214 255
186 214 255
186 214 255
186 214 255
186 214 255
186 214 255
185 213 255
185 213 255
185 213 255
185 213 255
185 213 255
185 213 255
185 213 255
185 213 255
185 213 255
185 213 255
185 213 255
185 213 255
185 213 255
185 213 255
185 213 255
185 213 255
185 213 255
185 213 255
185 213 255
185 213 255
185 213 255
185 213 255
185 213 255
185 213 255
185 213 255
185 213 255
185 213 255
185 213 255
185 213 255
185 213 255
185 213 255
185 213 255
185 213 255
185 213 255
185 213 255
185 213 255
184 213 255
184 213 255
184 213 255
184 213 255
184 213 255
184 213 255
184 213 255
184 213 255
184 213 255
184 213 255
184 213 255
184 213 255
184 213 255
184 213 255
184 213 255
184 213 255
184 213 255
184 213 255
184 213 255
184 213 255
184 213 255
184 212 255
184 212 255
184 212 255
184 212 255
184 212 255
184 212 255
184 212 255
184 212 255
184 212 255
184 212 255
183 212 255
183 212 255
183 212 255
183 212 255
183 212 255
183 212 255
183 212 255
183 212 255
183 212 255
183 212 255
183 212 255
183 212 255
78 91 111
15 19 25
13 16 21
14 17 21
12 16 21
15 19 25
14 17 22
15 18 23
15 18 24
16 19 25
15 18 23
14 17 22
12 15 19
14 18 23
16 20 26
13 16 21
16 20 25
14 18 23
13 16 20
12 14 19
13 16 21
14 17 22
12 15 20
12 15 20
12 15 19
13 15 20
10 12 16
13 16 20
13 16 21
13 16 21
15 19 24
14 17 23
13 16 21
15 18 23
10 12 16
11 14 18
14 17 21
13 16 21
10 13 17
11 14 18
12 15 20
16 19 25
13 16 21
14 17 22
12 14 18
14 17 22
11 14 18
12 15 19
14 18 23
13 16 20
12 15 19
14 18 23
11 14 18
11 13 17
8 11 14
11 13 17
10 13 17
15 19 25
11 13 18
11 14 19
12 15 18
13 17 22
14 18 23
11 14 19
14 17 22
12 15 19
13 16 21
11 13 17
10 13 17
11 13 17
11 13 17
12 15 19
12 15 19
13 16 20
11 13 18
11 14 19
12 14 18
10 12 16
14 18 23
10 12 16
11 14 18
12 15 19
14 17 22
10 12 16
11 14 19
13 16 20
12 15 19
14 17 22
15 19 25
11 14 18
12 15 19
12 15 19
12 15 20
9 12 15
14 17 22
12 15 19
11 14 18
14 17 22
12 15 19
14 17 23
14 18 23
11 14 19
12 15 19
15 19 24
12 15 20
14 17 22
12 15 19
13 16 20
12 15 19
15 19 24
16 19 24
13 16 21
16 20 26
14 17 22
12 15 19
11 14 18
13 16 20
14 17 22
14 17 22
16 20 26
11 14 18
11 14 18
12 15 20
15 18 24
13 17 22
61 72 88
183 212 255
183 212 255
183 212 255
183 212 255
183 212 255
183 212 255
183 212 255
183 212 255
183 212 255
183 212 255
183 212 255
183 212 255
184 212 255
184 212 255
184 212 255
184 212 255
184 212 255
184 212 255
184 212 255
184 212 255
184 212 255
184 212 255
184 213 255
184 213 255
184 213 255
184 213 255
184 213 255
184 213 255
184 213 255
184 213 255
184 213 255
184 213 255
184 213 255
184 213 255
184 213 255
184 213 255
184 213 255
184 213 255
184 213 255
184 213 255
184 213 255
184 213 255
184 213 255
185 213 255
185 213 255
185 213 255
185 213 255
185 213 255
185 213 255
185 213 255
185 213 255
185 213 255
185 213 255
185 213 255
185 213 255
185 213 255
185 213 255
185 213 255
185 213 255
185 213 255
185 213 255
185 213 255
185 213 255
185 213 255
185 213 255
185 213 255
185 213 255
185 213 255
185 213 255
185 213 255
185 213 255
185 213 255
185 213 255
185 213 255
185 213 255
185 213 255
185 213 255
185 213 255
186 214 255
186 214 255
186 214 255
186 214 255
186 214 255
186 214 255
186 214 255
186 214 255
186 214 255
186 214 255
186 214 255
186 214 255
186 214 255
186 214 255
186 214 255
186 214 255
186 214 255
186 214 255
186 214 255
186 214 255
186 214 255
186 214 255
186 214 255
186 214 255
186 214 255
186 214 255
186 214 255
186 214 255
186 214 255
186 214 255
186 214 255
186 214 255
186 214 255
186 214 255
186 214 255
186 214 255
186 214 255
186 214 255
186 214 255
186 214 255
186 214 255
186 214 255
186 214 255
186 214 255
186 214 255
187 214 255
187 214 255
187 214 255
187 214 255
187 214 255
187 214 255
187 214 255
187 214 255
187 214 255
187 214 255
187 214 255
187 214 255
187 214 255
187 214 255
187 214 255
187 214 255
187 214 255
187 214 255
187 214 255
187 214 255
187 214 255
187 214 255
187 214 255
187 214 255
187 214 255
187 214 255
187 214 255
187 214 255
187 214 255
187 214 255
187 214 255
187 214 255
187 214 255
187 214 255
187 214 255
187 214 255
187 214 255
187 214 255
187 214 255
187 214 255
187 214 255
187 214 255
187 214 255
186 214 255
186 214 255
186 214 255
186 214 255
186 214 255
186 214 255
186 214 255
186 214 255
186 214 255
186 214 255
186 214 255
186 214 255
186 214 255
186 214 255
186 214 255
186 214 255
186 214 255
186 214 255
186 214 255
186 214 255
186 214 255
186 214 255
186 214 255
186 214 255
186 214 255
186 214 255
186 214 255
186 214 255
186 214 255
186 214 255
186 214 255
186 214 255
186 214 255
186 214 255
186 214 255
186 214 255
186 214 255
186 214 255
186 214 255
186 214 255
186 214 255
186 214 255
186 214 255
186 214 255
186 214 255
185 213 255
185 213 255
185 213 255
185 213 255
185 213 255
185 213 255
185 213 255
185 213 255
185 213 255
185 213 255
185 213 255
185 213 255
185 213 255
185 213 255
185 213 255
185 213 255
185 213 255
185 213 255
185 213 255
185 213 255
185 213 255
185 213 255
185 213 255
185 213 255
185 213 255
185 213 255
185 213 255
185 213 255
185 213 255
185 213 255
185 213 255
185 213 255
185 213 255
184 213 255
184 213 255
184 213 255
184 213 255
184 213 255
184 213 255
184 213 255
184 213 255
184 213 255
184 213 255
184 213 255
184 213 255
184 213 255
184 213 255
184 213 255
184 213 255
184 213 255
184 213 255
184 213 255
184 213 255
184 213 255
184 213 255
184 213 255
184 212 255
184 212 255
184 212 255
184 212 255
184 212 255
184 212 255
184 212 255
20 24 30
12 15 19
13 16 21
15 19 25
14 17 23
12 15 20
14 17 22
16 19 25
11 14 18
16 20 26
14 17 23
15 18 24
15 19 24
17 22 28
16 20 25
13 16 22
13 16 21
14 18 23
14 17 22
13 17 21
14 17 22
16 20 25
11 14 17
14 17 22
17 20 26
15 18 23
13 16 21
12 15 19
14 17 22
14 17 22
13 17 22
12 15 19
15 19 24
11 14 18
15 18 23
11 14 19
12 15 19
17 20 26
11 14 18
14 17 22
12 15 19
11 13 17
14 18 24
12 15 20
12 15 20
15 19 25
11 14 18
13 15 20
12 15 19
12 14 18
12 15 19
11 14 18
14 17 22
11 14 18
11 13 16
12 15 19
11 13 17
11 14 18
11 14 18
16 20 25
11 13 17
13 16 20
12 16 21
13 16 21
14 17 22
13 17 22
10 13 16
11 14 18
12 15 19
16 19 25
12 15 20
13 16 21
11 14 18
13 15 20
12 15 19
14 18 23
15 19 24
15 19 24
12 14 18
13 16 20
12 14 18
15 19 25
11 14 19
12 16 20
14 18 23
11 14 18
13 16 22
10 13 17
15 19 24
12 15 19
12 15 20
12 15 19
13 16 21
14 17 22
12 15 20
13 16 20
12 15 20
14 17 21
12 16 20
12 15 19
12 15 19
13 16 21
16 20 26
12 14 18
14 18 23
15 18 24
9 12 16
13 16 21
11 14 18
15 18 24
13 17 22
12 15 19
13 16 20
15 19 25
13 16 21
13 16 21
16 20 25
14 17 22
15 18 24
13 16 20
14 17 23
13 16 20
15 19 25
14 17 23
11 14 18
18 22 29
178 206 248
184 212 255
184 212 255
184 212 255
184 212 255
184 212 255
184 212 255
184 212 255
184 213 255
184 213 255
184 213 255
184 213 255
184 213 255
184 213 255
184 213 255
184 213 255
184 213 255
184 213 255
184 213 255
184 213 255
184 213 255
184 213 255
184 213 255
184 213 255
184 213 255
184 213 255
184 213 255
184 213 255
184 213 255
185 213 255
185 213 255
185 213 255
185 213 255
185 213 255
185 213 255
185 213 255
185 213 255
185 213 255
185 213 255
185 213 255
185 213 255
185 213 255
185 213 255
185 213 255
185 213 255
185 213 255
185 213 255
185 213 255
185 213 255
185 213 255
185 213 255
185 213 255
185 213 255
185 213 255
185 213 255
185 213 255
185 213 255
185 213 255
185 213 255
185 213 255
185 213 255
185 213 255
185 213 255
185 213 255
186 214 255
186 214 255
186 214 255
186 214 255
186 214 255
186 214 255
186 214 255
186 214 255
186 214 255
186 214 255
186 214 255
186 214 255
186 214 255
186 214 255
186 214 255
186 214 255
186 214 255
186 214 255
186 214 255
186 214 255
186 214 255
186 214 255
186 214 255
186 214 255
186 214 255
186 214 255
186 214 255
186 214 255
186 214 255
186 214 255
186 214 255
186 214 255
186 214 255
186 214 255
186 214 255
186 214 255
186 214 255
186 214 255
186 214 255
186 214 255
186 214 255
186 214 255
186 214 255
186 214 255
187 214 255
187 214 255
187 214 255
187 214 255
187 214 255
187 214 255
187 214 255
187 214 255
187 214 255
187 214 255
187 214 255
187 214 255
187 214 255
187 214 255
187 214 255
187 214 255
187 214 255
187 214 255
187 214 255
187 214 255
187 214 255
187 214 255
187 214 255
187 214 255
187 214 255
187 214 255
187 214 255
187 214 255
187 214 255
187 215 255
187 215 255
187 215 255
187 215 255
187 215 255
187 215 255
187 215 255
187 215 255
187 215 255
187 215 255
187 214 255
187 214 255
187 214 255
187 214 255
187 214 255
187 214 255
187 214 255
187 214 255
187 214 255
187 214 255
187 214 255
187 214 255
187 214 255
187 214 255
187 214 255
187 214 255
187 214 255
187 214 255
187 214 255
187 214 255
187 214 255
187 214 255
187 214 255
187 214 255
187 214 255
187 214 255
187 214 255
187 214 255
187 214 255
187 214 255
187 214 255
187 214 255
187 214 255
187 214 255
187 214 255
187 214 255
186 214 255
186 214 255
186 214 255
186 214 255
186 214 255
186 214 255
186 214 255
186 214 255
186 214 255
186 214 255
186 214 255
186 214 255
186 214 255
186 214 255
186 214 255
186 214 255
186 214 255
186 214 255
186 214 255
186 214 255
186 214 255
186 214 255
186 214 255
186 214 255
186 214 255
186 214 255
186 214 255
186 214 255
186 214 255
186 214 255
186 214 255
186 214 255
186 214 255
186 214 255
186 214 255
186 214 255
186 214 255
186 214 255
186 214 255
186 214 255
186 214 255
185 213 255
185 213 255
185 213 255
185 213 255
185 213 255
185 213 255
185 213 255
185 213 255
185 213 255
185 213 255
185 213 255
185 213 255
185 213 255
185 213 255
185 213 255
185 213 255
185 213 255
185 213 255
185 213 255
185 213 255
185 213 255
185 213 255
185 213 255
185 213 255
185 213 255
185 213 255
185 213 255
185 213 255
185 213 255
185 213 255
185 213 255
185 213 255
185 213 255
185 213 255
185 213 255
185 213 255
184 213 255
184 213 255
184 213 255
184 213 255
184 213 255
184 213 255
184 213 255
184 213 255
184 213 255
184 213 255
184 213 255
184 213 255
184 213 255
137 158 191
13 16 21
13 16 20
13 16 20
13 16 21
13 16 21
14 18 23
15 19 24
13 16 21
10 12 15
15 18 23
9 12 15
15 18 23
15 18 24
13 17 22
13 16 21
14 18 23
12 15 20
13 17 22
17 21 26
13 17 22
14 18 23
14 18 23
13 17 21
11 14 18
13 16 20
15 18 23
14 18 23
13 16 21
13 16 21
11 14 19
12 15 20
14 18 23
13 15 20
15 19 24
13 16 20
13 17 21
15 18 23
11 13 17
13 16 21
13 16 21
12 15 19
11 14 19
14 17 22
14 18 23
13 17 22
10 12 16
12 15 19
14 17 23
14 18 23
15 18 23
11 14 18
13 16 21
14 18 23
11 13 17
13 16 20
12 14 18
12 15 19
12 15 20
13 16 21
14 17 23
14 18 23
12 15 19
12 15 19
13 16 21
14 17 22
12 15 20
11 13 17
10 12 16
13 16 21
13 16 20
11 13 17
12 14 18
10 13 17
12 15 19
12 14 19
13 16 21
11 13 17
13 16 21
11 14 18
11 13 17
11 13 17
12 15 19
13 16 20
11 14 18
14 17 22
12 15 19
12 15 19
14 18 23
10 13 17
11 13 18
10 13 17
13 16 21
12 15 19
13 16 20
13 16 21
13 15 20
13 16 21
13 16 20
13 15 19
13 16 21
10 13 18
13 16 20
14 17 23
14 18 23
15 19 24
12 15 19
14 17 22
13 16 20
12 15 19
15 19 25
13 16 21
15 18 23
13 16 21
15 18 23
12 15 20
13 16 22
14 18 23
12 15 20
12 15 20
14 18 23
15 19 24
18 22 29
14 17 22
14 18 23
15 19 25
13 16 21
139 161 194
184 213 255
184 213 255
184 213 255
184 213 255
184 213 255
184 213 255
184 213 255
184 213 255
184 213 255
184 213 255
184 213 255
184 213 255
184 213 255
185 213 255
185 213 255
185 213 255
185 213 255
185 213 255
185 213 255
185 213 255
185 213 255
185 213 255
185 213 255
185 213 255
185 213 255
185 213 255
185 213 255
185 213 255
185 213 255
185 213 255
185 213 255
185 213 255
185 213 255
185 213 255
185 213 255
185 213 255
185 213 255
185 213 255
185 213 255
185 213 255
185 213 255
185 213 255
185 213 255
185 213 255
185 213 255
185 213 255
185 213 255
185 213 255
185 213 255
186 214 255
186 214 255
186 214 255
186 214 255
186 214 255
186 214 255
186 214 255
186 214 255
186 214 255
186 214 255
186 214 255
186 214 255
186 214 255
186 214 255
186 214 255
186 214 255
186 214 255
186 214 255
186 214 255
186 214 255
186 214 255
186 214 255
186 214 255
186 214 255
186 214 255
186 214 255
186 214 255
186 214 255
186 214 255
186 214 255
186 214 255
186 214 255
186 214 255
186 214 255
186 214 255
186 214 255
186 214 255
186 214 255
186 214 255
186 214 255
186 214 255
187 214 255
187 214 255
187 214 255
187 214 255
187 214 255
187 214 255
187 214 255
187 214 255
187 214 255
187 214 255
187 214 255
187 214 255
187 214 255
187 214 255
187 214 255
187 214 255
187 214 255
187 214 255
187 214 255
187 214 255
187 214 255
187 214 255
187 214 255
187 214 255
187 214 255
187 214 255
187 214 255
187 214 255
187 214 255
187 214 255
187 214 255
187 214 255
187 214 255
187 214 255
187 214 255
187 214 255
187 215 255
187 215 255
187 215 255
187 215 255
187 215 255
187 215 255
187 215 255
187 215 255
187 215 255
187 215 255
188 215 255
188 215 255
188 215 255
188 215 255
188 215 255
188 215 255
188 215 255
187 215 255
187 215 255
187 215 255
187 215 255
187 215 255
187 215 255
187 215 255
187 215 255
187 215 255
187 215 255
187 215 255
187 215 255
187 215 255
187 215 255
187 215 255
187 215 255
187 215 255
187 215 255
187 215 255
187 215 255
187 214 255
187 214 255
187 214 255
187 214 255
187 214 255
187 214 255
187 214 255
187 214 255
187 214 255
187 214 255
187 214 255
187 214 255
187 214 255
187 214 255
187 214 255
187 214 255
187 214 255
187 214 255
187 214 255
187 214 255
187 214 255
187 214 255
187 214 255
187 214 255
187 214 255
187 214 255
187 214 255
187 214 255
187 214 255
187 214 255
187 214 255
187 214 255
187 214 255
187 214 255
186 214 255
186 214 255
186 214 255
186 214 255
186 214 255
186 214 255
186 214 255
186 214 255
186 214 255
186 214 255
186 214 255
186 214 255
186 214 255
186 214 255
186 214 255
186 214 255
186 214 255
186 214 255
186 214 255
186 214 255
186 214 255
186 214 255
186 214 255
186 214 255
186 214 255
186 214 255
186 214 255
186 214 255
186 214 255
186 214 255
186 214 255
186 214 255
186 214 255
186 214 255
186 214 255
186 214 255
186 214 255
186 214 255
186 214 255
186 214 255
186 214 255
186 214 255
186 214 255
185 213 255
185 213 255
185 213 255
185 213 255
185 213 255
185 213 255
185 213 255
185 213 255
185 213 255
185 213 255
185 213 255
185 213 255
185 213 255
185 213 255
185 213 255
185 213 255
185 213 255
185 213 255
185 213 255
185 213 255
185 213 255
185 213 255
185 213 255
185 213 255
185 213 255
185 213 255
185 213 255
185 213 255
185 213 255
185 213 255
185 213 255
185 213 255
115 133 161
12 15 19
12 15 20
12 15 19
14 17 22
14 17 22
12 15 20
13 17 21
13 16 21
14 17 23
14 18 23
9 11 15
12 15 19
14 17 23
14 18 23
17 21 27
15 18 24
12 15 20
15 18 23
14 17 21
13 15 20
11 13 17
12 14 18
10 12 16
10 13 16
13 17 22
12 15 20
11 14 19
12 15 20
9 12 16
14 18 23
11 14 18
14 18 23
12 15 19
11 14 18
12 15 19
12 14 19
10 12 15
12 15 19
12 15 20
15 19 25
14 17 22
12 15 20
19 23 29
13 16 21
12 15 19
14 17 22
13 17 22
12 14 19
14 17 22
12 15 19
13 16 21
13 16 21
12 15 19
13 16 20
11 14 19
14 17 21
13 16 21
11 14 18
13 16 21
13 16 22
12 15 20
13 16 21
10 13 17
14 18 23
10 13 17
12 15 19
12 15 19
14 18 23
9 12 15
10 13 17
12 15 19
14 17 22
11 14 18
16 19 25
10 12 16
14 17 22
13 16 20
10 13 16
14 18 23
12 15 20
11 13 16
15 19 25
9 11 15
11 13 17
13 17 22
9 12 15
10 13 16
12 15 19
14 17 22
13 16 21
11 14 18
14 18 23
14 18 23
13 16 21
15 18 23
10 12 16
13 16 20
12 14 18
13 16 20
12 16 21
14 18 23
14 18 23
13 16 21
12 14 18
12 14 19
12 15 19
14 17 22
11 14 18
15 19 24
15 18 24
12 15 20
11 14 18
12 15 19
12 15 19
14 17 22
12 15 20
13 16 20
14 17 23
12 15 19
14 17 22
14 18 23
18 22 28
14 17 21
13 17 22
12 15 20
15 18 23
119 138 166
185 213 255
185 213 255
185 213 255
185 213 255
185 213 255
185 213 255
185 213 255
185 213 255
185 213 255
185 213 255
185 213 255
185 213 255
185 213 255
185 213 255
185 213 255
185 213 255
185 213 255
185 213 255
185 213 255
185 213 255
185 213 255
185 213 255
185 213 255
185 213 255
185 213 255
185 213 255
185 213 255
185 213 255
185 213 255
185 213 255
185 213 255
185 213 255
185 213 255
186 214 255
186 214 255
186 214 255
186 214 255
186 214 255
186 214 255
186 214 255
186 214 255
186 214 255
186 214 255
186 214 255
186 214 255
186 214 255
186 214 255
186 214 255
186 214 255
186 214 255
186 214 255
186 214 255
186 214 255
186 214 255
186 214 255
186 214 255
186 214 255
186 214 255
186 214 255
186 214 255
186 214 255
186 214 255
186 214 255
186 214 255
186 214 255
186 214 255
186 214 255
186 214 255
186 214 255
186 214 255
186 214 255
186 214 255
186 214 255
186 214 255
186 214 255
187 214 255
187 214 255
187 214 255
187 214 255
187 214 255
187 214 255
187 214 255
187 214 255
187 214 255
187 214 255
187 214 255
187 214 255
187 214 255
187 214 255
187 214 255
187 214 255
187 214 255
187 214 255
187 214 255
187 214 255
187 214 255
187 214 255
187 214 255
187 214 255
187 214 255
187 214 255
187 214 255
187 214 255
187 214 255
187 214 255
187 214 255
187 214 255
187 214 255
187 215 255
187 215 255
187 215 255
187 215 255
187 215 255
187 215 255
187 215 255
187 215 255
187 215 255
187 215 255
187 215 255
187 215 255
187 215 255
187 215 255
187 215 255
187 215 255
187 215 255
187 215 255
187 215 255
187 215 255
187 215 255
188 215 255
188 215 255
188 215 255
188 215 255
188 215 255
188 215 255
188 215 255
188 215 255
188 215 255
188 215 255
188 215 255
188 215 255
188 215 255
188 215 255
188 215 255
188 215 255
188 215 255
188 215 255
188 215 255
188 215 255
188 215 255
188 215 255
188 215 255
188 215 255
188 215 255
188 215 255
188 215 255
188 215 255
188 215 255
188 215 255
188 215 255
188 215 255
187 215 255
187 215 255
187 215 255
187 215 255
187 215 255
187 215 255
187 215 255
187 215 255
187 215 255
187 215 255
187 215 255
187 215 255
187 215 255
187 215 255
187 215 255
187 215 255
187 215 255
187 215 255
187 215 255
187 215 255
187 215 255
187 214 255
187 214 255
187 214 255
187 214 255
187 214 255
187 214 255
187 214 255
187 214 255
187 214 255
187 214 255
187 214 255
187 214 255
187 214 255
187 214 255
187 214 255
187 214 255
187 214 255
187 214 255
187 214 255
187 214 255
187 214 255
187 214 255
187 214 255
187 214 255
187 214 255
187 214 255
187 214 255
187 214 255
187 214 255
187 214 255
187 214 255
186 214 255
186 214 255
186 214 255
186 214 255
186 214 255
186 214 255
186 214 255
186 214 255
186 214 255
186 214 255
186 214 255
186 214 255
186 214 255
186 214 255
186 214 255
186 214 255
186 214 255
186 214 255
186 214 255
186 214 255
186 214 255
186 214 255
186 214 255
186 214 255
186 214 255
186 214 255
186 214 255
186 214 255
186 214 255
186 214 255
186 214 255
186 214 255
186 214 255
186 214 255
186 214 255
186 214 255
186 214 255
186 214 255
186 214 255
186 214 255
186 214 255
186 214 255
186 214 255
185 213 255
186 213 255
185 213 255
185 213 255
185 213 255
185 213 255
185 213 255
185 213 255
185 213 255
185 213 255
185 213 255
185 213 255
185 213 255
185 213 255
185 213 255
185 213 255
77 89 108
13 16 20
16 20 25
16 20 26
11 14 18
13 16 21
16 20 26
14 18 23
11 14 18
14 17 23
12 15 19
13 17 21
16 19 24
15 18 24
11 14 18
11 13 17
13 16 21
15 18 23
15 18 24
14 17 21
13 16 21
14 17 22
12 14 18
13 16 21
14 18 23
16 19 25
14 17 22
11 13 17
13 16 21
11 13 17
11 14 18
12 14 18
11 13 17
12 15 20
13 17 22
13 17 22
13 16 21
13 15 20
13 16 21
11 14 18
14 18 23
12 15 19
11 14 18
13 16 20
15 19 25
9 11 14
13 16 20
14 17 22
12 14 18
15 18 23
11 13 17
11 14 19
11 14 18
13 17 22
14 17 21
12 15 19
12 15 20
13 15 20
14 17 22
11 14 17
12 15 19
14 17 22
11 14 17
13 16 20
15 18 23
11 14 18
15 18 23
15 19 24
11 14 18
13 16 20
14 17 21
11 14 18
10 13 17
12 15 19
13 15 20
11 14 18
10 13 17
13 15 20
12 15 20
13 16 21
10 13 17
11 14 19
10 12 16
13 17 22
14 17 22
12 15 20
13 16 21
11 13 17
12 15 20
13 16 21
11 13 17
12 15 19
14 17 22
12 15 20
12 14 19
13 17 22
12 15 19
10 13 17
11 14 18
14 18 23
15 19 24
10 12 16
14 18 23
13 16 20
13 16 21
14 18 23
14 17 21
14 17 22
12 15 19
12 15 19
13 16 21
13 16 21
13 17 21
13 16 21
12 15 19
16 20 25
13 16 20
14 18 23
15 19 24
17 20 26
14 17 23
14 18 23
17 21 28
13 16 20
12 15 19
14 17 22
13 16 21
66 76 92
185 213 255
185 213 255
185 213 255
185 213 255
185 213 255
185 213 255
185 213 255
185 213 255
185 213 255
185 213 255
185 213 255
185 213 255
185 213 255
185 213 255
185 213 255
185 213 255
186 214 255
186 214 255
186 214 255
186 214 255
186 214 255
186 214 255
186 214 255
186 214 255
186 214 255
186 214 255
186 214 255
186 214 255
186 214 255
186 214 255
186 214 255
186 214 255
186 214 255
186 214 255
186 214 255
186 214 255
186 214 255
186 214 255
186 214 255
186 214 255
186 214 255
186 214 255
186 214 255
186 214 255
186 214 255
186 214 255
186 214 255
186 214 255
186 214 255
186 214 255
186 214 255
186 214 255
186 214 255
186 214 255
186 214 255
186 214 255
186 214 255
186 214 255
187 214 255
187 214 255
187 214 255
187 214 255
187 214 255
187 214 255
187 214 255
187 214 255
187 214 255
187 214 255
187 214 255
187 214 255
187 214 255
187 214 255
187 214 255
187 214 255
187 214 255
187 214 255
187 214 255
187 214 255
187 214 255
187 214 255
187 214 255
187 214 255
187 214 255
187 214 255
187 214 255
187 214 255
187 214 255
187 214 255
187 214 255
187 214 255
187 214 255
187 215 255
187 215 255
187 215 255
187 215 255
187 215 255
187 215 255
187 215 255
187 215 255
187 215 255
187 215 255
187 215 255
187 215 255
187 215 255
187 215 255
187 215 255
187 215 255
187 215 255
187 215 255
187 215 255
187 215 255
188 215 255
188 215 255
188 215 255
188 215 255
188 215 255
188 215 255
188 215 255
188 215 255
188 215 255
188 215 255
188 215 255
188 215 255
188 215 255
188 215 255
188 215 255
188 215 255
188 215 255
188 215 255
188 215 255
188 215 255
188 215 255
188 215 255
188 215 255
188 215 255
188 215 255
188 215 255
188 215 255
188 215 255
188 215 255
188 215 255
188 215 255
188 215 255
188 215 255
188 215 255
188 215 255
188 215 255
188 215 255
188 215 255
188 215 255
188 215 255
188 215 255
188 215 255
188 215 255
188 215 255
188 215 255
188 215 255
188 215 255
188 215 255
188 215 255
188 215 255
188 215 255
188 215 255
188 215 255
188 215 255
188 215 255
188 215 255
188 215 255
188 215 255
188 215 255
188 215 255
188 215 255
188 215 255
188 215 255
188 215 255
188 215 255
188 215 255
188 215 255
188 215 255
188 215 255
187 215 255
187 215 255
187 215 255
187 215 255
187 215 255
187 215 255
187 215 255
187 215 255
187 215 255
187 215 255
187 215 255
187 215 255
187 215 255
187 215 255
187 215 255
187 215 255
187 215 255
187 215 255
187 215 255
187 215 255
187 214 255
187 214 255
187 214 255
187 214 255
187 214 255
187 214 255
187 214 255
187 214 255
187 214 255
187 214 255
187 214 255
187 214 255
187 214 255
187 214 255
187 214 255
187 214 255
187 214 255
187 214 255
187 214 255
187 214 255
187 214 255
187 214 255
187 214 255
187 214 255
187 214 255
187 214 255
187 214 255
187 214 255
187 214 255
187 214 255
187 214 255
187 214 255
187 214 255
186 214 255
186 214 255
186 214 255
186 214 255
186 214 255
186 214 255
186 214 255
186 214 255
186 214 255
186 214 255
186 214 255
186 214 255
186 214 255
186 214 255
186 214 255
186 214 255
186 214 255
186 214 255
186 214 255
186 214 255
186 214 255
186 214 255
186 214 255
186 214 255
186 214 255
186 214 255
186 214 255
186 214 255
186 214 255
186 214 255
186 214 255
186 214 255
186 214 255
186 214 255
186 214 255
186 214 255
186 214 255
186 214 255
186 214 255
38 44 53
14 18 22
13 17 22
14 17 22
13 16 21
15 18 24
13 16 20
16 19 25
13 17 22
12 15 19
16 19 25
14 18 23
14 17 22
17 21 26
13 16 21
14 18 23
15 19 24
12 15 19
13 17 21
14 17 22
14 18 23
11 13 17
15 18 23
13 16 21
10 12 16
14 18 23
12 15 19
11 14 19
14 17 22
13 16 20
10 13 17
12 14 19
13 16 20
11 14 18
13 16 21
13 16 21
11 14 18
13 16 21
14 18 23
13 16 21
12 15 19
12 15 20
14 17 22
15 18 22
12 15 19
12 15 19
13 16 21
12 15 20
11 13 17
14 17 22
10 13 17
12 15 19
11 14 19
13 17 22
14 17 22
11 14 18
13 16 20
13 16 21
11 14 18
13 16 20
13 16 20
13 16 21
11 14 18
11 13 17
11 13 17
13 16 20
13 16 20
11 14 18
12 15 20
13 16 20
12 15 19
11 14 17
13 16 21
10 12 16
13 16 20
13 16 21
12 15 20
11 14 18
12 15 19
9 12 15
10 12 16
14 17 22
11 14 19
14 17 22
12 16 20
13 16 21
12 14 19
12 15 20
11 14 19
11 14 18
11 14 19
13 16 21
12 15 20
12 15 20
11 15 19
11 14 18
14 17 22
12 15 19
13 16 21
14 17 22
16 19 25
15 19 25
11 14 19
12 15 20
12 15 19
14 17 22
14 17 21
14 17 22
13 16 21
12 15 20
13 16 21
16 20 26
15 18 24
13 16 21
14 17 22
14 18 23
13 16 21
12 15 20
13 17 21
16 19 25
11 14 18
12 15 20
14 18 23
13 16 21
13 16 20
10 13 18
11 14 18
46 54 65
186 214 255
186 214 255
186 214 255
186 214 255
186 214 255
186 214 255
186 214 255
186 214 255
186 214 255
186 214 255
186 214 255
186 214 255
186 214 255
186 214 255
186 214 255
186 214 255
186 214 255
186 214 255
186 214 255
186 214 255
186 214 255
186 214 255
186 214 255
186 214 255
186 214 255
186 214 255
186 214 255
186 214 255
186 214 255
186 214 255
186 214 255
186 214 255
186 214 255
186 214 255
186 214 255
186 214 255
186 214 255
186 214 255
186 214 255
186 214 255
187 214 255
187 214 255
187 214 255
187 214 255
187 214 255
187 214 255
187 214 255
187 214 255
187 214 255
187 214 255
187 214 255
187 214 255
187 214 255
187 214 255
187 214 255
187 214 255
187 214 255
187 214 255
187 214 255
187 214 255
187 214 255
187 214 255
187 214 255
187 214 255
187 214 255
187 214 255
187 214 255
187 214 255
187 214 255
187 214 255
187 214 255
187 214 255
187 214 255
187 215 255
187 215 255
187 215 255
187 215 255
187 215 255
187 215 255
187 215 255
187 215 255
187 215 255
187 215 255
187 215 255
187 215 255
187 215 255
187 215 255
187 215 255
187 215 255
187 215 255
187 215 255
188 215 255
188 215 255
188 215 255
188 215 255
188 215 255
188 215 255
188 215 255
188 215 255
188 215 255
188 215 255
188 215 255
188 215 255
188 215 255
188 215 255
188 215 255
188 215 255
188 215 255
188 215 255
188 215 255
188 215 255
188 215 255
188 215 255
188 215 255
188 215 255
188 215 255
188 215 255
188 215 255
188 215 255
188 215 255
188 215 255
188 215 255
188 215 255
188 215 255
188 215 255
188 215 255
188 215 255
188 215 255
188 215 255
188 215 255
188 215 255
188 215 255
188 215 255
188 215 255
188 215 255
188 215 255
188 215 255
188 215 255
188 215 255
188 215 255
188 215 255
188 215 255
188 215 255
188 215 255
188 215 255
188 215 255
188 215 255
188 215 255
188 215 255
188 215 255
188 215 255
188 215 255
188 215 255
188 215 255
188 215 255
188 215 255
188 215 255
188 215 255
188 215 255
188 215 255
188 215 255
188 215 255
188 215 255
188 215 255
188 215 255
188 215 255
188 215 255
188 215 255
188 215 255
188 215 255
188 215 255
188 215 255
188 215 255
188 215 255
188 215 255
188 215 255
188 215 255
188 215 255
188 215 255
188 215 255
188 215 255
188 215 255
188 215 255
188 215 255
188 215 255
188 215 255
188 215 255
188 215 255
188 215 255
188 215 255
188 215 255
188 215 255
188 215 255
188 215 255
188 215 255
188 215 255
188 215 255
188 215 255
188 215 255
188 215 255
187 215 255
187 215 255
187 215 255
187 215 255
187 215 255
187 215 255
187 215 255
187 215 255
187 215 255
187 215 255
187 215 255
187 215 255
187 215 255
187 215 255
187 215 255
187 215 255
187 215 255
187 215 255
187 215 255
187 215 255
187 214 255
187 214 255
187 214 255
187 214 255
187 214 255
187 214 255
187 214 255
187 214 255
187 214 255
187 214 255
187 214 255
187 214 255
187 214 255
187 214 255
187 214 255
187 214 255
187 214 255
187 214 255
187 214 255
187 214 255
187 214 255
187 214 255
187 214 255
187 214 255
187 214 255
187 214 255
187 214 255
187 214 255
187 214 255
187 214 255
187 214 255
186 214 255
186 214 255
186 214 255
186 214 255
186 214 255
186 214 255
186 214 255
186 214 255
186 214 255
186 214 255
186 214 255
186 214 255
186 214 255
186 214 255
186 214 255
186 214 255
186 214 255
186 214 255
186 214 255
186 214 255
183 210 251
14 17 22
13 16 21
13 16 21
13 16 21
14 18 24
12 16 20
10 12 16
13 17 22
10 12 16
15 18 24
13 16 21
12 15 19
16 20 26
16 20 26
15 19 24
15 18 24
13 16 21
12 15 20
14 18 23
15 18 24
14 17 22
14 18 23
14 17 22
12 15 19
12 15 20
13 16 21
14 17 22
14 17 22
13 15 19
10 13 17
11 14 18
11 13 17
10 13 17
13 16 21
13 16 21
11 14 18
12 15 19
12 15 19
11 14 18
12 15 19
13 16 20
11 14 18
16 19 24
13 15 19
10 13 16
12 15 19
13 16 21
12 15 19
14 17 22
12 15 20
11 13 17
13 17 22
11 13 18
12 15 19
12 15 19
10 13 16
14 17 22
12 16 20
16 20 26
12 15 19
12 15 19
13 17 22
12 15 19
15 19 24
13 16 21
12 14 18
12 15 20
11 13 17
11 14 19
11 13 17
11 14 18
12 15 19
10 13 16
15 19 24
12 15 20
13 16 21
11 13 17
13 16 21
11 13 17
13 16 21
15 19 24
11 14 18
12 14 18
11 14 18
9 11 15
13 16 21
12 14 18
12 15 19
9 12 15
13 16 21
11 13 17
11 14 18
12 15 19
13 16 20
11 14 18
11 14 18
12 15 19
15 18 24
13 16 20
13 16 20
15 18 24
14 17 22
12 16 21
13 16 21
15 18 23
15 18 23
14 17 22
16 20 25
11 13 18
11 14 18
14 17 21
14 17 22
10 13 17
13 16 21
11 14 18
13 16 21
12 15 20
18 22 27
15 18 23
15 18 23
12 15 19
15 19 25
12 15 20
13 16 21
13 16 21
12 15 19
12 14 19
16 19 25
175 202 241
186 214 255
186 214 255
186 214 255
186 214 255
186 214 255
186 214 255
186 214 255
186 214 255
186 214 255
186 214 255
186 214 255
186 214 255
186 214 255
186 214 255
186 214 255
186 214 255
186 214 255
186 214 255
186 214 255
187 214 255
187 214 255
187 214 255
187 214 255
187 214 255
187 214 255
187 214 255
187 214 255
187 214 255
187 214 255
187 214 255
187 214 255
187 214 255
187 214 255
187 214 255
187 214 255
187 214 255
187 214 255
187 214 255
187 214 255
187 214 255
187 214 255
187 214 255
187 214 255
187 214 255
187 214 255
187 214 255
187 214 255
187 214 255
187 214 255
187 214 255
187 214 255
187 215 255
187 215 255
187 215 255
187 215 255
187 215 255
187 215 255
187 215 255
187 215 255
187 215 255
187 215 255
187 215 255
187 215 255
187 215 255
187 215 255
187 215 255
187 215 255
187 215 255
187 215 255
187 215 255
188 215 255
188 215 255
188 215 255
188 215 255
188 215 255
188 215 255
188 215 255
188 215 255
188 215 255
188 215 255
188 215 255
188 215 255
188 215 255
188 215 255
188 215 255
188 215 255
188 215 255
188 215 255
188 215 255
188 215 255
188 215 255
188 215 255
188 215 255
188 215 255
188 215 255
188 215 255
188 215 255
188 215 255
188 215 255
188 215 255
188 215 255
188 215 255
188 215 255
188 215 255
188 215 255
188 215 255
188 215 255
188 215 255
188 215 255
188 215 255
188 215 255
188 215 255
188 215 255
188 215 255
188 215 255
188 215 255
188 215 255
188 215 255
188 215 255
188 215 255
188 215 255
188 215 255
188 215 255
188 215 255
188 215 255
188 215 255
188 215 255
188 215 255
188 215 255
188 215 255
188 215 255
188 215 255
188 215 255
188 215 255
188 215 255
189 215 255
189 215 255
189 215 255
189 215 255
189 215 255
189 215 255
189 215 255
189 215 255
189 215 255
189 215 255
189 215 255
189 215 255
189 215 255
189 215 255
189 215 255
189 215 255
189 215 255
189 215 255
189 215 255
188 215 255
188 215 255
188 215 255
188 215 255
188 215 255
188 215 255
188 215 255
188 215 255
188 215 255
188 215 255
188 215 255
188 215 255
188 215 255
188 215 255
188 215 255
188 215 255
188 215 255
188 215 255
188 215 255
188 215 255
188 215 255
188 215 255
188 215 255
188 215 255
188 215 255
188 215 255
188 215 255
188 215 255
188 215 255
188 215 255
188 215 255
188 215 255
188 215 255
188 215 255
188 215 255
188 215 255
188 215 255
188 215 255
188 215 255
188 215 255
188 215 255
188 215 255
188 215 255
188 215 255
188 215 255
188 215 255
188 215 255
188 215 255
188 215 255
188 215 255
188 215 255
188 215 255
188 215 255
188 215 255
188 215 255
188 215 255
188 215 255
188 215 255
188 215 255
188 215 255
188 215 255
188 215 255
188 215 255
188 215 255
188 215 255
188 215 255
187 215 255
188 215 255
187 215 255
187 215 255
187 215 255
187 215 255
187 215 255
187 215 255
187 215 255
187 215 255
187 215 255
187 215 255
187 215 255
187 215 255
187 215 255
187 215 255
187 215 255
187 215 255
187 215 255
187 214 255
187 214 255
187 214 255
187 214 255
187 214 255
187 214 255
187 214 255
187 214 255
187 214 255
187 214 255
187 214 255
187 214 255
187 214 255
187 214 255
187 214 255
187 214 255
187 214 255
187 214 255
187 214 255
187 214 255
187 214 255
187 214 255
187 214 255
187 214 255
187 214 255
187 214 255
187 214 255
187 214 255
187 214 255
187 214 255
187 214 255
149 171 204
13 17 21
13 17 22
15 19 24
14 18 23
14 17 22
15 18 23
11 13 17
15 19 24
15 18 23
14 17 23
14 17 22
14 17 22
13 17 21
16 19 25
15 19 24
14 17 22
15 18 24
11 14 18
13 16 20
13 16 21
12 15 20
11 14 18
14 17 22
15 18 24
11 14 18
11 14 18
10 13 16
12 15 19
13 16 21
13 16 21
15 19 24
15 19 24
14 17 22
13 16 21
11 14 18
14 17 22
11 14 19
11 14 18
14 18 23
13 16 20
11 14 18
11 14 18
14 17 22
13 16 21
11 13 17
11 14 19
11 13 17
13 16 20
13 16 21
13 16 21
12 15 20
11 14 18
11 13 17
10 12 16
10 13 17
15 18 24
11 14 18
13 16 21
9 11 14
10 13 16
12 15 20
14 17 22
12 15 19
13 16 20
11 13 17
11 14 18
12 15 19
9 11 14
15 18 23
13 16 21
11 13 17
13 16 21
10 13 17
12 15 19
10 13 17
10 12 16
12 15 19
12 15 19
11 13 17
10 13 17
11 14 18
14 18 23
12 15 19
13 16 21
12 15 19
15 19 24
12 15 19
10 13 16
11 14 18
15 19 24
13 17 22
13 16 21
12 15 20
10 12 16
14 18 23
10 12 15
13 17 21
14 17 22
11 14 18
12 15 19
12 15 19
12 15 20
10 12 16
14 17 22
10 12 16
15 18 23
13 16 20
11 14 18
13 16 20
13 16 21
13 17 21
12 14 19
12 14 18
12 15 20
13 16 21
13 16 21
13 16 21
11 13 17
11 13 17
18 22 28
16 19 24
14 18 24
14 17 23
14 17 22
15 19 25
13 17 22
13 17 21
11 14 18
166 191 228
187 214 255
187 214 255
187 214 255
187 214 255
187 214 255
187 214 255
187 214 255
187 214 255
187 214 255
187 214 255
187 214 255
187 214 255
187 214 255
187 214 255
187 214 255
187 214 255
187 214 255
187 214 255
187 214 255
187 214 255
187 214 255
187 214 255
187 214 255
187 214 255
187 214 255
187 214 255
187 214 255
187 214 255
187 214 255
187 214 255
187 214 255
187 215 255
187 215 255
187 215 255
187 215 255
187 215 255
187 215 255
187 215 255
187 215 255
187 215 255
187 215 255
187 215 255
187 215 255
187 215 255
187 215 255
187 215 255
187 215 255
187 215 255
187 215 255
188 215 255
188 215 255
188 215 255
188 215 255
188 215 255
188 215 255
188 215 255
188 215 255
188 215 255
188 215 255
188 215 255
188 215 255
188 215 255
188 215 255
188 215 255
188 215 255
188 215 255
188 215 255
188 215 255
188 215 255
188 215 255
188 215 255
188 215 255
188 215 255
188 215 255
188 215 255
188 215 255
188 215 255
188 215 255
188 215 255
188 215 255
188 215 255
188 215 255
188 215 255
188 215 255
188 215 255
188 215 255
188 215 255
188 215 255
188 215 255
188 215 255
188 215 255
188 215 255
188 215 255
188 215 255
188 215 255
188 215 255
188 215 255
188 215 255
188 215 255
188 215 255
188 215 255
188 215 255
188 215 255
188 215 255
188 215 255
188 215 255
188 215 255
188 215 255
188 215 255
188 215 255
188 215 255
188 215 255
188 215 255
188 215 255
188 215 255
188 215 255
189 215 255
189 215 255
189 215 255
189 215 255
189 215 255
189 215 255
189 215 255
189 215 255
189 215 255
189 215 255
189 215 255
189 215 255
189 215 255
189 215 255
189 215 255
189 215 255
189 215 255
189 215 255
189 215 255
189 216 255
189 216 255
189 216 255
189 216 255
189 216 255
189 216 255
189 216 255
189 216 255
189 216 255
189 216 255
189 216 255
189 216 255
189 216 255
189 216 255
189 216 255
189 215 255
189 215 255
189 215 255
189 215 255
189 215 255
189 215 255
189 215 255
189 215 255
189 215 255
189 215 255
189 215 255
189 215 255
189 215 255
189 215 255
189 215 255
189 215 255
189 215 255
189 215 255
189 215 255
189 215 255
189 215 255
189 215 255
189 215 255
189 215 255
189 215 255
189 215 255
189 215 255
189 215 255
189 215 255
189 215 255
188 215 255
188 215 255
188 215 255
188 215 255
188 215 255
188 215 255
188 215 255
188 215 255
188 215 255
188 215 255
188 215 255
188 215 255
188 215 255
188 215 255
188 215 255
188 215 255
188 215 255
188 215 255
188 215 255
188 215 255
188 215 255
188 215 255
188 215 255
188 215 255
188 215 255
188 215 255
188 215 255
188 215 255
188 215 255
188 215 255
188 215 255
188 215 255
188 215 255
188 215 255
188 215 255
188 215 255
188 215 255
188 215 255
188 215 255
188 215 255
188 215 255
188 215 255
188 215 255
188 215 255
188 215 255
188 215 255
188 215 255
188 215 255
188 215 255
188 215 255
188 215 255
188 215 255
188 215 255
188 215 255
188 215 255
188 215 255
188 215 255
188 215 255
188 215 255
188 215 255
188 215 255
188 215 255
188 215 255
188 215 255
188 215 255
188 215 255
187 215 255
187 215 255
187 215 255
187 215 255
187 215 255
187 215 255
187 215 255
187 215 255
187 215 255
187 215 255
187 215 255
187 215 255
187 215 255
187 215 255
187 215 255
187 215 255
187 215 255
187 215 255
187 214 255
187 214 255
187 214 255
187 214 255
187 214 255
187 214 255
130 149 178
16 19 25
12 15 20
11 13 17
13 16 21
15 19 24
14 17 21
13 17 22
15 18 24
16 20 25
11 14 18
14 17 22
13 16 21
12 15 19
13 16 21
15 18 24
11 14 18
16 19 25
11 14 18
13 17 21
11 14 18
15 19 24
11 13 17
12 15 19
13 16 21
13 16 21
15 19 24
15 18 24
12 15 19
13 16 20
10 13 17
12 15 20
11 14 18
12 15 19
11 13 18
14 17 22
14 17 23
15 18 23
11 14 18
11 13 17
11 13 17
14 17 22
9 11 14
11 14 18
11 13 17
12 15 20
10 13 17
13 16 21
11 13 16
13 15 19
10 12 16
14 17 21
11 14 18
9 12 15
9 12 15
10 13 17
11 14 18
9 11 15
10 12 16
11 14 18
11 13 17
10 12 16
11 13 17
12 15 20
12 14 19
13 16 20
13 16 20
9 11 15
13 16 20
13 16 20
14 17 22
11 13 17
11 13 17
13 16 20
12 14 18
10 12 16
12 15 19
12 14 18
13 16 20
10 12 16
13 16 20
12 15 20
12 15 19
12 15 20
14 18 23
12 15 20
12 15 19
9 12 15
12 15 19
10 13 17
12 15 20
11 14 18
12 16 20
12 15 20
10 13 17
13 16 21
12 16 20
13 16 20
11 14 18
11 14 19
11 14 18
11 14 18
13 16 20
14 18 23
14 17 22
10 13 17
11 14 18
15 18 23
14 17 22
12 15 20
13 16 20
13 16 21
13 16 21
12 14 18
15 19 24
13 16 21
13 16 21
8 10 13
11 13 17
12 16 20
14 16 21
11 13 17
14 17 22
12 15 19
13 16 21
13 16 20
13 16 21
14 17 23
15 19 24
126 145 173
187 214 255
187 214 255
187 214 255
187 214 255
187 214 255
187 215 255
187 215 255
187 215 255
187 215 255
187 215 255
187 215 255
187 215 255
187 215 255
187 215 255
187 215 255
187 215 255
187 215 255
187 215 255
187 215 255
187 215 255
187 215 255
187 215 255
187 215 255
187 215 255
187 215 255
188 215 255
188 215 255
188 215 255
188 215 255
188 215 255
188 215 255
188 215 255
188 215 255
188 215 255
188 215 255
188 215 255
188 215 255
188 215 255
188 215 255
188 215 255
188 215 255
188 215 255
188 215 255
188 215 255
188 215 255
188 215 255
188 215 255
188 215 255
188 215 255
188 215 255
188 215 255
188 215 255
188 215 255
188 215 255
188 215 255
188 215 255
188 215 255
188 215 255
188 215 255
188 215 255
188 215 255
188 215 255
188 215 255
188 215 255
188 215 255
188 215 255
188 215 255
188 215 255
188 215 255
188 215 255
188 215 255
188 215 255
188 215 255
188 215 255
188 215 255
188 215 255
188 215 255
188 215 255
188 215 255
188 215 255
188 215 255
188 215 255
188 215 255
188 215 255
188 215 255
188 215 255
188 215 255
188 215 255
188 215 255
188 215 255
189 215 255
189 215 255
189 215 255
189 215 255
189 215 255
189 215 255
189 215 255
189 215 255
189 215 255
189 215 255
189 215 255
189 215 255
189 215 255
189 215 255
189 215 255
189 215 255
189 215 255
189 215 255
189 215 255
189 215 255
189 215 255
189 215 255
189 215 255
189 215 255
189 215 255
189 215 255
189 215 255
189 215 255
189 215 255
189 215 255
189 216 255
189 216 255
189 216 255
189 216 255
189 216 255
189 216 255
189 216 255
189 216 255
189 216 255
189 216 255
189 216 255
189 216 255
189 216 255
189 216 255
189 216 255
189 216 255
189 216 255
189 216 255
189 216 255
189 216 255
189 216 255
189 216 255
189 216 255
189 216 255
189 216 255
189 216 255
189 216 255
189 216 255
189 216 255
189 216 255
189 216 255
189 216 255
189 216 255
189 216 255
189 216 255
189 216 255
189 216 255
189 216 255
189 216 255
189 216 255
189 216 255
189 216 255
189 216 255
189 216 255
189 216 255
189 216 255
189 216 255
189 216 255
189 216 255
189 216 255
189 216 255
189 216 255
189 216 255
189 216 255
189 216 255
189 216 255
189 216 255
189 216 255
189 216 255
189 215 255
189 215 255
189 215 255
189 215 255
189 215 255
189 215 255
189 215 255
189 215 255
189 215 255
189 215 255
189 215 255
189 215 255
189 215 255
189 215 255
189 215 255
189 215 255
189 215 255
189 215 255
189 215 255
189 215 255
189 215 255
189 215 255
189 215 255
189 215 255
189 215 255
189 215 255
189 215 255
189 215 255
189 215 255
188 215 255
188 215 255
188 215 255
188 215 255
188 215 255
188 215 255
188 215 255
188 215 255
188 215 255
188 215 255
188 215 255
188 215 255
188 215 255
188 215 255
188 215 255
188 215 255
188 215 255
188 215 255
188 215 255
188 215 255
188 215 255
188 215 255
188 215 255
188 215 255
188 215 255
188 215 255
188 215 255
188 215 255
188 215 255
188 215 255
188 215 255
188 215 255
188 215 255
188 215 255
188 215 255
188 215 255
188 215 255
188 215 255
188 215 255
188 215 255
188 215 255
188 215 255
188 215 255
188 215 255
188 215 255
188 215 255
188 215 255
188 215 255
188 215 255
188 215 255
188 215 255
188 215 255
188 215 255
188 215 255
188 215 255
188 215 255
188 215 255
188 215 255
188 215 255
188 215 255
188 215 255
188 215 255
122 140 168
12 15 19
13 16 21
17 21 26
11 14 17
16 20 26
13 16 21
13 17 22
16 20 26
15 18 24
14 17 22
14 17 22
16 19 24
15 19 24
15 19 24
13 17 21
11 14 18
13 17 21
11 13 17
12 14 19
14 18 23
12 15 20
13 16 20
11 14 18
14 17 22
13 16 20
16 19 25
12 14 18
14 18 22
11 14 18
11 13 17
13 17 21
11 13 17
13 16 21
14 17 23
13 17 22
13 16 21
13 16 21
11 13 17
13 16 20
11 13 17
10 13 16
12 15 19
12 15 19
13 16 21
11 14 18
12 15 19
11 13 17
11 13 17
14 17 23
9 11 14
11 14 18
14 17 22
10 12 16
13 16 20
11 13 18
10 12 16
13 16 20
12 16 20
11 14 18
12 15 19
12 15 19
11 13 17
12 15 19
12 15 20
11 13 17
12 14 18
11 14 17
12 15 19
11 14 19
14 17 23
11 14 18
11 14 18
10 13 16
12 15 19
13 16 21
12 15 18
11 14 18
11 14 18
14 18 22
15 18 23
13 16 21
14 17 21
13 16 21
13 16 20
13 16 21
16 20 25
9 12 15
10 13 17
10 13 17
12 16 20
13 16 21
11 13 16
14 17 21
13 16 21
11 13 17
11 14 18
13 16 20
13 16 20
11 14 18
11 14 18
14 17 21
12 14 18
14 18 23
15 18 23
14 18 23
15 18 23
12 16 20
15 19 24
11 14 17
15 18 24
14 17 22
13 16 21
14 17 23
13 16 21
13 16 20
11 14 18
13 16 21
12 15 19
13 16 21
16 19 25
11 14 18
15 19 24
15 19 24
12 15 19
14 18 23
11 14 18
12 15 19
15 18 23
107 124 148
188 215 255
188 215 255
188 215 255
188 215 255
188 215 255
188 215 255
188 215 255
188 215 255
188 215 255
188 215 255
188 215 255
188 215 255
188 215 255
188 215 255
188 215 255
188 215 255
188 215 255
188 215 255
188 215 255
188 215 255
188 215 255
188 215 255
188 215 255
188 215 255
188 215 255
188 215 255
188 215 255
188 215 255
188 215 255
188 215 255
188 215 255
188 215 255
188 215 255
188 215 255
188 215 255
188 215 255
188 215 255
188 215 255
188 215 255
188 215 255
188 215 255
188 215 255
188 215 255
188 215 255
188 215 255
188 215 255
188 215 255
188 215 255
188 215 255
188 215 255
188 215 255
188 215 255
188 215 255
188 215 255
188 215 255
188 215 255
188 215 255
188 215 255
188 215 255
188 215 255
188 215 255
188 215 255
189 215 255
189 215 255
189 215 255
189 215 255
189 215 255
189 215 255
189 215 255
189 215 255
189 215 255
189 215 255
189 215 255
189 215 255
189 215 255
189 215 255
189 215 255
189 215 255
189 215 255
189 215 255
189 215 255
189 215 255
189 215 255
189 215 255
189 215 255
189 215 255
189 215 255
189 215 255
189 215 255
189 215 255
189 216 255
189 216 255
189 216 255
189 216 255
189 216 255
189 216 255
189 216 255
189 216 255
189 216 255
189 216 255
189 216 255
189 216 255
189 216 255
189 216 255
189 216 255
189 216 255
189 216 255
189 216 255
189 216 255
189 216 255
189 216 255
189 216 255
189 216 255
189 216 255
189 216 255
189 216 255
189 216 255
189 216 255
189 216 255
189 216 255
189 216 255
189 216 255
189 216 255
189 216 255
189 216 255
189 216 255
189 216 255
189 216 255
189 216 255
189 216 255
189 216 255
189 216 255
189 216 255
189 216 255
189 216 255
190 216 255
190 216 255
190 216 255
190 216 255
190 216 255
190 216 255
190 216 255
189 216 255
189 216 255
189 216 255
189 216 255
189 216 255
189 216 255
189 216 255
189 216 255
189 216 255
189 216 255
189 216 255
189 216 255
189 216 255
189 216 255
189 216 255
189 216 255
189 216 255
189 216 255
189 216 255
189 216 255
189 216 255
189 216 255
189 216 255
189 216 255
189 216 255
189 216 255
189 216 255
189 216 255
189 216 255
189 216 255
189 216 255
189 216 255
189 216 255
189 216 255
189 216 255
189 216 255
189 216 255
189 216 255
189 216 255
189 216 255
189 216 255
189 216 255
189 216 255
189 216 255
189 216 255
189 216 255
189 216 255
189 216 255
189 216 255
189 216 255
189 216 255
189 216 255
189 216 255
189 216 255
189 216 255
189 216 255
189 216 255
189 216 255
189 216 255
189 216 255
189 216 255
189 216 255
189 216 255
189 216 255
189 216 255
189 216 255
189 216 255
189 216 255
189 215 255
189 215 255
189 215 255
189 215 255
189 215 255
189 215 255
189 215 255
189 215 255
189 215 255
189 215 255
189 215 255
189 215 255
189 215 255
189 215 255
189 215 255
189 215 255
189 215 255
189 215 255
189 215 255
189 215 255
189 215 255
189 215 255
189 215 255
189 215 255
189 215 255
189 215 255
188 215 255
188 215 255
188 215 255
188 215 255
188 215 255
188 215 255
188 215 255
188 215 255
188 215 255
188 215 255
188 215 255
188 215 255
188 215 255
188 215 255
188 215 255
188 215 255
188 215 255
188 215 255
188 215 255
188 215 255
188 215 255
188 215 255
188 215 255
188 215 255
188 215 255
188 215 255
188 215 255
188 215 255
188 215 255
188 215 255
188 215 255
188 215 255
188 215 255
188 215 255
72 84 100
11 14 18
15 18 24
15 18 24
13 16 20
14 17 22
12 15 19
13 16 21
12 15 19
17 21 27
14 17 22
14 18 24
16 20 25
16 20 25
13 16 21
14 17 22
15 18 23
11 13 17
11 14 19
14 17 22
15 18 24
13 16 21
14 17 22
14 18 23
13 16 20
14 17 22
11 13 17
15 19 24
11 14 18
11 14 17
14 17 22
13 16 21
12 14 19
15 18 24
13 16 21
10 13 17
9 12 15
14 17 22
10 13 16
11 14 18
12 15 19
13 16 21
11 14 19
14 17 22
12 15 19
11 14 18
10 13 17
12 15 19
11 13 17
15 19 25
10 12 16
13 16 21
12 15 19
12 15 20
14 18 23
12 14 19
13 16 21
11 14 18
13 16 21
14 17 21
11 14 18
10 12 16
14 18 22
9 11 14
11 14 18
10 12 15
11 14 18
12 15 19
11 14 18
12 15 19
13 17 22
11 14 18
11 14 18
13 16 21
13 16 20
13 15 20
12 15 19
13 16 20
13 16 21
12 15 20
12 15 20
11 14 18
10 13 17
11 14 18
12 14 18
11 14 17
12 15 19
12 14 19
13 16 21
14 17 22
14 18 23
14 17 22
11 14 18
13 16 21
8 11 14
13 16 21
13 16 21
12 15 20
13 16 21
11 14 18
11 13 17
12 15 19
13 17 22
12 14 18
11 14 18
10 13 16
13 16 21
14 17 22
14 17 22
13 16 21
11 14 18
11 13 17
15 19 24
15 18 24
10 13 16
15 19 24
13 16 20
12 15 19
14 17 22
15 18 23
13 16 21
12 15 20
12 16 20
14 17 22
12 14 18
15 19 24
13 16 20
12 15 19
15 18 24
93 107 128
188 215 255
188 215 255
188 215 255
188 215 255
188 215 255
188 215 255
188 215 255
188 215 255
188 215 255
188 215 255
188 215 255
188 215 255
188 215 255
188 215 255
188 215 255
188 215 255
188 215 255
188 215 255
188 215 255
188 215 255
188 215 255
188 215 255
188 215 255
188 215 255
188 215 255
188 215 255
188 215 255
188 215 255
188 215 255
188 215 255
188 215 255
188 215 255
188 215 255
188 215 255
189 215 255
189 215 255
189 215 255
189 215 255
189 215 255
189 215 255
189 215 255
189 215 255
189 215 255
189 215 255
189 215 255
189 215 255
189 215 255
189 215 255
189 215 255
189 215 255
189 215 255
189 215 255
189 215 255
189 215 255
189 215 255
189 215 255
189 215 255
189 215 255
189 215 255
189 216 255
189 216 255
189 216 255
189 216 255
189 216 255
189 216 255
189 216 255
189 216 255
189 216 255
189 216 255
189 216 255
189 216 255
189 216 255
189 216 255
189 216 255
189 216 255
189 216 255
189 216 255
189 216 255
189 216 255
189 216 255
189 216 255
189 216 255
189 216 255
189 216 255
189 216 255
189 216 255
189 216 255
189 216 255
189 216 255
189 216 255
189 216 255
189 216 255
189 216 255
189 216 255
189 216 255
189 216 255
189 216 255
189 216 255
189 216 255
189 216 255
189 216 255
189 216 255
189 216 255
189 216 255
189 216 255
189 216 255
189 216 255
189 216 255
189 216 255
189 216 255
189 216 255
189 216 255
189 216 255
189 216 255
189 216 255
189 216 255
189 216 255
189 216 255
189 216 255
189 216 255
189 216 255
189 216 255
189 216 255
189 216 255
189 216 255
189 216 255
189 216 255
189 216 255
189 216 255
190 216 255
190 216 255
190 216 255
190 216 255
190 216 255
190 216 255
190 216 255
190 216 255
190 216 255
190 216 255
190 216 255
190 216 255
190 216 255
190 216 255
190 216 255
190 216 255
190 216 255
190 216 255
190 216 255
190 216 255
190 216 255
190 216 255
190 216 255
190 216 255
190 216 255
190 216 255
190 216 255
190 216 255
190 216 255
190 216 255
190 216 255
190 216 255
190 216 255
190 216 255
190 216 255
190 216 255
190 216 255
190 216 255
190 216 255
190 216 255
190 216 255
190 216 255
190 216 255
190 216 255
190 216 255
190 216 255
190 216 255
190 216 255
190 216 255
190 216 255
189 216 255
190 216 255
189 216 255
189 216 255
189 216 255
189 216 255
189 216 255
189 216 255
189 216 255
189 216 255
189 216 255
189 216 255
189 216 255
189 216 255
189 216 255
189 216 255
189 216 255
189 216 255
189 216 255
189 216 255
189 216 255
189 216 255
189 216 255
189 216 255
189 216 255
189 216 255
189 216 255
189 216 255
189 216 255
189 216 255
189 216 255
189 216 255
189 216 255
189 216 255
189 216 255
189 216 255
189 216 255
189 216 255
189 216 255
189 216 255
189 216 255
189 216 255
189 216 255
189 216 255
189 216 255
189 216 255
189 216 255
189 216 255
189 216 255
189 216 255
189 216 255
189 216 255
189 216 255
189 216 255
189 216 255
189 216 255
189 216 255
189 216 255
189 216 255
189 216 255
189 216 255
189 216 255
189 216 255
189 216 255
189 216 255
189 216 255
189 215 255
189 215 255
189 215 255
189 215 255
189 215 255
189 215 255
189 215 255
189 215 255
189 215 255
189 215 255
189 215 255
189 215 255
189 215 255
189 215 255
189 215 255
189 215 255
189 215 255
189 215 255
189 215 255
189 215 255
189 215 255
189 215 255
189 215 255
189 215 255
189 215 255
72 83 100
13 16 20
14 17 22
12 15 20
11 13 17
14 18 23
13 16 20
13 16 21
11 13 17
12 15 19
13 16 21
13 17 22
15 18 24
13 16 20
13 16 21
14 18 22
11 14 18
12 15 19
13 16 21
13 15 20
13 16 21
13 15 20
15 19 24
14 17 23
10 12 16
11 14 18
11 13 17
14 17 22
12 15 19
12 15 19
12 16 20
13 16 21
14 16 21
11 13 17
14 17 22
14 17 22
14 17 22
14 17 22
11 13 17
12 15 19
10 13 16
9 12 15
11 14 18
11 14 17
10 12 15
12 15 19
10 12 15
13 16 20
11 14 19
11 14 18
12 15 19
12 15 20
11 13 17
13 16 21
8 10 13
12 15 20
12 15 20
11 14 18
14 17 21
12 15 19
10 12 16
12 14 18
10 13 16
10 13 17
13 16 21
10 12 15
14 17 22
12 14 19
15 19 25
11 13 17
14 16 21
9 11 14
13 17 22
11 14 18
14 17 22
9 11 14
12 15 19
10 12 16
16 20 25
10 13 17
10 12 16
12 15 19
10 13 16
12 15 19
11 14 18
12 15 20
14 17 22
12 15 20
13 16 21
10 12 16
9 12 16
11 14 17
9 11 15
11 14 18
9 11 15
12 15 19
13 16 20
12 15 19
12 15 19
17 21 27
13 17 22
14 17 22
12 15 20
10 13 17
13 16 21
14 17 22
11 14 18
12 15 19
10 13 17
11 14 19
14 17 22
13 17 21
12 16 20
11 14 18
14 18 23
15 18 23
14 17 21
14 17 22
12 15 19
12 15 20
13 16 21
15 18 23
14 17 21
14 18 23
11 14 18
12 15 19
13 16 20
12 15 20
13 17 21
54 63 75
189 215 255
189 215 255
189 215 255
189 215 255
189 215 255
189 215 255
189 215 255
189 215 255
189 215 255
189 215 255
189 215 255
189 215 255
189 215 255
189 215 255
189 215 255
189 215 255
189 215 255
189 215 255
189 215 255
189 215 255
189 215 255
189 215 255
189 215 255
189 215 255
189 216 255
189 216 255
189 215 255
189 216 255
189 216 255
189 216 255
189 216 255
189 216 255
189 216 255
189 216 255
189 216 255
189 216 255
189 216 255
189 216 255
189 216 255
189 216 255
189 216 255
189 216 255
189 216 255
189 216 255
189 216 255
189 216 255
189 216 255
189 216 255
189 216 255
189 216 255
189 216 255
189 216 255
189 216 255
189 216 255
189 216 255
189 216 255
189 216 255
189 216 255
189 216 255
189 216 255
189 216 255
189 216 255
189 216 255
189 216 255
189 216 255
189 216 255
189 216 255
189 216 255
189 216 255
189 216 255
189 216 255
189 216 255
189 216 255
189 216 255
189 216 255
189 216 255
189 216 255
189 216 255
189 216 255
189 216 255
189 216 255
189 216 255
189 216 255
189 216 255
189 216 255
189 216 255
189 216 255
189 216 255
189 216 255
190 216 255
190 216 255
190 216 255
190 216 255
190 216 255
190 216 255
190 216 255
190 216 255
190 216 255
190 216 255
190 216 255
190 216 255
190 216 255
190 216 255
190 216 255
190 216 255
190 216 255
190 216 255
190 216 255
190 216 255
190 216 255
190 216 255
190 216 255
190 216 255
190 216 255
190 216 255
190 216 255
190 216 255
190 216 255
190 216 255
190 216 255
190 216 255
190 216 255
190 216 255
190 216 255
190 216 255
190 216 255
190 216 255
190 216 255
190 216 255
190 216 255
190 216 255
190 216 255
190 216 255
190 216 255
190 216 255
190 216 255
190 216 255
190 216 255
190 216 255
190 216 255
190 216 255
190 216 255
190 216 255
190 216 255
190 216 255
190 216 255
190 216 255
190 216 255
190 216 255
190 216 255
190 216 255
190 216 255
190 216 255
190 216 255
190 216 255
190 216 255
190 216 255
190 216 255
190 216 255
190 216 255
190 216 255
190 216 255
190 216 255
190 216 255
190 216 255
190 216 255
190 216 255
190 216 255
190 216 255
190 216 255
190 216 255
190 216 255
190 216 255
190 216 255
190 216 255
190 216 255
190 216 255
190 216 255
190 216 255
190 216 255
190 216 255
190 216 255
190 216 255
190 216 255
190 216 255
190 216 255
190 216 255
190 216 255
190 216 255
190 216 255
190 216 255
190 216 255
190 216 255
190 216 255
190 216 255
190 216 255
190 216 255
190 216 255
190 216 255
190 216 255
190 216 255
190 216 255
190 216 255
190 216 255
190 216 255
190 216 255
190 216 255
190 216 255
190 216 255
190 216 255
190 216 255
190 216 255
190 216 255
190 216 255
190 216 255
190 216 255
190 216 255
190 216 255
190 216 255
190 216 255
190 216 255
189 216 255
189 216 255
189 216 255
189 216 255
189 216 255
189 216 255
189 216 255
189 216 255
189 216 255
189 216 255
189 216 255
189 216 255
189 216 255
189 216 255
189 216 255
189 216 255
189 216 255
189 216 255
189 216 255
189 216 255
189 216 255
189 216 255
189 216 255
189 216 255
189 216 255
189 216 255
189 216 255
189 216 255
189 216 255
189 216 255
189 216 255
189 216 255
189 216 255
189 216 255
189 216 255
189 216 255
189 216 255
189 216 255
189 216 255
189 216 255
189 216 255
189 216 255
189 216 255
189 216 255
189 216 255
189 216 255
189 216 255
189 216 255
189 216 255
69 80 95
13 15 20
14 17 22
15 18 24
11 13 17
13 16 20
11 14 18
14 18 23
14 17 22
14 17 22
12 16 20
12 15 20
12 15 20
12 15 20
12 15 19
12 15 20
11 14 17
12 14 18
14 17 22
13 16 21
11 14 18
11 13 17
13 16 21
12 15 19
9 11 14
11 13 17
13 16 21
13 16 21
13 16 21
15 18 23
12 15 19
13 16 21
11 14 18
13 16 21
12 14 19
13 16 21
12 15 19
11 14 18
12 15 20
12 15 19
11 14 17
10 12 15
13 15 20
10 13 17
10 13 16
12 15 19
11 14 18
11 13 17
12 15 20
11 14 18
11 14 18
12 15 19
11 13 17
10 13 16
14 17 22
12 14 18
9 11 14
13 16 20
10 12 16
12 15 19
11 13 17
11 14 18
12 15 19
12 14 18
10 12 16
8 11 14
9 11 14
14 17 22
12 15 19
13 16 21
10 13 17
12 14 18
10 13 17
11 14 18
8 10 14
11 14 18
15 18 23
10 12 16
9 12 16
10 12 16
11 14 18
12 15 20
13 16 21
11 14 18
11 13 17
13 16 20
11 14 18
10 12 16
11 14 18
9 11 15
11 13 17
13 15 19
10 12 16
13 16 21
13 16 21
11 13 17
12 15 20
13 16 21
13 16 21
12 15 20
12 15 19
12 15 19
9 11 14
11 14 18
12 15 19
10 13 17
15 18 23
13 17 22
10 13 17
16 19 25
15 18 23
13 17 21
14 17 21
14 17 22
11 13 17
12 14 19
14 17 22
11 14 19
17 21 27
14 17 22
13 17 22
12 15 19
14 18 23
12 16 20
13 16 20
14 17 22
15 18 23
11 14 18
13 16 21
56 65 79
189 216 255
189 216 255
189 216 255
189 216 255
189 216 255
189 216 255
189 216 255
189 216 255
189 216 255
189 216 255
189 216 255
189 216 255
189 216 255
189 216 255
189 216 255
189 216 255
189 216 255
189 216 255
189 216 255
189 216 255
189 216 255
189 216 255
189 216 255
189 216 255
189 216 255
189 216 255
189 216 255
189 216 255
189 216 255
189 216 255
189 216 255
189 216 255
189 216 255
189 216 255
189 216 255
189 216 255
189 216 255
189 216 255
189 216 255
189 216 255
189 216 255
189 216 255
189 216 255
189 216 255
189 216 255
189 216 255
189 216 255
189 216 255
190 216 255
189 216 255
190 216 255
190 216 255
190 216 255
190 216 255
190 216 255
190 216 255
190 216 255
190 216 255
190 216 255
190 216 255
190 216 255
190 216 255
190 216 255
190 216 255
190 216 255
190 216 255
190 216 255
190 216 255
190 216 255
190 216 255
190 216 255
190 216 255
190 216 255
190 216 255
190 216 255
190 216 255
190 216 255
190 216 255
190 216 255
190 216 255
190 216 255
190 216 255
190 216 255
190 216 255
190 216 255
190 216 255
190 216 255
190 216 255
190 216 255
190 216 255
190 216 255
190 216 255
190 216 255
190 216 255
190 216 255
190 216 255
190 216 255
190 216 255
190 216 255
190 216 255
190 216 255
190 216 255
190 216 255
190 216 255
190 216 255
190 216 255
190 216 255
190 216 255
190 216 255
190 216 255
190 216 255
190 216 255
190 216 255
190 216 255
190 216 255
190 216 255
190 216 255
190 216 255
190 216 255
190 216 255
190 216 255
190 216 255
190 216 255
190 216 255
190 216 255
190 216 255
190 216 255
190 216 255
190 216 255
190 216 255
190 216 255
190 216 255
190 216 255
190 216 255
190 216 255
190 216 255
190 216 255
190 216 255
190 216 255
190 216 255
190 216 255
190 216 255
190 216 255
190 216 255
190 216 255
190 216 255
190 216 255
190 216 255
190 216 255
190 216 255
190 216 255
190 216 255
190 216 255
190 216 255
190 216 255
190 216 255
190 216 255
190 216 255
190 216 255
190 216 255
190 216 255
190 216 255
190 216 255
190 216 255
190 216 255
190 216 255
190 216 255
190 216 255
190 216 255
190 216 255
190 216 255
190 216 255
190 216 255
190 216 255
190 216 255
190 216 255
190 216 255
190 216 255
190 216 255
190 216 255
190 216 255
190 216 255
190 216 255
190 216 255
190 216 255
190 216 255
190 216 255
190 216 255
190 216 255
190 216 255
190 216 255
190 216 255
190 216 255
190 216 255
190 216 255
190 216 255
190 216 255
190 216 255
190 216 255
190 216 255
190 216 255
190 216 255
190 216 255
190 216 255
190 216 255
190 216 255
190 216 255
190 216 255
190 216 255
190 216 255
190 216 255
190 216 255
190 216 255
190 216 255
190 216 255
190 216 255
190 216 255
190 216 255
190 216 255
190 216 255
190 216 255
190 216 255
190 216 255
190 216 255
190 216 255
190 216 255
190 216 255
190 216 255
190 216 255
190 216 255
190 216 255
190 216 255
190 216 255
190 216 255
190 216 255
190 216 255
190 216 255
190 216 255
190 216 255
190 216 255
190 216 255
190 216 255
190 216 255
190 216 255
190 216 255
190 216 255
190 216 255
190 216 255
190 216 255
190 216 255
190 216 255
190 216 255
190 216 255
190 216 255
190 216 255
190 216 255
190 216 255
190 216 255
190 216 255
190 216 255
190 216 255
190 216 255
190 216 255
190 216 255
190 216 255
190 216 255
190 216 255
190 216 255
190 216 255
190 216 255
38 44 54
14 17 22
12 15 19
15 18 23
13 16 21
15 18 23
10 12 16
14 18 23
13 17 22
13 16 21
9 11 15
13 17 22
12 14 19
15 18 23
14 18 23
12 15 20
13 16 20
13 16 21
11 14 18
12 15 19
11 13 17
14 17 22
13 16 21
13 16 20
12 14 18
13 16 21
11 13 18
15 19 25
10 13 17
13 17 21
12 15 19
9 11 15
11 14 18
12 14 18
12 14 19
13 16 20
11 13 17
10 12 16
12 15 19
13 16 21
11 14 18
11 13 17
11 14 18
11 14 18
14 17 22
13 15 20
13 16 21
13 16 21
10 13 16
8 10 13
14 17 22
11 13 17
10 12 16
9 11 14
12 15 19
11 13 17
13 16 20
11 14 18
10 12 16
13 16 20
12 15 19
12 15 20
11 13 17
11 14 17
13 16 21
13 16 21
14 17 22
13 16 21
14 17 21
12 15 20
11 14 18
10 12 16
12 15 19
11 13 17
9 11 15
12 14 19
11 14 18
11 14 18
11 14 19
13 16 20
10 13 17
15 18 23
16 19 24
11 14 18
13 16 21
12 15 20
12 15 19
10 13 17
12 15 19
13 16 20
12 15 19
12 16 20
12 15 19
14 18 23
9 11 14
12 15 19
13 16 21
12 15 19
11 13 17
11 13 17
13 16 21
12 14 19
11 13 17
14 17 22
12 15 19
8 10 12
13 16 21
14 17 21
12 14 18
13 16 21
14 16 21
13 16 21
13 16 21
14 17 22
14 17 22
16 20 25
12 14 19
14 18 23
12 15 19
13 16 20
14 17 22
15 18 24
13 16 20
15 18 23
14 17 22
13 16 21
14 17 23
15 18 24
11 13 17
43 50 60
190 216 255
190 216 255
190 216 255
190 216 255
190 216 255
190 216 255
190 216 255
190 216 255
190 216 255
190 216 255
190 216 255
190 216 255
190 216 255
190 216 255
190 216 255
190 216 255
190 216 255
190 216 255
190 216 255
190 216 255
190 216 255
190 216 255
190 216 255
190 216 255
190 216 255
190 216 255
190 216 255
190 216 255
190 216 255
190 216 255
190 216 255
190 216 255
190 216 255
190 216 255
190 216 255
190 216 255
190 216 255
190 216 255
190 216 255
190 216 255
190 216 255
190 216 255
190 216 255
190 216 255
190 216 255
190 216 255
190 216 255
190 216 255
190 216 255
190 216 255
190 216 255
190 216 255
190 216 255
190 216 255
190 216 255
190 216 255
190 216 255
190 216 255
190 216 255
190 216 255
190 216 255
190 216 255
190 216 255
190 216 255
190 216 255
190 216 255
190 216 255
190 216 255
190 216 255
190 216 255
190 216 255
190 216 255
190 216 255
190 216 255
190 216 255
190 216 255
190 216 255
190 216 255
190 216 255
190 216 255
190 216 255
190 216 255
190 216 255
190 216 255
190 216 255
190 216 255
190 216 255
190 216 255
190 216 255
190 216 255
190 216 255
190 216 255
190 216 255
190 216 255
190 216 255
190 216 255
190 216 255
190 216 255
190 216 255
190 216 255
190 216 255
190 216 255
190 216 255
190 216 255
190 216 255
190 216 255
190 216 255
190 216 255
190 216 255
190 216 255
190 216 255
190 216 255
190 216 255
190 216 255
190 216 255
190 216 255
190 216 255
190 216 255
190 216 255
190 216 255
190 216 255
190 216 255
190 216 255
190 216 255
190 216 255
190 216 255
190 216 255
190 216 255
190 216 255
190 216 255
190 216 255
190 216 255
190 216 255
190 216 255
190 216 255
191 217 255
191 217 255
191 217 255
191 217 255
191 217 255
191 217 255
191 217 255
191 217 255
191 217 255
191 217 255
191 217 255
191 217 255
191 217 255
191 217 255
191 217 255
191 217 255
191 217 255
191 217 255
191 217 255
191 217 255
191 217 255
191 217 255
191 217 255
191 217 255
191 217 255
191 217 255
191 217 255
191 217 255
191 217 255
191 217 255
191 217 255
191 217 255
191 217 255
191 217 255
191 217 255
191 217 255
191 217 255
191 217 255
191 217 255
191 217 255
191 217 255
190 216 255
191 216 255
191 217 255
190 216 255
191 217 255
190 216 255
190 216 255
190 216 255
190 216 255
190 216 255
190 216 255
190 216 255
190 216 255
190 216 255
190 216 255
190 216 255
190 216 255
190 216 255
190 216 255
190 216 255
190 216 255
190 216 255
190 216 255
190 216 255
190 216 255
190 216 255
190 216 255
190 216 255
190 216 255
190 216 255
190 216 255
190 216 255
190 216 255
190 216 255
190 216 255
190 216 255
190 216 255
190 216 255
190 216 255
190 216 255
190 216 255
190 216 255
190 216 255
190 216 255
190 216 255
190 216 255
190 216 255
190 216 255
190 216 255
190 216 255
190 216 255
190 216 255
190 216 255
190 216 255
190 216 255
190 216 255
190 216 255
190 216 255
190 216 255
190 216 255
190 216 255
190 216 255
190 216 255
190 216 255
190 216 255
190 216 255
190 216 255
190 216 255
190 216 255
190 216 255
190 216 255
190 216 255
190 216 255
190 216 255
190 216 255
190 216 255
190 216 255
190 216 255
190 216 255
190 216 255
190 216 255
190 216 255
190 216 255
190 216 255
190 216 255
190 216 255
190 216 255
190 216 255
190 216 255
190 216 255
190 216 255
190 216 255
190 216 255
190 216 255
29 35 42
12 15 20
13 16 21
11 13 17
13 16 20
15 18 23
12 15 19
12 15 19
10 12 16
12 15 19
11 14 17
12 15 19
12 14 18
14 17 22
13 16 21
13 16 21
14 18 23
12 15 20
15 18 23
12 15 19
14 18 24
11 14 18
10 13 16
11 14 18
11 14 19
13 16 20
13 17 22
12 15 19
12 15 20
12 15 19
13 15 20
14 17 22
12 14 18
9 11 14
12 15 19
13 16 21
10 13 16
13 16 20
12 15 19
12 15 19
11 13 17
15 18 23
11 14 18
13 16 20
12 15 19
13 16 21
10 13 16
10 13 16
11 14 17
9 11 15
10 13 17
13 15 19
13 16 21
13 16 21
11 14 18
10 13 17
11 13 17
12 15 20
9 11 15
10 13 16
11 14 18
12 15 20
11 13 17
11 13 17
12 15 19
12 15 19
12 15 19
10 13 16
8 10 14
12 15 19
11 14 18
14 17 21
10 13 16
13 16 20
11 13 18
10 12 16
12 15 19
12 14 18
13 15 20
13 16 21
12 15 19
12 14 19
13 16 21
12 15 20
13 16 21
14 17 22
12 15 20
10 13 16
11 14 18
11 13 17
9 11 14
13 16 21
13 16 20
13 16 21
10 13 16
11 14 18
11 14 18
10 12 15
9 12 16
15 18 23
14 17 22
7 9 12
13 16 20
12 15 19
13 16 20
13 16 21
13 16 20
12 15 19
13 16 20
12 15 19
14 16 21
12 15 19
14 17 22
15 18 23
12 16 20
12 14 19
13 16 21
8 10 13
12 15 19
15 19 24
12 15 19
16 19 25
12 14 18
16 20 25
16 20 25
13 16 21
11 14 17
13 16 20
13 16 20
44 51 62
190 216 255
190 216 255
190 216 255
190 216 255
190 216 255
190 216 255
190 216 255
190 216 255
190 216 255
190 216 255
190 216 255
190 216 255
190 216 255
190 216 255
190 216 255
190 216 255
190 216 255
190 216 255
190 216 255
190 216 255
190 216 255
190 216 255
190 216 255
190 216 255
190 216 255
190 216 255
190 216 255
190 216 255
190 216 255
190 216 255
190 216 255
190 216 255
190 216 255
190 216 255
190 216 255
190 216 255
190 216 255
190 216 255
190 216 255
190 216 255
190 216 255
190 216 255
190 216 255
190 216 255
190 216 255
190 216 255
190 216 255
190 216 255
190 216 255
190 216 255
190 216 255
190 216 255
190 216 255
190 216 255
190 216 255
190 216 255
190 216 255
190 216 255
190 216 255
190 216 255
190 216 255
190 216 255
190 216 255
190 216 255
190 216 255
190 216 255
190 216 255
190 216 255
190 216 255
190 216 255
190 216 255
190 216 255
190 216 255
190 216 255
190 216 255
190 216 255
190 216 255
190 216 255
190 216 255
190 216 255
190 216 255
190 216 255
190 216 255
190 216 255
190 216 255
190 216 255
190 216 255
190 216 255
190 216 255
191 216 255
191 217 255
190 216 255
191 216 255
191 217 255
191 217 255
191 217 255
191 217 255
191 217 255
191 217 255
191 217 255
191 217 255
191 217 255
191 217 255
191 217 255
191 217 255
191 217 255
191 217 255
191 217 255
191 217 255
191 217 255
191 217 255
191 217 255
191 217 255
191 217 255
191 217 255
191 217 255
191 217 255
191 217 255
191 217 255
191 217 255
191 217 255
191 217 255
191 217 255
191 217 255
191 217 255
191 217 255
191 217 255
191 217 255
191 217 255
191 217 255
191 217 255
191 217 255
191 217 255
191 217 255
191 217 255
191 217 255
191 217 255
191 217 255
191 217 255
191 217 255
191 217 255
191 217 255
191 217 255
191 217 255
191 217 255
191 217 255
191 217 255
191 217 255
191 217 255
191 217 255
191 217 255
191 217 255
191 217 255
191 217 255
191 217 255
191 217 255
191 217 255
191 217 255
191 217 255
191 217 255
191 217 255
191 217 255
191 217 255
191 217 255
191 217 255
191 217 255
191 217 255
191 217 255
191 217 255
191 217 255
191 217 255
191 217 255
191 217 255
191 217 255
191 217 255
191 217 255
191 217 255
191 217 255
191 217 255
191 217 255
191 217 255
191 217 255
191 217 255
191 217 255
191 217 255
191 217 255
191 217 255
191 217 255
191 217 255
191 217 255
191 217 255
191 217 255
191 217 255
191 217 255
191 217 255
191 217 255
191 217 255
191 217 255
191 217 255
191 217 255
191 217 255
191 217 255
191 217 255
191 217 255
191 217 255
191 217 255
191 217 255
191 217 255
191 217 255
191 217 255
191 217 255
191 217 255
191 217 255
191 217 255
191 217 255
191 217 255
191 217 255
191 217 255
191 217 255
191 217 255
191 217 255
191 217 255
191 217 255
191 217 255
191 217 255
191 217 255
191 217 255
191 217 255
191 217 255
191 217 255
191 217 255
191 217 255
191 217 255
191 217 255
191 217 255
191 217 255
191 217 255
191 217 255
191 217 255
191 217 255
191 217 255
191 217 255
191 217 255
191 217 255
191 217 255
191 217 255
191 217 255
191 217 255
191 217 255
191 217 255
191 217 255
191 217 255
191 217 255
191 217 255
191 217 255
191 217 255
191 217 255
191 217 255
191 217 255
191 217 255
191 217 255
191 217 255
191 217 255
191 217 255
191 217 255
191 217 255
191 217 255
191 217 255
191 217 255
191 217 255
24 29 35
14 18 22
15 18 23
12 15 19
12 15 19
12 15 20
12 15 19
15 18 23
11 14 18
13 16 21
13 16 20
14 17 22
15 19 25
13 16 20
12 15 20
12 14 18
11 14 17
12 15 19
13 16 21
12 14 18
13 17 21
15 18 23
11 13 17
14 17 22
15 19 25
14 17 22
15 18 24
12 15 20
13 16 21
13 17 22
12 15 19
11 14 18
13 16 20
13 16 21
10 12 16
11 14 18
12 14 19
10 13 17
13 16 20
11 14 18
10 13 16
12 15 19
14 18 23
10 13 16
12 15 19
11 14 19
14 17 22
6 8 10
10 13 17
13 16 21
11 14 18
13 16 20
10 13 16
11 13 17
10 13 16
13 16 21
12 15 19
12 15 19
16 20 25
12 15 19
14 17 22
14 17 22
11 13 16
11 13 17
11 14 18
12 15 19
13 17 22
10 13 17
9 11 15
12 14 18
10 12 16
10 13 16
12 14 18
14 17 22
13 16 21
10 13 17
11 13 17
12 15 20
11 14 18
11 14 18
11 13 17
10 12 16
13 16 21
10 13 16
8 10 13
11 14 18
12 15 19
14 17 21
12 15 20
13 16 20
12 15 19
13 16 21
13 16 21
10 13 16
12 15 20
13 16 21
13 16 21
9 12 15
11 14 18
10 13 17
12 14 18
11 14 18
11 13 17
11 14 18
15 19 24
12 15 19
9 11 14
11 14 18
12 15 20
11 14 18
12 15 20
11 13 18
12 15 20
15 18 23
11 14 18
14 17 22
12 15 19
12 15 19
12 15 19
16 20 25
13 16 21
12 15 20
11 15 19
11 14 17
16 19 25
13 17 21
13 16 21
12 15 20
10 13 17
32 38 47
191 217 255
191 217 255
191 217 255
191 217 255
191 217 255
191 217 255
191 217 255
191 217 255
191 217 255
191 217 255
191 217 255
191 217 255
191 217 255
191 217 255
191 217 255
191 217 255
191 217 255
191 217 255
191 217 255
191 217 255
191 217 255
191 217 255
191 217 255
191 217 255
191 217 255
191 217 255
191 217 255
191 217 255
191 217 255
191 217 255
191 217 255
191 217 255
191 217 255
191 217 255
191 217 255
191 217 255
191 217 255
191 217 255
191 217 255
191 217 255
191 217 255
191 217 255
191 217 255
191 217 255
191 217 255
191 217 255
191 217 255
191 217 255
191 217 255
191 217 255
191 217 255
191 217 255
191 217 255
191 217 255
191 217 255
191 217 255
191 217 255
191 217 255
191 217 255
191 217 255
191 217 255
191 217 255
191 217 255
191 217 255
191 217 255
191 217 255
191 217 255
191 217 255
191 217 255
191 217 255
191 217 255
191 217 255
191 217 255
191 217 255
191 217 255
191 217 255
191 217 255
191 217 255
191 217 255
191 217 255
191 217 255
191 217 255
191 217 255
191 217 255
191 217 255
191 217 255
191 217 255
191 217 255
191 217 255
191 217 255
191 217 255
191 217 255
191 217 255
191 217 255
191 217 255
191 217 255
191 217 255
191 217 255
191 217 255
191 217 255
191 217 255
191 217 255
191 217 255
191 217 255
191 217 255
191 217 255
191 217 255
191 217 255
191 217 255
191 217 255
191 217 255
191 217 255
191 217 255
191 217 255
191 217 255
191 217 255
191 217 255
191 217 255
191 217 255
191 217 255
191 217 255
191 217 255
191 217 255
191 217 255
191 217 255
191 217 255
191 217 255
191 217 255
191 217 255
191 217 255
191 217 255
191 217 255
191 217 255
191 217 255
191 217 255
191 217 255
191 217 255
191 217 255
191 217 255
191 217 255
191 217 255
191 217 255
191 217 255
191 217 255
191 217 255
191 217 255
191 217 255
191 217 255
191 217 255
191 217 255
191 217 255
191 217 255
191 217 255
191 217 255
191 217 255
191 217 255
191 217 255
191 217 255
191 217 255
191 217 255
191 217 255
191 217 255
191 217 255
191 217 255
191 217 255
191 217 255
191 217 255
191 217 255
191 217 255
191 217 255
191 217 255
191 217 255
191 217 255
191 217 255
191 217 255
191 217 255
191 217 255
191 217 255
191 217 255
191 217 255
191 217 255
191 217 255
191 217 255
191 217 255
191 217 255
191 217 255
191 217 255
191 217 255
191 217 255
191 217 255
191 217 255
191 217 255
191 217 255
191 217 255
191 217 255
191 217 255
191 217 255
191 217 255
191 217 255
191 217 255
191 217 255
191 217 255
191 217 255
191 217 255
191 217 255
191 217 255
191 217 255
191 217 255
191 217 255
191 217 255
191 217 255
191 217 255
191 217 255
191 217 255
191 217 255
191 217 255
191 217 255
191 217 255
191 217 255
191 217 255
191 217 255
191 217 255
191 217 255
191 217 255
191 217 255
191 217 255
191 217 255
191 217 255
191 217 255
191 217 255
191 217 255
191 217 255
191 217 255
191 217 255
191 217 255
191 217 255
191 217 255
191 217 255
191 217 255
191 217 255
191 217 255
191 217 255
191 217 255
191 217 255
191 217 255
191 217 255
191 217 255
191 217 255
191 217 255
191 217 255
191 217 255
191 217 255
191 217 255
191 217 255
191 217 255
191 217 255
191 217 255
191 217 255
191 217 255
191 217 255
191 217 255
191 217 255
191 217 255
191 217 255
191 217 255
191 217 255
191 217 255
191 217 255
191 217 255
191 217 255
20 24 30
12 15 19
11 14 18
14 17 23
12 15 19
14 17 22
13 16 20
13 16 21
13 16 20
13 16 21
14 18 23
12 15 19
11 13 17
16 20 25
15 18 23
13 16 20
11 14 19
10 13 17
13 16 21
12 15 20
13 16 21
11 14 19
13 16 20
14 17 23
14 18 23
13 15 20
18 22 28
13 16 20
12 14 18
12 15 19
11 14 18
12 15 19
9 11 15
11 14 18
11 14 17
10 12 16
14 17 22
11 14 18
12 15 19
12 15 20
12 15 20
12 15 20
10 13 16
13 16 20
9 12 16
14 18 23
12 15 19
11 14 18
11 13 17
9 11 15
10 12 16
11 14 18
10 12 16
10 13 16
9 11 14
15 18 24
11 14 18
12 15 19
10 13 17
12 16 21
11 14 18
14 17 22
14 17 22
15 18 23
10 12 15
14 18 23
15 18 24
11 14 18
12 15 19
11 14 18
14 17 22
14 18 22
12 15 19
10 13 16
11 14 18
14 17 22
11 14 18
13 16 21
9 11 14
12 14 18
11 14 18
12 15 19
13 16 21
13 16 21
12 15 19
9 11 14
11 14 18
15 19 24
14 17 22
8 10 13
12 15 18
15 18 23
14 17 22
10 12 16
10 12 16
12 15 19
11 14 18
11 13 17
12 15 19
10 12 16
12 15 20
12 15 19
11 14 17
15 18 23
11 14 18
10 12 16
12 15 19
12 15 20
14 18 23
13 16 21
13 15 20
15 18 23
11 13 17
11 14 18
10 12 16
12 14 18
17 21 26
15 18 24
14 17 21
13 16 20
12 15 19
15 18 23
12 15 20
13 16 21
14 18 23
13 16 20
14 17 21
13 16 20
12 15 19
20 24 30
191 217 255
191 217 255
191 217 255
191 217 255
191 217 255
191 217 255
191 217 255
191 217 255
191 217 255
191 217 255
191 217 255
191 217 255
191 217 255
191 217 255
191 217 255
191 217 255
191 217 255
191 217 255
191 217 255
191 217 255
191 217 255
191 217 255
191 217 255
191 217 255
191 217 255
191 217 255
191 217 255
191 217 255
191 217 255
191 217 255
191 217 255
191 217 255
191 217 255
191 217 255
191 217 255
191 217 255
191 217 255
191 217 255
191 217 255
191 217 255
191 217 255
191 217 255
191 217 255
191 217 255
191 217 255
191 217 255
191 217 255
191 217 255
191 217 255
191 217 255
191 217 255
191 217 255
191 217 255
191 217 255
191 217 255
191 217 255
191 217 255
191 217 255
191 217 255
191 217 255
191 217 255
191 217 255
191 217 255
191 217 255
191 217 255
191 217 255
191 217 255
191 217 255
191 217 255
191 217 255
191 217 255
191 217 255
191 217 255
191 217 255
191 217 255
191 217 255
191 217 255
191 217 255
191 217 255
191 217 255
191 217 255
191 217 255
191 217 255
191 217 255
191 217 255
191 217 255
191 217 255
191 217 255
191 217 255
191 217 255
191 217 255
191 217 255
191 217 255
191 217 255
191 217 255
191 217 255
191 217 255
191 217 255
191 217 255
191 217 255
191 217 255
191 217 255
191 217 255
191 217 255
191 217 255
191 217 255
191 217 255
191 217 255
191 217 255
191 217 255
191 217 255
191 217 255
191 217 255
191 217 255
191 217 255
191 217 255
191 217 255
191 217 255
191 217 255
191 217 255
191 217 255
191 217 255
191 217 255
191 217 255
191 217 255
191 217 255
191 217 255
191 217 255
191 217 255
191 217 255
191 217 255
191 217 255
191 217 255
191 217 255
191 217 255
191 217 255
191 217 255
191 217 255
191 217 255
191 217 255
191 217 255
192 217 255
191 217 255
191 217 255
192 217 255
191 217 255
191 217 255
191 217 255
192 217 255
192 217 255
192 217 255
192 217 255
191 217 255
192 217 255
192 217 255
191 217 255
192 217 255
191 217 255
191 217 255
191 217 255
192 217 255
192 217 255
191 217 255
191 217 255
192 217 255
192 217 255
192 217 255
191 217 255
192 217 255
192 217 255
191 217 255
191 217 255
192 217 255
191 217 255
192 217 255
191 217 255
192 217 255
191 217 255
191 217 255
192 217 255
191 217 255
191 217 255
191 217 255
192 217 255
191 217 255
192 217 255
191 217 255
191 217 255
192 217 255
192 217 255
192 217 255
191 217 255
192 217 255
191 217 255
191 217 255
192 217 255
191 217 255
192 217 255
192 217 255
191 217 255
192 217 255
192 217 255
192 217 255
192 217 255
192 217 255
192 217 255
191 217 255
191 217 255
192 217 255
192 217 255
191 217 255
191 217 255
191 217 255
191 217 255
191 217 255
191 217 255
192 217 255
191 217 255
192 217 255
191 217 255
191 217 255
191 217 255
192 217 255
191 217 255
191 217 255
191 217 255
192 217 255
192 217 255
192 217 255
191 217 255
192 217 255
191 217 255
191 217 255
191 217 255
192 217 255
192 217 255
191 217 255
191 217 255
191 217 255
192 217 255
191 217 255
191 217 255
192 217 255
191 217 255
191 217 255
191 217 255
191 217 255
192 217 255
192 217 255
192 217 255
192 217 255
192 217 255
192 217 255
192 217 255
192 217 255
191 217 255
191 217 255
192 217 255
192 217 255
191 217 255
191 217 255
192 217 255
191 217 255
192 217 255
192 217 255
192 217 255
191 217 255
192 217 255
191 217 255
191 217 255
25 30 36
12 15 19
15 19 24
16 19 25
13 15 19
13 16 21
13 16 20
11 14 18
12 15 20
12 15 20
13 16 21
13 15 20
15 19 24
11 14 18
12 15 19
14 17 21
13 16 20
11 13 17
11 14 19
11 13 17
12 14 18
15 18 23
13 16 21
12 15 19
13 16 21
11 14 18
11 14 18
13 16 21
13 16 21
11 14 17
11 14 18
9 11 14
12 15 19
9 11 15
11 13 17
10 12 16
11 14 18
13 16 20
13 16 21
10 12 16
13 16 20
10 13 17
16 19 25
12 14 18
10 12 15
13 16 21
12 15 19
13 16 20
11 14 18
13 16 21
10 12 16
12 15 19
10 12 15
11 14 19
9 12 15
13 16 21
11 14 18
12 15 19
12 15 19
13 16 21
8 10 13
10 12 16
11 13 17
13 16 21
10 13 17
9 11 15
10 12 15
9 11 14
11 14 17
10 12 16
9 11 15
10 12 15
11 13 17
11 14 18
13 16 20
12 15 19
10 12 16
12 14 18
13 16 21
11 14 17
11 14 18
11 13 17
11 14 18
13 15 20
12 15 19
12 14 18
14 17 21
11 14 18
12 14 18
9 11 14
13 15 20
14 17 22
10 12 16
9 11 15
16 19 24
10 12 15
12 15 19
12 15 19
13 16 20
11 14 18
14 17 21
12 15 19
10 13 17
11 14 17
9 11 14
11 14 18
9 11 14
10 12 16
15 18 23
13 16 21
12 15 20
14 17 22
13 16 20
12 14 19
13 15 20
10 13 16
13 16 21
12 15 20
15 18 24
10 13 17
12 15 19
11 14 18
12 15 20
12 15 19
13 16 20
13 16 21
11 14 18
11 14 18
13 17 21
18 21 27
191 217 255
191 217 255
191 217 255
192 217 255
192 217 255
192 217 255
191 217 255
192 217 255
191 217 255
192 217 255
192 217 255
191 217 255
191 217 255
191 217 255
192 217 255
192 217 255
192 217 255
192 217 255
192 217 255
192 217 255
192 217 255
192 217 255
192 217 255
192 217 255
192 217 255
192 217 255
191 217 255
192 217 255
192 217 255
191 217 255
192 217 255
191 217 255
192 217 255
191 217 255
192 217 255
192 217 255
191 217 255
191 217 255
192 217 255
191 217 255
192 217 255
191 217 255
192 217 255
192 217 255
192 217 255
191 217 255
192 217 255
192 217 255
192 217 255
191 217 255
192 217 255
191 217 255
192 217 255
192 217 255
191 217 255
192 217 255
191 217 255
192 217 255
192 217 255
191 217 255
191 217 255
191 217 255
192 217 255
192 217 255
192 217 255
191 217 255
191 217 255
192 217 255
191 217 255
191 217 255
191 217 255
191 217 255
191 217 255
191 217 255
192 217 255
191 217 255
192 217 255
192 217 255
192 217 255
191 217 255
192 217 255
191 217 255
192 217 255
192 217 255
191 217 255
191 217 255
192 217 255
192 217 255
192 217 255
191 217 255
192 217 255
191 217 255
192 217 255
192 217 255
191 217 255
192 217 255
191 217 255
192 217 255
191 217 255
191 217 255
191 217 255
192 217 255
192 217 255
191 217 255
192 217 255
192 217 255
191 217 255
192 217 255
191 217 255
192 217 255
191 217 255
191 217 255
191 217 255
192 217 255
192 217 255
192 217 255
192 217 255
192 217 255
191 217 255
192 217 255
192 217 255
191 217 255
191 217 255
191 217 255
192 217 255
191 217 255
192 217 255
192 217 255
191 217 255
192 217 255
191 217 255
192 217 255
191 217 255
191 217 255
191 217 255
192 217 255
192 217 255
192 217 255
192 217 255
192 217 255
192 217 255
192 217 255
192 217 255
192 217 255
192 217 255
192 217 255
192 217 255
192 217 255
192 217 255
192 217 255
192 217 255
192 217 255
192 217 255
192 217 255
192 217 255
192 217 255
192 217 255
192 217 255
192 217 255
192 217 255
192 217 255
192 217 255
192 217 255
192 217 255
192 217 255
192 217 255
192 217 255
192 217 255
192 217 255
192 217 255
192 217 255
192 217 255
192 217 255
192 217 255
192 217 255
192 217 255
192 217 255
192 217 255
192 217 255
192 217 255
192 217 255
192 217 255
192 217 255
192 217 255
192 217 255
192 217 255
192 217 255
192 217 255
192 217 255
192 217 255
192 217 255
192 217 255
192 217 255
192 217 255
192 217 255
192 217 255
192 217 255
192 217 255
192 217 255
192 217 255
192 217 255
192 217 255
192 217 255
192 217 255
192 217 255
192 217 255
192 217 255
192 217 255
192 217 255
192 217 255
192 217 255
192 217 255
192 217 255
192 217 255
192 217 255
192 217 255
192 217 255
192 217 255
192 217 255
192 217 255
192 217 255
192 217 255
192 217 255
192 217 255
192 217 255
192 217 255
192 217 255
192 217 255
192 217 255
192 217 255
192 217 255
192 217 255
192 217 255
192 217 255
192 217 255
192 217 255
192 217 255
192 217 255
192 217 255
192 217 255
192 217 255
192 217 255
192 217 255
192 217 255
192 217 255
192 217 255
192 217 255
192 217 255
192 217 255
192 217 255
192 217 255
192 217 255
192 217 255
192 217 255
192 217 255
192 217 255
192 217 255
192 217 255
192 217 255
192 217 255
192 217 255
192 217 255
192 217 255
192 217 255
192 217 255
192 217 255
192 217 255
192 217 255
192 217 255
192 217 255
17 20 25
10 12 15
12 15 19
12 15 19
12 15 20
15 18 23
11 13 17
11 14 18
15 18 23
13 16 21
13 16 21
12 15 20
15 18 23
15 18 23
13 16 21
13 17 21
12 15 20
13 15 20
11 14 18
10 12 16
16 19 25
11 14 18
13 16 21
12 15 20
11 14 18
16 19 24
10 13 16
14 17 22
11 14 17
14 17 22
14 17 22
11 13 16
13 16 21
11 14 18
12 14 18
8 10 12
9 12 15
11 14 18
13 16 21
10 12 16
12 15 19
12 15 19
11 13 17
11 14 18
11 14 18
11 14 18
12 15 19
9 11 14
11 14 18
15 19 24
11 14 19
11 13 17
11 13 17
14 17 22
13 16 20
13 16 21
11 14 18
9 11 14
13 16 21
14 17 21
10 13 17
8 11 14
11 13 17
11 14 17
12 15 19
12 14 18
11 14 18
11 13 17
11 13 17
10 13 17
12 15 19
11 13 17
11 14 18
12 14 19
13 16 20
11 14 18
10 13 17
14 17 22
12 15 19
12 15 20
13 16 21
14 17 22
10 13 17
15 18 23
12 16 20
12 15 19
14 17 22
13 16 20
9 11 14
12 15 19
9 12 15
12 15 19
12 15 19
12 15 20
11 14 18
11 14 18
11 14 18
12 15 19
10 13 16
12 14 18
13 17 21
11 13 17
11 14 18
11 14 17
14 18 23
11 14 18
10 13 17
12 15 19
12 15 19
11 14 18
11 13 17
12 14 18
11 14 18
12 15 19
12 14 18
9 12 16
9 12 16
14 17 23
15 18 23
13 16 21
13 17 21
15 19 25
15 18 24
13 16 20
13 17 22
12 14 19
13 16 21
14 17 22
11 14 19
26 31 38
192 217 255
192 217 255
192 217 255
192 217 255
192 217 255
192 217 255
192 217 255
192 217 255
192 217 255
192 217 255
192 217 255
192 217 255
192 217 255
192 217 255
192 217 255
192 217 255
192 217 255
192 217 255
192 217 255
192 217 255
192 217 255
192 217 255
192 217 255
192 217 255
192 217 255
192 217 255
192 217 255
192 217 255
192 217 255
192 217 255
192 217 255
192 217 255
192 217 255
192 217 255
192 217 255
192 217 255
192 217 255
192 217 255
192 217 255
192 217 255
192 217 255
192 217 255
192 217 255
192 217 255
192 217 255
192 217 255
192 217 255
192 217 255
192 217 255
192 217 255
192 217 255
192 217 255
192 217 255
192 217 255
192 217 255
192 217 255
192 217 255
192 217 255
192 217 255
192 217 255
192 217 255
192 217 255
192 217 255
192 217 255
192 217 255
192 217 255
192 217 255
192 217 255
192 217 255
192 217 255
192 217 255
192 217 255
192 217 255
192 217 255
192 217 255
192 217 255
192 217 255
192 217 255
192 217 255
192 217 255
192 217 255
192 217 255
192 217 255
192 217 255
192 217 255
192 217 255
192 217 255
192 217 255
192 217 255
192 217 255
192 217 255
192 217 255
192 217 255
192 217 255
192 217 255
192 217 255
192 217 255
192 217 255
192 217 255
192 217 255
192 217 255
192 217 255
192 217 255
192 217 255
192 217 255
192 217 255
192 217 255
192 217 255
192 217 255
192 217 255
192 217 255
192 217 255
192 217 255
192 217 255
192 217 255
192 217 255
192 217 255
192 217 255
192 217 255
192 217 255
192 217 255
192 217 255
192 217 255
192 217 255
192 217 255
192 217 255
192 217 255
192 217 255
192 217 255
192 217 255
192 217 255
192 217 255
192 217 255
192 217 255
192 217 255
192 217 255
192 217 255
192 217 255
192 217 255
192 217 255
192 217 255
192 217 255
192 217 255
192 217 255
192 217 255
192 217 255
192 217 255
192 217 255
192 217 255
192 217 255
192 217 255
192 217 255
192 217 255
192 217 255
192 217 255
192 217 255
192 217 255
192 217 255
192 217 255
192 217 255
192 217 255
192 217 255
192 217 255
192 217 255
192 217 255
192 217 255
192 217 255
192 217 255
192 217 255
192 217 255
192 217 255
192 217 255
192 217 255
192 217 255
192 217 255
192 217 255
192 217 255
192 217 255
192 217 255
192 217 255
192 217 255
192 218 255
192 217 255
192 218 255
192 218 255
192 218 255
192 218 255
192 218 255
192 218 255
192 218 255
192 218 255
192 218 255
192 218 255
192 218 255
192 218 255
192 218 255
192 218 255
192 218 255
192 218 255
192 218 255
192 218 255
192 218 255
192 218 255
192 218 255
192 218 255
192 218 255
192 218 255
192 218 255
192 218 255
192 218 255
192 218 255
192 218 255
192 218 255
192 218 255
192 218 255
192 218 255
192 218 255
192 218 255
192 218 255
192 218 255
192 218 255
192 218 255
192 218 255
192 218 255
192 218 255
192 218 255
192 218 255
192 218 255
192 218 255
192 218 255
192 218 255
192 218 255
192 218 255
192 218 255
192 218 255
192 218 255
192 218 255
192 218 255
192 218 255
192 218 255
192 218 255
192 218 255
192 218 255
192 218 255
192 218 255
192 218 255
192 218 255
192 218 255
192 218 255
192 218 255
192 218 255
192 218 255
192 218 255
192 218 255
192 218 255
192 218 255
192 218 255
192 218 255
192 218 255
192 218 255
192 218 255
192 218 255
192 218 255
192 218 255
192 218 255
192 218 255
192 218 255
192 218 255
192 218 255
193 218 255
27 32 39
11 14 18
11 14 17
14 18 23
13 16 21
13 15 19
14 17 21
14 17 22
11 14 19
13 16 20
11 14 17
11 13 17
13 16 21
14 17 22
13 16 20
13 16 21
14 17 21
14 17 22
12 15 19
14 17 22
12 15 20
14 17 22
12 15 20
11 14 18
11 14 18
13 17 21
13 17 22
15 19 24
14 17 22
11 14 18
13 16 21
11 14 18
13 16 20
12 15 19
12 14 19
14 17 22
11 14 19
14 17 22
12 15 19
9 12 15
11 13 16
10 12 16
12 14 18
13 16 20
9 11 15
13 16 20
11 14 18
8 10 14
14 17 22
11 14 17
12 15 19
12 15 19
13 16 21
12 15 19
12 14 18
13 16 21
11 14 18
10 13 17
9 11 15
9 11 14
11 13 17
11 14 18
12 15 19
11 13 17
11 13 17
11 14 18
12 15 20
14 18 23
13 16 20
11 14 18
11 14 18
12 15 19
10 13 17
9 11 14
10 12 15
10 12 16
10 13 16
11 13 17
12 15 19
9 11 14
10 13 16
10 12 16
9 11 14
10 13 17
10 12 16
11 14 18
12 15 19
13 15 20
11 13 17
12 16 21
8 10 13
11 13 17
10 12 16
12 16 20
11 14 18
9 11 14
10 13 17
10 12 16
13 16 21
11 14 18
13 15 20
12 15 19
10 12 16
13 16 20
10 13 17
13 16 21
11 14 18
11 14 18
12 15 19
12 15 20
14 17 22
15 19 24
11 13 17
11 13 17
13 16 21
12 15 20
13 16 21
13 16 21
15 19 24
13 16 21
13 16 21
13 16 21
15 19 24
14 17 21
11 13 17
11 14 19
16 20 25
10 13 16
14 18 23
14 17 21
192 218 255
192 218 255
193 218 255
192 218 255
192 218 255
192 218 255
192 218 255
192 218 255
192 218 255
192 218 255
192 218 255
192 218 255
192 218 255
192 218 255
192 218 255
192 218 255
192 218 255
192 218 255
192 218 255
192 218 255
192 218 255
192 218 255
192 218 255
192 218 255
192 218 255
192 218 255
192 218 255
192 218 255
192 218 255
192 218 255
192 218 255
192 218 255
192 218 255
192 218 255
192 218 255
192 218 255
192 218 255
192 218 255
192 218 255
192 218 255
192 218 255
192 218 255
192 218 255
192 218 255
192 218 255
192 218 255
192 218 255
192 218 255
192 218 255
192 218 255
192 218 255
192 218 255
192 218 255
192 218 255
192 218 255
192 218 255
192 218 255
192 218 255
192 218 255
192 218 255
192 218 255
192 218 255
192 218 255
192 218 255
192 218 255
192 218 255
192 218 255
192 218 255
192 218 255
192 218 255
192 218 255
192 218 255
192 218 255
192 218 255
192 218 255
192 218 255
192 218 255
192 218 255
192 218 255
192 218 255
192 218 255
192 218 255
192 218 255
192 218 255
192 218 255
192 218 255
192 218 255
192 218 255
192 218 255
192 218 255
192 217 255
192 217 255
192 217 255
192 217 255
192 217 255
192 217 255
192 217 255
192 217 255
192 217 255
192 217 255
192 217 255
192 217 255
192 217 255
192 217 255
192 217 255
192 217 255
192 217 255
192 217 255
192 217 255
192 217 255
192 217 255
192 217 255
192 217 255
192 217 255
192 217 255
192 217 255
192 217 255
192 217 255
192 217 255
192 217 255
192 217 255
192 217 255
192 217 255
192 217 255
192 217 255
192 217 255
192 217 255
192 217 255
192 217 255
192 217 255
192 217 255
192 217 255
192 217 255
192 217 255
192 217 255
192 218 255
192 218 255
192 218 255
192 218 255
192 218 255
192 218 255
192 218 255
192 218 255
192 218 255
192 218 255
192 218 255
192 218 255
192 218 255
192 218 255
192 218 255
192 218 255
192 218 255
192 218 255
192 218 255
192 218 255
192 218 255
192 218 255
192 218 255
192 218 255
192 218 255
192 218 255
192 218 255
192 218 255
192 218 255
192 218 255
192 218 255
192 218 255
192 218 255
192 218 255
192 218 255
192 218 255
192 218 255
192 218 255
192 218 255
192 218 255
192 218 255
192 218 255
192 218 255
192 218 255
192 218 255
193 218 255
193 218 255
193 218 255
192 218 255
193 218 255
193 218 255
193 218 255
193 218 255
193 218 255
193 218 255
193 218 255
193 218 255
193 218 255
193 218 255
193 218 255
193 218 255
193 218 255
193 218 255
193 218 255
193 218 255
193 218 255
193 218 255
193 218 255
193 218 255
193 218 255
193 218 255
193 218 255
193 218 255
193 218 255
193 218 255
193 218 255
193 218 255
193 218 255
193 218 255
193 218 255
193 218 255
193 218 255
193 218 255
193 218 255
193 218 255
193 218 255
193 218 255
193 218 255
193 218 255
193 218 255
193 218 255
193 218 255
193 218 255
193 218 255
193 218 255
193 218 255
193 218 255
193 218 255
193 218 255
193 218 255
193 218 255
193 218 255
193 218 255
193 218 255
193 218 255
193 218 255
193 218 255
193 218 255
193 218 255
193 218 255
193 218 255
193 218 255
193 218 255
193 218 255
193 218 255
193 218 255
193 218 255
193 218 255
193 218 255
193 218 255
193 218 255
193 218 255
193 218 255
193 218 255
193 218 255
193 218 255
193 218 255
193 218 255
193 218 255
193 218 255
193 218 255
193 218 255
193 218 255
193 218 255
193 218 255
36 42 51
14 17 22
11 14 18
15 18 24
13 17 22
13 16 20
14 17 22
10 13 16
13 16 21
11 14 17
11 13 17
12 15 19
16 20 27
15 19 24
13 16 21
13 16 21
12 15 18
10 12 16
10 12 16
12 15 19
11 14 18
12 15 19
14 17 22
13 16 21
11 14 18
10 12 16
9 11 14
13 16 20
13 15 20
12 15 19
11 14 18
11 13 17
12 14 18
10 12 15
10 12 16
12 15 19
13 17 21
14 17 21
11 14 17
11 13 17
14 18 23
13 16 21
11 14 18
12 15 20
9 11 15
9 11 14
7 9 12
12 15 20
10 12 16
11 14 18
12 15 19
12 15 20
11 14 18
12 15 20
12 15 19
12 14 18
12 14 19
10 13 17
15 19 24
13 16 20
12 15 20
9 11 14
14 17 22
10 12 15
9 12 15
11 14 18
13 16 20
12 15 19
14 17 22
12 15 20
11 14 18
10 13 16
11 14 18
12 14 18
12 15 19
14 17 22
13 16 20
10 12 16
11 13 17
12 14 18
11 14 18
12 15 20
14 17 22
12 15 19
10 12 15
10 13 17
9 11 14
11 14 18
11 14 18
12 15 19
9 11 14
12 15 19
13 17 22
12 15 19
13 17 22
13 16 20
10 13 17
11 13 17
15 18 23
11 14 18
12 14 18
11 14 18
14 17 21
11 13 17
12 15 19
10 12 16
13 16 20
13 16 21
14 17 22
12 15 20
10 12 16
13 16 21
13 15 19
14 17 21
13 16 21
11 13 17
15 19 24
11 14 18
14 17 22
14 17 22
14 18 23
12 14 18
14 17 21
13 17 21
12 15 19
12 15 19
10 13 16
9 11 15
15 19 24
32 37 45
193 218 255
193 218 255
193 218 255
193 218 255
193 218 255
193 218 255
193 218 255
193 218 255
193 218 255
193 218 255
193 218 255
193 218 255
193 218 255
193 218 255
193 218 255
193 218 255
193 218 255
193 218 255
193 218 255
193 218 255
193 218 255
193 218 255
193 218 255
193 218 255
193 218 255
193 218 255
193 218 255
193 218 255
193 218 255
193 218 255
193 218 255
193 218 255
193 218 255
193 218 255
193 218 255
193 218 255
193 218 255
193 218 255
193 218 255
193 218 255
193 218 255
193 218 255
193 218 255
193 218 255
193 218 255
193 218 255
193 218 255
193 218 255
193 218 255
193 218 255
193 218 255
193 218 255
193 218 255
193 218 255
193 218 255
193 218 255
193 218 255
193 218 255
193 218 255
193 218 255
193 218 255
193 218 255
193 218 255
193 218 255
193 218 255
193 218 255
193 218 255
193 218 255
193 218 255
193 218 255
193 218 255
193 218 255
193 218 255
193 218 255
193 218 255
193 218 255
193 218 255
193 218 255
193 218 255
193 218 255
193 218 255
193 218 255
193 218 255
193 218 255
193 218 255
193 218 255
193 218 255
193 218 255
193 218 255
193 218 255
193 218 255
192 218 255
193 218 255
192 218 255
192 218 255
192 218 255
192 218 255
192 218 255
192 218 255
192 218 255
192 218 255
192 218 255
192 218 255
192 218 255
192 218 255
192 218 255
192 218 255
192 218 255
192 218 255
192 218 255
192 218 255
192 218 255
192 218 255
192 218 255
192 218 255
192 218 255
192 218 255
192 218 255
192 218 255
192 218 255
192 218 255
192 218 255
192 218 255
192 218 255
192 218 255
192 218 255
192 218 255
192 218 255
192 218 255
192 218 255
192 218 255
192 218 255
192 218 255
192 218 255
192 218 255
193 218 255
193 218 255
193 218 255
193 218 255
193 218 255
193 218 255
193 218 255
193 218 255
193 218 255
193 218 255
193 218 255
193 218 255
193 218 255
193 218 255
193 218 255
193 218 255
193 218 255
193 218 255
193 218 255
193 218 255
193 218 255
193 218 255
193 218 255
193 218 255
193 218 255
193 218 255
193 218 255
193 218 255
193 218 255
193 218 255
193 218 255
193 218 255
193 218 255
193 218 255
193 218 255
193 218 255
193 218 255
193 218 255
193 218 255
193 218 255
193 218 255
193 218 255
193 218 255
193 218 255
193 218 255
193 218 255
193 218 255
193 218 255
193 218 255
193 218 255
193 218 255
193 218 255
193 218 255
193 218 255
193 218 255
193 218 255
193 218 255
193 218 255
193 218 255
193 218 255
193 218 255
193 218 255
193 218 255
193 218 255
193 218 255
193 218 255
193 218 255
193 218 255
193 218 255
193 218 255
193 218 255
193 218 255
193 218 255
193 218 255
193 218 255
193 218 255
193 218 255
193 218 255
193 218 255
193 218 255
193 218 255
193 218 255
193 218 255
193 218 255
193 218 255
193 218 255
193 218 255
193 218 255
193 218 255
193 218 255
193 218 255
193 218 255
193 218 255
193 218 255
193 218 255
193 218 255
193 218 255
193 218 255
193 218 255
193 218 255
193 218 255
193 218 255
193 218 255
193 218 255
193 218 255
193 218 255
193 218 255
193 218 255
193 218 255
193 218 255
193 218 255
193 218 255
193 218 255
193 218 255
193 218 255
193 218 255
193 218 255
193 218 255
193 218 255
193 218 255
193 218 255
193 218 255
193 218 255
193 218 255
193 218 255
193 218 255
193 218 255
193 218 255
193 218 255
193 218 255
193 218 255
193 218 255
193 218 255
193 218 255
193 218 255
42 49 59
13 16 20
14 17 22
13 16 20
13 16 20
13 16 20
11 14 18
16 19 25
11 14 19
14 17 22
12 14 19
12 15 20
12 15 19
12 15 19
11 14 18
12 14 18
12 15 19
12 15 19
12 14 18
14 18 23
11 13 17
12 14 18
15 18 23
13 16 20
9 12 16
13 16 20
11 13 17
12 15 19
13 16 21
12 15 20
10 13 16
12 15 19
12 15 19
11 13 17
10 13 17
10 13 17
11 13 17
13 16 21
10 13 17
12 15 20
11 14 18
14 17 22
10 12 15
13 16 21
12 15 19
11 14 19
12 15 19
10 12 16
15 18 23
13 17 22
12 15 19
14 17 22
12 14 18
12 14 18
13 16 21
12 14 18
11 14 18
11 13 17
12 15 19
10 13 16
11 13 17
12 15 19
12 14 18
11 13 17
12 15 19
12 15 19
10 13 17
10 12 16
12 14 18
13 16 20
12 14 19
12 14 18
12 15 20
14 17 21
11 14 18
12 15 19
10 13 17
13 15 20
12 14 18
11 14 18
13 16 20
10 13 17
11 14 18
9 11 15
12 14 19
13 16 20
12 15 20
11 13 17
15 19 25
10 12 15
12 15 19
11 13 17
10 13 17
11 14 18
10 13 17
11 14 18
12 15 19
9 11 15
10 13 16
12 15 20
12 15 19
11 14 18
12 14 19
12 14 18
13 15 19
11 14 18
10 13 17
11 14 17
14 18 24
10 13 16
12 15 19
13 16 21
13 16 20
12 15 19
12 15 19
16 19 24
10 12 15
15 18 23
12 15 19
10 13 16
12 14 19
14 17 22
13 16 21
12 15 20
14 18 23
11 13 17
12 15 19
11 13 17
15 18 24
37 42 51
193 218 255
193 218 255
193 218 255
193 218 255
193 218 255
193 218 255
193 218 255
193 218 255
193 218 255
193 218 255
193 218 255
193 218 255
193 218 255
193 218 255
193 218 255
193 218 255
193 218 255
193 218 255
193 218 255
193 218 255
193 218 255
193 218 255
193 218 255
193 218 255
193 218 255
193 218 255
193 218 255
193 218 255
193 218 255
193 218 255
193 218 255
193 218 255
193 218 255
193 218 255
193 218 255
193 218 255
193 218 255
193 218 255
193 218 255
193 218 255
193 218 255
193 218 255
193 218 255
193 218 255
193 218 255
193 218 255
193 218 255
193 218 255
193 218 255
193 218 255
193 218 255
193 218 255
193 218 255
193 218 255
193 218 255
193 218 255
193 218 255
193 218 255
193 218 255
193 218 255
193 218 255
193 218 255
193 218 255
193 218 255
193 218 255
193 218 255
193 218 255
193 218 255
193 218 255
193 218 255
193 218 255
193 218 255
193 218 255
193 218 255
193 218 255
193 218 255
193 218 255
193 218 255
193 218 255
193 218 255
193 218 255
193 218 255
193 218 255
193 218 255
193 218 255
193 218 255
193 218 255
193 218 255
193 218 255
193 218 255
193 218 255
193 218 255
193 218 255
193 218 255
193 218 255
193 218 255
193 218 255
193 218 255
193 218 255
193 218 255
193 218 255
193 218 255
193 218 255
193 218 255
193 218 255
193 218 255
193 218 255
193 218 255
193 218 255
193 218 255
193 218 255
193 218 255
193 218 255
193 218 255
193 218 255
193 218 255
193 218 255
193 218 255
193 218 255
193 218 255
193 218 255
193 218 255
193 218 255
193 218 255
193 218 255
193 218 255
193 218 255
193 218 255
193 218 255
193 218 255
193 218 255
193 218 255
193 218 255
193 218 255
193 218 255
193 218 255
193 218 255
193 218 255
193 218 255
193 218 255
193 218 255
193 218 255
193 218 255
193 218 255
193 218 255
193 218 255
193 218 255
193 218 255
193 218 255
193 218 255
193 218 255
193 218 255
193 218 255
193 218 255
193 218 255
193 218 255
193 218 255
193 218 255
193 218 255
193 218 255
193 218 255
193 218 255
193 218 255
193 218 255
193 218 255
193 218 255
193 218 255
193 218 255
193 218 255
193 218 255
193 218 255
193 218 255
193 218 255
193 218 255
193 218 255
193 218 255
193 218 255
193 218 255
193 218 255
193 218 255
193 218 255
193 218 255
193 218 255
193 218 255
193 218 255
193 218 255
193 218 255
193 218 255
193 218 255
193 218 255
193 218 255
193 218 255
193 218 255
193 218 255
193 218 255
193 218 255
193 218 255
193 218 255
193 218 255
193 218 255
193 218 255
193 218 255
193 218 255
193 218 255
193 218 255
193 218 255
193 218 255
193 218 255
193 218 255
193 218 255
193 218 255
193 218 255
193 218 255
193 218 255
193 218 255
193 218 255
193 218 255
193 218 255
193 218 255
193 218 255
193 218 255
193 218 255
194 218 255
194 218 255
194 218 255
194 218 255
194 218 255
194 218 255
194 218 255
194 218 255
194 218 255
194 218 255
194 218 255
194 218 255
194 218 255
194 218 255
194 218 255
194 218 255
194 218 255
194 218 255
194 218 255
194 218 255
194 218 255
194 218 255
194 218 255
194 218 255
194 218 255
194 218 255
194 218 255
194 218 255
194 218 255
194 218 255
194 218 255
194 218 255
194 218 255
194 218 255
194 218 255
194 218 255
194 219 255
194 219 255
194 219 255
194 219 255
194 219 255
194 219 255
194 219 255
194 219 255
194 219 255
194 219 255
194 219 255
194 219 255
50 57 68
12 15 19
14 18 23
12 15 20
11 14 18
11 13 17
13 16 21
14 17 22
13 16 20
13 17 21
12 15 19
13 16 20
13 16 21
13 16 21
13 16 21
11 13 17
11 14 18
10 12 15
13 16 21
13 17 21
11 13 17
13 16 21
15 19 24
9 11 15
11 14 18
11 13 17
10 13 17
11 14 18
13 16 21
11 13 17
10 12 16
13 16 20
8 10 13
11 14 18
12 15 20
11 14 17
11 14 18
13 16 21
8 11 14
8 10 13
11 14 18
12 15 19
14 17 22
11 13 17
11 14 18
12 14 18
10 13 17
10 12 16
12 15 19
13 16 21
9 11 14
10 13 16
10 12 16
11 14 18
14 17 22
11 14 18
9 11 14
11 13 17
10 13 16
11 13 17
11 13 17
9 11 14
9 11 14
11 14 18
15 19 24
11 14 18
13 16 21
12 14 18
12 15 19
11 14 18
10 12 15
12 15 19
13 16 20
14 17 21
12 15 19
13 17 22
13 16 21
11 14 18
11 14 17
11 13 17
10 13 16
9 11 13
10 13 16
10 13 16
13 16 21
12 15 20
10 13 16
9 11 15
12 14 19
10 12 15
11 14 17
11 14 17
11 14 19
12 14 18
9 11 14
10 13 17
12 15 19
11 14 18
12 15 19
12 14 18
12 15 19
12 14 19
12 14 18
12 15 19
12 14 18
8 10 13
11 13 17
14 16 21
13 16 21
10 13 16
12 15 20
9 12 15
11 13 17
10 13 16
16 19 24
12 15 20
15 18 23
13 16 21
10 13 16
14 17 21
14 17 22
11 14 18
12 15 20
12 15 19
13 16 20
11 14 18
12 15 19
9 11 14
11 14 19
59 67 80
194 219 255
194 219 255
194 219 255
194 219 255
194 219 255
194 219 255
194 219 255
194 219 255
194 219 255
194 219 255
194 219 255
194 219 255
194 218 255
194 218 255
194 218 255
194 218 255
194 218 255
194 218 255
194 218 255
194 218 255
194 218 255
194 218 255
194 218 255
194 218 255
194 218 255
194 218 255
194 218 255
194 218 255
194 218 255
194 218 255
194 218 255
194 218 255
194 218 255
194 218 255
194 218 255
194 218 255
194 218 255
194 218 255
194 218 255
194 218 255
194 218 255
194 218 255
194 218 255
194 218 255
194 218 255
194 218 255
194 218 255
194 218 255
194 218 255
193 218 255
194 218 255
193 218 255
193 218 255
193 218 255
193 218 255
193 218 255
193 218 255
193 218 255
193 218 255
193 218 255
193 218 255
193 218 255
193 218 255
193 218 255
193 218 255
193 218 255
193 218 255
193 218 255
193 218 255
193 218 255
193 218 255
193 218 255
193 218 255
193 218 255
193 218 255
193 218 255
193 218 255
193 218 255
193 218 255
193 218 255
193 218 255
193 218 255
193 218 255
193 218 255
193 218 255
193 218 255
193 218 255
193 218 255
193 218 255
193 218 255
193 218 255
193 218 255
193 218 255
193 218 255
193 218 255
193 218 255
193 218 255
193 218 255
193 218 255
193 218 255
193 218 255
193 218 255
193 218 255
193 218 255
193 218 255
193 218 255
193 218 255
193 218 255
193 218 255
193 218 255
193 218 255
193 218 255
193 218 255
193 218 255
193 218 255
193 218 255
193 218 255
193 218 255
193 218 255
193 218 255
193 218 255
193 218 255
193 218 255
193 218 255
193 218 255
193 218 255
193 218 255
193 218 255
193 218 255
193 218 255
193 218 255
193 218 255
193 218 255
193 218 255
193 218 255
193 218 255
193 218 255
193 218 255
193 218 255
193 218 255
193 218 255
193 218 255
193 218 255
193 218 255
193 218 255
193 218 255
193 218 255
193 218 255
193 218 255
193 218 255
193 218 255
193 218 255
193 218 255
193 218 255
193 218 255
193 218 255
193 218 255
193 218 255
193 218 255
193 218 255
193 218 255
193 218 255
193 218 255
193 218 255
193 218 255
193 218 255
193 218 255
193 218 255
193 218 255
193 218 255
193 218 255
193 218 255
193 218 255
193 218 255
193 218 255
193 218 255
193 218 255
193 218 255
193 218 255
194 218 255
194 218 255
194 218 255
194 218 255
194 218 255
194 218 255
194 218 255
194 218 255
194 218 255
194 218 255
194 218 255
194 218 255
194 218 255
194 218 255
194 218 255
194 218 255
194 218 255
194 218 255
194 218 255
194 218 255
194 218 255
194 218 255
194 218 255
194 218 255
194 218 255
194 218 255
194 218 255
194 218 255
194 218 255
194 218 255
194 218 255
194 218 255
194 218 255
194 218 255
194 218 255
194 219 255
194 219 255
194 218 255
194 219 255
194 219 255
194 219 255
194 219 255
194 219 255
194 219 255
194 219 255
194 219 255
194 219 255
194 219 255
194 219 255
194 219 255
194 219 255
194 219 255
194 219 255
194 219 255
194 219 255
194 219 255
194 219 255
194 219 255
194 219 255
194 219 255
194 219 255
194 219 255
194 219 255
194 219 255
194 219 255
194 219 255
194 219 255
194 219 255
194 219 255
194 219 255
194 219 255
194 219 255
194 219 255
194 219 255
194 219 255
194 219 255
194 219 255
194 219 255
194 219 255
194 219 255
194 219 255
194 219 255
194 219 255
194 219 255
194 219 255
194 219 255
194 219 255
194 219 255
194 219 255
194 219 255
194 219 255
87 99 117
12 14 19
13 16 20
12 15 19
15 18 23
11 14 18
11 13 18
13 16 21
12 15 20
13 16 20
11 14 18
14 18 23
12 15 19
15 19 24
12 14 18
14 17 22
13 16 20
12 15 19
11 14 18
11 14 18
13 16 21
11 14 18
12 15 19
12 15 20
10 13 17
9 11 14
11 14 18
13 16 21
8 10 13
12 15 19
12 15 19
11 13 17
10 13 16
11 13 17
12 15 19
10 13 17
12 14 19
10 12 15
12 15 19
12 14 18
13 16 21
12 15 19
13 16 21
11 14 18
12 15 20
14 17 22
12 15 20
12 15 19
10 13 16
12 14 18
12 15 18
10 13 17
12 15 20
14 18 23
11 14 18
10 12 16
11 13 17
12 15 19
8 11 14
12 15 19
12 15 20
8 10 13
13 16 21
10 12 16
11 14 18
11 13 17
11 14 18
14 17 22
11 14 18
10 13 16
11 13 17
11 13 17
14 17 22
13 16 21
9 11 14
12 15 19
9 11 14
9 11 14
9 11 15
13 16 20
14 16 21
10 13 17
11 13 17
12 15 19
13 15 20
13 16 20
12 15 20
12 15 19
11 14 17
14 17 22
14 17 21
13 16 20
13 16 20
12 16 20
11 13 17
12 14 18
8 10 13
11 13 17
12 15 19
9 12 15
13 16 20
9 11 14
13 17 22
9 11 15
9 12 15
13 16 21
15 18 24
14 17 21
11 14 18
10 13 16
14 17 22
10 12 16
13 16 21
13 16 21
11 13 16
14 17 22
14 16 21
14 17 22
13 16 21
11 14 18
15 18 23
12 15 19
12 15 20
11 14 18
10 12 16
15 18 23
11 14 18
13 16 20
8 10 12
69 79 93
194 219 255
194 219 255
194 219 255
194 219 255
194 219 255
194 219 255
194 219 255
194 219 255
194 219 255
194 219 255
194 219 255
194 219 255
194 219 255
194 219 255
194 219 255
194 219 255
194 219 255
194 219 255
194 219 255
194 219 255
194 219 255
194 219 255
194 219 255
194 219 255
194 219 255
194 219 255
194 219 255
194 219 255
194 219 255
194 219 255
194 219 255
194 219 255
194 219 255
194 219 255
194 219 255
194 219 255
194 219 255
194 219 255
194 219 255
194 219 255
194 219 255
194 219 255
194 219 255
194 219 255
194 219 255
194 219 255
194 219 255
194 219 255
194 219 255
194 219 255
194 219 255
194 219 255
194 219 255
194 219 255
194 219 255
194 218 255
194 219 255
194 218 255
194 218 255
194 218 255
194 218 255
194 218 255
194 218 255
194 218 255
194 218 255
194 218 255
194 218 255
194 218 255
194 218 255
194 218 255
194 218 255
194 218 255
194 218 255
194 218 255
194 218 255
194 218 255
194 218 255
194 218 255
194 218 255
194 218 255
194 218 255
194 218 255
194 218 255
194 218 255
194 218 255
194 218 255
194 218 255
194 218 255
194 218 255
194 218 255
193 218 255
194 218 255
193 218 255
193 218 255
193 218 255
193 218 255
193 218 255
193 218 255
193 218 255
193 218 255
193 218 255
193 218 255
193 218 255
193 218 255
193 218 255
193 218 255
193 218 255
193 218 255
193 218 255
193 218 255
193 218 255
193 218 255
193 218 255
193 218 255
193 218 255
193 218 255
193 218 255
193 218 255
193 218 255
193 218 255
193 218 255
193 218 255
193 218 255
193 218 255
193 218 255
193 218 255
193 218 255
193 218 255
193 218 255
193 218 255
193 218 255
193 218 255
193 218 255
193 218 255
193 218 255
193 218 255
193 218 255
193 218 255
193 218 255
193 218 255
193 218 255
194 218 255
194 218 255
194 218 255
194 218 255
194 218 255
194 218 255
194 218 255
194 218 255
194 218 255
194 218 255
194 218 255
194 218 255
194 218 255
194 218 255
194 218 255
194 218 255
194 218 255
194 218 255
194 218 255
194 218 255
194 218 255
194 218 255
194 218 255
194 218 255
194 218 255
194 218 255
194 218 255
194 218 255
194 218 255
194 218 255
194 218 255
194 218 255
194 218 255
194 218 255
194 218 255
194 218 255
194 218 255
194 218 255
194 218 255
194 218 255
194 219 255
194 219 255
194 219 255
194 219 255
194 219 255
194 219 255
194 219 255
194 219 255
194 219 255
194 219 255
194 219 255
194 219 255
194 219 255
194 219 255
194 219 255
194 219 255
194 219 255
194 219 255
194 219 255
194 219 255
194 219 255
194 219 255
194 219 255
194 219 255
194 219 255
194 219 255
194 219 255
194 219 255
194 219 255
194 219 255
194 219 255
194 219 255
194 219 255
194 219 255
194 219 255
194 219 255
194 219 255
194 219 255
194 219 255
194 219 255
194 219 255
194 219 255
194 219 255
194 219 255
194 219 255
194 219 255
194 219 255
194 219 255
194 219 255
194 219 255
194 219 255
194 219 255
194 219 255
194 219 255
194 219 255
195 219 255
194 219 255
195 219 255
195 219 255
195 219 255
195 219 255
195 219 255
195 219 255
195 219 255
195 219 255
195 219 255
195 219 255
195 219 255
195 219 255
195 219 255
195 219 255
195 219 255
195 219 255
195 219 255
195 219 255
195 219 255
195 219 255
195 219 255
195 219 255
195 219 255
195 219 255
195 219 255
195 219 255
195 219 255
195 219 255
195 219 255
195 219 255
195 219 255
195 219 255
94 107 126
14 17 23
11 13 17
14 17 21
12 15 19
14 18 23
13 16 20
12 15 20
11 13 17
11 14 18
10 12 16
13 17 21
12 14 18
11 14 17
14 17 21
14 17 22
11 14 18
11 14 17
9 12 15
14 17 22
12 14 18
11 14 18
13 16 20
12 15 19
12 15 19
12 15 19
14 17 22
14 17 22
11 14 18
10 12 15
13 16 21
13 16 20
13 16 20
10 12 16
11 14 18
9 11 14
13 16 21
11 13 17
12 15 19
11 13 17
10 12 16
12 14 18
12 15 19
11 14 18
11 14 18
11 13 17
10 12 16
11 14 18
11 13 17
12 15 20
12 15 19
11 13 17
10 12 16
12 15 20
10 12 15
10 13 16
11 14 18
11 14 18
14 17 22
14 17 21
8 10 14
11 13 17
13 15 19
11 14 18
11 14 17
11 13 17
10 12 16
11 14 18
12 15 19
13 16 21
11 14 17
11 13 16
10 13 16
11 13 17
11 14 17
13 16 21
8 10 13
10 12 16
10 12 16
8 10 13
14 17 22
13 17 22
14 17 22
14 17 22
10 12 16
12 14 19
12 14 18
12 15 19
14 17 22
11 14 17
10 12 16
12 15 19
11 14 18
12 15 20
12 15 20
14 17 22
13 16 21
13 16 21
10 12 15
14 17 22
11 14 17
14 17 21
11 13 16
14 17 22
12 15 19
12 14 18
11 13 17
13 16 20
9 11 14
12 15 19
11 14 18
12 15 20
13 16 21
12 15 20
11 14 17
13 16 20
12 15 18
14 17 22
14 17 22
13 16 20
12 14 18
10 13 17
14 17 22
15 19 24
14 18 23
13 15 20
12 15 19
12 14 18
14 17 22
82 93 109
195 219 255
195 219 255
195 219 255
195 219 255
195 219 255
195 219 255
195 219 255
195 219 255
195 219 255
195 219 255
195 219 255
195 219 255
195 219 255
195 219 255
195 219 255
195 219 255
195 219 255
195 219 255
195 219 255
195 219 255
195 219 255
195 219 255
195 219 255
195 219 255
195 219 255
195 219 255
195 219 255
195 219 255
195 219 255
195 219 255
195 219 255
195 219 255
194 219 255
195 219 255
194 219 255
194 219 255
194 219 255
194 219 255
194 219 255
194 219 255
194 219 255
194 219 255
194 219 255
194 219 255
194 219 255
194 219 255
194 219 255
194 219 255
194 219 255
194 219 255
194 219 255
194 219 255
194 219 255
194 219 255
194 219 255
194 219 255
194 219 255
194 219 255
194 219 255
194 219 255
194 219 255
194 219 255
194 219 255
194 219 255
194 219 255
194 219 255
194 219 255
194 219 255
194 219 255
194 219 255
194 219 255
194 219 255
194 219 255
194 219 255
194 219 255
194 219 255
194 219 255
194 219 255
194 219 255
194 219 255
194 219 255
194 219 255
194 219 255
194 219 255
194 219 255
194 219 255
194 219 255
194 219 255
194 219 255
194 219 255
194 219 255
194 218 255
194 218 255
194 218 255
194 218 255
194 218 255
194 218 255
194 218 255
194 218 255
194 218 255
194 218 255
194 218 255
194 218 255
194 218 255
194 218 255
194 218 255
194 218 255
194 218 255
194 218 255
194 218 255
194 218 255
194 218 255
194 218 255
194 218 255
194 218 255
194 218 255
194 218 255
194 218 255
194 218 255
194 218 255
194 218 255
194 218 255
194 218 255
194 218 255
194 218 255
194 218 255
194 218 255
194 218 255
194 218 255
193 218 255
193 218 255
193 218 255
193 218 255
193 218 255
193 218 255
194 218 255
194 218 255
194 218 255
194 218 255
194 218 255
194 218 255
194 218 255
194 218 255
194 218 255
194 218 255
194 218 255
194 218 255
194 218 255
194 219 255
194 219 255
194 219 255
194 219 255
194 219 255
194 219 255
194 219 255
194 219 255
194 219 255
194 219 255
194 219 255
194 219 255
194 219 255
194 219 255
194 219 255
194 219 255
194 219 255
194 219 255
194 219 255
194 219 255
194 219 255
194 219 255
194 219 255
194 219 255
194 219 255
194 219 255
194 219 255
194 219 255
194 219 255
194 219 255
194 219 255
194 219 255
194 219 255
194 219 255
194 219 255
194 219 255
194 219 255
194 219 255
194 219 255
194 219 255
194 219 255
194 219 255
194 219 255
194 219 255
194 219 255
194 219 255
194 219 255
194 219 255
194 219 255
194 219 255
194 219 255
194 219 255
194 219 255
194 219 255
194 219 255
194 219 255
194 219 255
194 219 255
194 219 255
195 219 255
195 219 255
195 219 255
195 219 255
195 219 255
195 219 255
195 219 255
195 219 255
195 219 255
195 219 255
195 219 255
195 219 255
195 219 255
195 219 255
195 219 255
195 219 255
195 219 255
195 219 255
195 219 255
195 219 255
195 219 255
195 219 255
195 219 255
195 219 255
195 219 255
195 219 255
195 219 255
195 219 255
195 219 255
195 219 255
195 219 255
195 219 255
195 219 255
195 219 255
195 219 255
195 219 255
195 219 255
195 219 255
195 219 255
195 219 255
195 219 255
195 219 255
195 219 255
195 219 255
195 219 255
195 219 255
195 219 255
195 219 255
195 219 255
195 219 255
195 219 255
195 219 255
195 219 255
195 219 255
195 219 255
195 219 255
195 219 255
195 219 255
195 219 255
195 219 255
195 219 255
195 219 255
195 219 255
115 129 152
10 12 16
13 17 22
13 16 21
11 14 18
11 14 18
13 16 20
12 15 19
12 14 18
10 12 16
14 17 22
10 12 16
11 14 18
13 15 20
9 11 15
12 15 19
12 15 19
9 12 15
12 15 19
13 16 20
15 18 23
12 14 19
10 12 15
13 16 21
9 11 15
9 11 14
14 17 21
13 16 21
12 15 20
13 16 21
13 17 21
12 15 19
14 17 22
12 15 19
12 15 19
13 16 21
11 13 17
12 14 18
8 10 13
9 11 14
11 14 18
9 12 15
12 15 19
10 13 16
12 15 20
12 14 18
10 12 16
10 12 15
14 17 22
10 13 16
11 13 16
13 16 21
12 15 19
12 14 19
11 14 18
13 16 21
11 13 17
12 15 20
8 10 13
9 12 15
12 15 19
10 12 16
10 13 16
10 12 15
11 13 17
13 16 21
12 15 19
12 14 18
12 15 19
12 15 20
12 15 19
13 16 21
11 13 17
8 10 13
8 10 13
10 13 16
10 13 17
10 12 16
13 16 20
11 14 18
10 13 17
11 13 17
12 14 18
10 13 17
11 13 17
12 14 18
11 14 17
11 14 18
11 14 18
12 14 18
10 13 17
12 15 19
12 15 20
9 11 14
11 13 17
10 12 16
11 13 17
10 12 16
12 15 19
11 13 17
12 15 19
10 13 17
10 12 16
12 15 20
10 12 15
13 16 21
9 11 15
14 18 23
13 16 20
12 15 19
12 15 19
13 16 21
12 15 19
11 14 17
14 17 22
10 12 15
14 18 23
15 19 24
14 17 21
13 16 20
12 15 19
11 13 17
12 15 20
15 19 24
12 14 18
11 14 19
14 18 23
10 12 16
13 16 20
102 115 134
195 219 255
195 219 255
195 219 255
195 219 255
195 219 255
195 219 255
195 219 255
195 219 255
195 219 255
195 219 255
195 219 255
195 219 255
195 219 255
195 219 255
195 219 255
195 219 255
195 219 255
195 219 255
195 219 255
195 219 255
195 219 255
195 219 255
195 219 255
195 219 255
195 219 255
195 219 255
195 219 255
195 219 255
195 219 255
195 219 255
195 219 255
195 219 255
195 219 255
195 219 255
195 219 255
195 219 255
195 219 255
195 219 255
195 219 255
195 219 255
195 219 255
195 219 255
195 219 255
195 219 255
195 219 255
195 219 255
195 219 255
195 219 255
195 219 255
195 219 255
195 219 255
195 219 255
195 219 255
195 219 255
195 219 255
195 219 255
195 219 255
195 219 255
195 219 255
195 219 255
195 219 255
195 219 255
194 219 255
194 219 255
194 219 255
194 219 255
194 219 255
194 219 255
194 219 255
194 219 255
194 219 255
194 219 255
194 219 255
194 219 255
194 219 255
194 219 255
194 219 255
194 219 255
194 219 255
194 219 255
194 219 255
194 219 255
194 219 255
194 219 255
194 219 255
194 219 255
194 219 255
194 219 255
194 219 255
194 219 255
194 219 255
194 219 255
194 219 255
194 219 255
194 219 255
194 219 255
194 219 255
194 219 255
194 219 255
194 219 255
194 219 255
194 219 255
194 219 255
194 219 255
194 219 255
194 219 255
194 219 255
194 219 255
194 219 255
194 219 255
194 219 255
194 219 255
194 219 255
194 219 255
194 219 255
194 219 255
194 219 255
194 219 255
194 219 255
194 219 255
194 219 255
194 219 255
194 218 255
194 219 255
194 218 255
194 218 255
194 218 255
194 218 255
194 218 255
194 218 255
194 218 255
194 218 255
194 218 255
194 218 255
194 218 255
194 219 255
194 219 255
194 219 255
194 219 255
194 219 255
194 219 255
194 219 255
194 219 255
194 219 255
194 219 255
194 219 255
194 219 255
194 219 255
194 219 255
194 219 255
194 219 255
194 219 255
194 219 255
194 219 255
194 219 255
194 219 255
194 219 255
194 219 255
194 219 255
194 219 255
194 219 255
194 219 255
194 219 255
194 219 255
194 219 255
194 219 255
194 219 255
194 219 255
194 219 255
194 219 255
194 219 255
194 219 255
194 219 255
194 219 255
194 219 255
194 219 255
194 219 255
194 219 255
194 219 255
195 219 255
195 219 255
195 219 255
195 219 255
195 219 255
195 219 255
195 219 255
195 219 255
195 219 255
195 219 255
195 219 255
195 219 255
195 219 255
195 219 255
195 219 255
195 219 255
195 219 255
195 219 255
195 219 255
195 219 255
195 219 255
195 219 255
195 219 255
195 219 255
195 219 255
195 219 255
195 219 255
195 219 255
195 219 255
195 219 255
195 219 255
195 219 255
195 219 255
195 219 255
195 219 255
195 219 255
195 219 255
195 219 255
195 219 255
195 219 255
195 219 255
195 219 255
195 219 255
195 219 255
195 219 255
195 219 255
195 219 255
195 219 255
195 219 255
195 219 255
195 219 255
195 219 255
195 219 255
195 219 255
195 219 255
195 219 255
195 219 255
195 219 255
195 219 255
195 219 255
195 219 255
195 219 255
195 219 255
195 219 255
195 219 255
195 219 255
195 219 255
196 220 255
196 220 255
196 220 255
196 220 255
196 220 255
196 220 255
196 220 255
196 220 255
196 220 255
196 220 255
196 220 255
196 220 255
196 220 255
196 220 255
196 220 255
196 220 255
196 220 255
196 220 255
196 220 255
196 220 255
196 220 255
196 220 255
196 220 255
196 220 255
134 151 176
11 14 18
13 17 22
11 14 17
12 15 19
12 15 19
15 18 23
10 12 16
13 16 21
12 14 18
13 16 20
12 15 19
12 14 18
10 13 17
13 16 20
8 9 12
13 16 21
11 13 17
13 16 20
13 16 21
12 15 19
11 13 16
10 13 16
11 13 18
12 14 18
14 17 22
10 13 16
11 14 18
11 14 18
13 16 20
10 12 15
10 12 16
10 13 17
11 13 17
9 12 15
14 17 22
10 13 16
12 15 20
11 13 18
11 13 17
10 12 16
12 15 19
15 18 23
10 12 16
11 14 18
9 11 14
9 11 15
10 13 16
10 12 15
12 15 19
13 16 20
11 13 17
11 13 17
12 15 20
12 15 19
13 16 21
12 15 19
11 14 18
11 14 18
8 10 13
11 13 17
11 14 18
12 16 20
13 17 21
12 14 18
11 13 17
8 11 14
12 15 19
8 10 13
8 10 13
11 14 18
13 16 20
12 15 19
12 14 18
12 14 19
11 13 17
11 14 17
13 16 20
9 11 15
13 16 21
10 12 15
9 11 14
10 12 15
10 12 15
8 10 13
14 17 21
12 15 20
13 16 21
13 16 20
10 12 16
10 12 16
11 14 18
11 13 17
11 14 18
11 14 17
10 13 17
9 11 15
8 10 13
14 17 21
12 15 19
10 13 17
12 15 19
12 14 18
12 15 19
10 12 16
11 14 18
10 12 15
12 15 19
12 15 19
12 15 20
10 13 16
13 16 21
15 19 24
13 16 21
9 12 15
13 16 20
11 14 18
12 15 19
10 12 16
14 17 22
11 13 17
10 13 16
11 14 18
14 17 22
14 17 22
10 12 15
12 15 19
14 17 21
10 13 16
144 161 188
196 220 255
196 220 255
196 220 255
196 220 255
196 220 255
196 220 255
196 220 255
196 220 255
196 220 255
196 220 255
196 220 255
196 220 255
196 220 255
196 220 255
196 220 255
196 220 255
196 220 255
196 220 255
196 220 255
196 220 255
196 220 255
196 220 255
196 220 255
196 220 255
196 220 255
195 219 255
195 219 255
195 219 255
195 219 255
195 219 255
195 219 255
195 219 255
195 219 255
195 219 255
195 219 255
195 219 255
195 219 255
195 219 255
195 219 255
195 219 255
195 219 255
195 219 255
195 219 255
195 219 255
195 219 255
195 219 255
195 219 255
195 219 255
195 219 255
195 219 255
195 219 255
195 219 255
195 219 255
195 219 255
195 219 255
195 219 255
195 219 255
195 219 255
195 219 255
195 219 255
195 219 255
195 219 255
195 219 255
195 219 255
195 219 255
195 219 255
195 219 255
195 219 255
195 219 255
195 219 255
195 219 255
195 219 255
195 219 255
195 219 255
195 219 255
195 219 255
195 219 255
195 219 255
195 219 255
195 219 255
195 219 255
195 219 255
195 219 255
195 219 255
195 219 255
195 219 255
195 219 255
195 219 255
195 219 255
194 219 255
194 219 255
194 219 255
194 219 255
194 219 255
194 219 255
194 219 255
194 219 255
194 219 255
194 219 255
194 219 255
194 219 255
194 219 255
194 219 255
194 219 255
194 219 255
194 219 255
194 219 255
194 219 255
194 219 255
194 219 255
194 219 255
194 219 255
194 219 255
194 219 255
194 219 255
194 219 255
194 219 255
194 219 255
194 219 255
194 219 255
194 219 255
194 219 255
194 219 255
194 219 255
194 219 255
194 219 255
194 219 255
194 219 255
194 219 255
194 219 255
194 219 255
194 219 255
194 219 255
194 219 255
194 219 255
194 219 255
194 219 255
194 219 255
194 219 255
194 219 255
194 219 255
194 219 255
194 219 255
194 219 255
194 219 255
194 219 255
194 219 255
194 219 255
194 219 255
194 219 255
194 219 255
194 219 255
194 219 255
195 219 255
195 219 255
195 219 255
195 219 255
195 219 255
195 219 255
195 219 255
195 219 255
195 219 255
195 219 255
195 219 255
195 219 255
195 219 255
195 219 255
195 219 255
195 219 255
195 219 255
195 219 255
195 219 255
195 219 255
195 219 255
195 219 255
195 219 255
195 219 255
195 219 255
195 219 255
195 219 255
195 219 255
195 219 255
195 219 255
195 219 255
195 219 255
195 219 255
195 219 255
195 219 255
195 219 255
195 219 255
195 219 255
195 219 255
195 219 255
195 219 255
195 219 255
195 219 255
195 219 255
195 219 255
195 219 255
195 219 255
195 219 255
195 219 255
195 219 255
195 219 255
195 219 255
195 219 255
195 219 255
195 219 255
195 219 255
195 219 255
195 219 255
195 219 255
195 219 255
195 219 255
195 219 255
195 219 255
195 219 255
195 219 255
195 219 255
195 219 255
195 219 255
196 220 255
196 220 255
196 220 255
196 220 255
196 220 255
196 220 255
196 220 255
196 220 255
196 220 255
196 220 255
196 220 255
196 220 255
196 220 255
196 220 255
196 220 255
196 220 255
196 220 255
196 220 255
196 220 255
196 220 255
196 220 255
196 220 255
196 220 255
196 220 255
196 220 255
196 220 255
196 220 255
196 220 255
196 220 255
196 220 255
196 220 255
196 220 255
196 220 255
196 220 255
196 220 255
196 220 255
196 220 255
196 220 255
196 220 255
196 220 255
196 220 255
196 220 255
196 220 255
196 220 255
196 220 255
196 220 255
196 220 255
196 220 255
196 220 255
162 181 211
12 15 19
12 15 20
14 17 21
11 14 18
10 12 16
12 15 20
11 14 18
14 18 23
11 14 18
13 15 20
17 20 26
11 14 18
13 16 20
13 16 21
15 19 24
11 14 18
11 14 18
14 17 22
14 17 22
10 12 16
10 12 16
13 16 20
11 14 18
10 12 15
14 18 22
10 12 15
11 14 18
10 12 16
10 13 16
12 15 19
12 15 19
9 11 14
11 14 17
12 15 18
12 14 18
12 14 19
12 15 19
12 14 18
14 17 22
10 12 16
13 16 20
13 16 21
11 14 18
10 12 16
11 13 17
8 10 13
11 14 17
12 14 19
9 11 15
11 14 17
10 13 16
10 12 15
12 15 19
10 12 16
12 15 19
12 15 19
12 14 18
11 14 18
11 13 17
11 13 17
12 15 19
13 16 20
12 14 18
13 16 20
10 13 16
9 11 14
13 15 19
12 14 18
11 14 18
9 11 14
13 16 21
12 14 18
12 14 18
8 10 14
11 14 18
13 15 20
13 16 20
11 14 18
12 14 18
13 16 20
9 11 14
12 15 20
10 12 16
11 14 18
11 14 18
14 18 23
13 15 20
11 14 18
13 16 20
10 13 16
12 15 19
11 14 18
9 10 13
11 13 17
11 14 18
12 15 19
12 15 19
12 15 18
11 14 17
13 16 21
10 13 16
11 14 18
13 16 20
11 13 17
10 13 16
11 14 18
12 15 19
10 12 15
14 18 22
11 14 18
10 12 16
12 14 18
13 16 20
10 13 17
11 14 18
12 14 19
11 13 17
14 17 21
13 17 21
12 15 19
13 16 21
11 14 18
13 16 21
14 17 22
12 15 19
11 14 18
11 14 18
12 15 20
163 182 212
196 220 255
196 220 255
196 220 255
196 220 255
196 220 255
196 220 255
196 220 255
196 220 255
196 220 255
196 220 255
196 220 255
196 220 255
196 220 255
196 220 255
196 220 255
196 220 255
196 220 255
196 220 255
196 220 255
196 220 255
196 220 255
196 220 255
196 220 255
196 220 255
196 220 255
196 220 255
196 220 255
196 220 255
196 220 255
196 220 255
196 220 255
196 220 255
196 220 255
196 220 255
196 220 255
196 220 255
196 220 255
196 220 255
196 220 255
196 220 255
196 220 255
196 220 255
196 220 255
196 220 255
196 220 255
196 220 255
196 220 255
196 220 255
195 219 255
195 219 255
195 219 255
195 219 255
195 219 255
195 219 255
195 219 255
195 219 255
195 219 255
195 219 255
195 219 255
195 219 255
195 219 255
195 219 255
195 219 255
195 219 255
195 219 255
195 219 255
195 219 255
195 219 255
195 219 255
195 219 255
195 219 255
195 219 255
195 219 255
195 219 255
195 219 255
195 219 255
195 219 255
195 219 255
195 219 255
195 219 255
195 219 255
195 219 255
195 219 255
195 219 255
195 219 255
195 219 255
195 219 255
195 219 255
195 219 255
195 219 255
195 219 255
195 219 255
195 219 255
195 219 255
195 219 255
195 219 255
195 219 255
195 219 255
195 219 255
195 219 255
195 219 255
195 219 255
195 219 255
195 219 255
195 219 255
195 219 255
195 219 255
195 219 255
195 219 255
195 219 255
195 219 255
195 219 255
195 219 255
195 219 255
195 219 255
195 219 255
194 219 255
194 219 255
194 219 255
194 219 255
194 219 255
194 219 255
194 219 255
194 219 255
194 219 255
194 219 255
194 219 255
194 219 255
194 219 255
194 219 255
194 219 255
194 219 255
194 219 255
194 219 255
194 219 255
195 219 255
195 219 255
195 219 255
195 219 255
195 219 255
195 219 255
195 219 255
195 219 255
195 219 255
195 219 255
195 219 255
195 219 255
195 219 255
195 219 255
195 219 255
195 219 255
195 219 255
195 219 255
195 219 255
195 219 255
195 219 255
195 219 255
195 219 255
195 219 255
195 219 255
195 219 255
195 219 255
195 219 255
195 219 255
195 219 255
195 219 255
195 219 255
195 219 255
195 219 255
195 219 255
195 219 255
195 219 255
195 219 255
195 219 255
195 219 255
195 219 255
195 219 255
195 219 255
195 219 255
195 219 255
195 219 255
195 219 255
195 219 255
195 219 255
195 219 255
195 219 255
195 219 255
195 219 255
195 219 255
195 219 255
195 219 255
195 219 255
195 219 255
195 219 255
195 219 255
195 219 255
195 219 255
195 219 255
195 219 255
195 219 255
196 220 255
196 220 255
196 220 255
196 220 255
196 220 255
196 220 255
196 220 255
196 220 255
196 220 255
196 220 255
196 220 255
196 220 255
196 220 255
196 220 255
196 220 255
196 220 255
196 220 255
196 220 255
196 220 255
196 220 255
196 220 255
196 220 255
196 220 255
196 220 255
196 220 255
196 220 255
196 220 255
196 220 255
196 220 255
196 220 255
196 220 255
196 220 255
196 220 255
196 220 255
196 220 255
196 220 255
196 220 255
196 220 255
196 220 255
196 220 255
196 220 255
196 220 255
196 220 255
196 220 255
196 220 255
196 220 255
196 220 255
196 220 255
196 220 255
196 220 255
196 220 255
197 220 255
197 220 255
197 220 255
197 220 255
197 220 255
197 220 255
197 220 255
197 220 255
197 220 255
197 220 255
197 220 255
197 220 255
197 220 255
197 220 255
197 220 255
197 220 255
197 220 255
197 220 255
197 220 255
193 216 250
20 23 29
12 15 19
11 13 17
14 17 22
14 17 22
12 15 18
12 15 20
12 14 19
13 16 20
10 12 15
14 17 21
12 15 19
9 11 14
15 18 23
13 15 20
14 17 22
11 13 17
14 17 22
13 15 19
14 17 22
12 14 18
9 12 15
12 15 19
13 16 20
13 15 20
11 14 17
12 15 19
11 14 18
12 15 19
12 15 19
10 12 16
13 16 21
13 16 20
9 11 14
12 15 19
7 9 12
10 12 16
11 14 18
11 14 18
12 15 19
11 13 17
7 9 12
12 15 20
9 11 14
11 14 18
10 12 16
12 14 18
10 13 17
12 15 19
10 12 15
11 14 18
12 14 18
8 10 13
10 13 16
10 12 16
11 13 17
12 15 19
11 13 16
9 11 14
12 14 18
10 12 16
10 13 17
9 11 14
11 14 18
11 14 18
10 12 16
10 12 16
9 12 15
10 12 15
12 14 18
10 12 16
13 16 21
11 14 18
9 11 15
13 16 21
12 14 18
10 12 16
14 17 22
8 10 14
12 15 19
13 17 21
9 11 14
9 11 15
12 15 19
11 13 17
10 13 17
12 15 19
10 12 15
12 15 18
10 13 16
14 17 21
12 15 20
10 12 16
9 11 14
11 13 18
10 12 16
13 15 19
12 15 19
10 12 15
11 14 17
12 14 18
12 15 19
13 17 22
11 14 17
11 14 17
12 14 19
11 13 17
11 13 17
11 13 17
10 12 16
11 13 18
11 13 17
13 16 21
10 13 16
11 14 18
14 17 21
12 15 19
10 12 16
13 17 21
11 14 17
12 15 20
15 18 24
14 18 23
12 15 19
14 18 22
9 11 15
13 15 20
15 18 22
191 214 248
197 220 255
197 220 255
197 220 255
197 220 255
197 220 255
197 220 255
197 220 255
197 220 255
197 220 255
197 220 255
197 220 255
197 220 255
197 220 255
197 220 255
197 220 255
197 220 255
197 220 255
197 220 255
197 220 255
197 220 255
196 220 255
196 220 255
196 220 255
196 220 255
196 220 255
196 220 255
196 220 255
196 220 255
196 220 255
196 220 255
196 220 255
196 220 255
196 220 255
196 220 255
196 220 255
196 220 255
196 220 255
196 220 255
196 220 255
196 220 255
196 220 255
196 220 255
196 220 255
196 220 255
196 220 255
196 220 255
196 220 255
196 220 255
196 220 255
196 220 255
196 220 255
196 220 255
196 220 255
196 220 255
196 220 255
196 220 255
196 220 255
196 220 255
196 220 255
196 220 255
196 220 255
196 220 255
196 220 255
196 220 255
196 220 255
196 220 255
196 220 255
196 220 255
196 220 255
195 219 255
196 219 255
195 219 255
195 219 255
195 219 255
195 219 255
195 219 255
195 219 255
195 219 255
195 219 255
195 219 255
195 219 255
195 219 255
195 219 255
195 219 255
195 219 255
195 219 255
195 219 255
195 219 255
195 219 255
195 219 255
195 219 255
195 219 255
195 219 255
195 219 255
195 219 255
195 219 255
195 219 255
195 219 255
195 219 255
195 219 255
195 219 255
195 219 255
195 219 255
195 219 255
195 219 255
195 219 255
195 219 255
195 219 255
195 219 255
195 219 255
195 219 255
195 219 255
195 219 255
195 219 255
195 219 255
195 219 255
195 219 255
195 219 255
195 219 255
195 219 255
195 219 255
195 219 255
195 219 255
195 219 255
195 219 255
195 219 255
195 219 255
195 219 255
195 219 255
195 219 255
195 219 255
195 219 255
195 219 255
195 219 255
195 219 255
195 219 255
195 219 255
195 219 255
195 219 255
195 219 255
195 219 255
195 219 255
195 219 255
195 219 255
195 219 255
195 219 255
195 219 255
195 219 255
195 219 255
195 219 255
195 219 255
195 219 255
195 219 255
195 219 255
195 219 255
195 219 255
195 219 255
195 219 255
195 219 255
195 219 255
195 219 255
195 219 255
195 219 255
195 219 255
195 219 255
195 219 255
195 219 255
195 219 255
195 219 255
195 219 255
195 219 255
195 219 255
195 219 255
195 219 255
195 219 255
195 219 255
195 219 255
195 219 255
195 219 255
195 219 255
196 220 255
196 220 255
196 220 255
196 220 255
196 220 255
196 220 255
196 220 255
196 220 255
196 220 255
196 220 255
196 220 255
196 220 255
196 220 255
196 220 255
196 220 255
196 220 255
196 220 255
196 220 255
196 220 255
196 220 255
196 220 255
196 220 255
196 220 255
196 220 255
196 220 255
196 220 255
196 220 255
196 220 255
196 220 255
196 220 255
196 220 255
196 220 255
196 220 255
196 220 255
196 220 255
196 220 255
196 220 255
196 220 255
196 220 255
196 220 255
196 220 255
196 220 255
196 220 255
196 220 255
196 220 255
196 220 255
196 220 255
196 220 255
196 220 255
196 220 255
196 220 255
196 220 255
197 220 255
197 220 255
197 220 255
197 220 255
197 220 255
197 220 255
197 220 255
197 220 255
197 220 255
197 220 255
197 220 255
197 220 255
197 220 255
197 220 255
197 220 255
197 220 255
197 220 255
197 220 255
197 220 255
197 220 255
197 220 255
197 220 255
197 220 255
197 220 255
197 220 255
197 220 255
197 220 255
195 219 253
189 211 245
189 211 245
166 186 216
155 175 203
162 182 211
126 143 167
150 168 196
116 131 154
115 130 153
98 112 132
96 109 129
25 29 36
11 14 18
12 15 19
12 15 19
12 15 19
12 15 19
11 14 17
12 15 19
11 13 17
12 14 18
9 11 14
12 14 18
11 14 18
13 17 21
12 15 19
10 12 16
14 17 22
15 19 24
10 13 16
13 15 20
12 15 19
12 15 19
11 14 18
11 13 17
9 11 15
11 14 18
10 12 15
11 13 17
11 13 16
10 13 17
12 15 19
13 16 20
12 14 19
10 13 17
12 15 19
11 14 17
13 16 21
11 14 18
11 14 18
11 13 17
14 17 22
12 14 18
10 13 17
9 12 15
13 17 22
11 13 17
11 14 17
10 12 15
10 12 15
9 11 14
10 12 15
11 14 18
9 11 14
8 10 13
8 10 13
9 11 15
12 14 19
11 13 17
8 9 12
12 15 20
13 16 20
11 13 17
10 12 16
11 13 17
13 16 20
12 15 20
11 14 19
10 12 16
11 13 17
13 16 20
11 14 19
9 11 15
12 14 18
10 12 16
10 12 16
12 15 19
11 14 18
9 12 15
11 13 17
11 14 18
12 14 18
13 16 20
12 15 20
8 10 12
12 15 20
10 12 16
9 11 15
11 14 17
10 12 16
11 14 19
11 13 17
10 13 18
9 11 14
13 16 21
9 11 14
11 14 17
11 13 17
12 14 18
11 14 18
11 14 19
13 16 20
14 18 23
11 13 17
14 17 22
15 18 23
12 14 19
12 15 19
14 17 22
10 13 17
9 11 15
11 13 17
12 15 19
10 12 16
11 14 18
13 16 20
13 16 21
11 13 17
13 16 20
9 11 15
10 13 16
12 14 18
10 12 15
12 15 19
8 9 12
9 12 15
11 13 17
13 16 20
22 26 32
92 104 123
109 123 145
116 131 155
129 146 171
126 143 167
134 151 177
158 177 206
158 178 207
167 187 218
184 206 239
185 207 241
197 220 255
197 220 255
197 220 255
197 220 255
197 220 255
197 220 255
197 220 255
197 220 255
197 220 255
197 220 255
197 220 255
197 220 255
197 220 255
197 220 255
197 220 255
197 220 255
197 220 255
197 220 255
197 220 255
197 220 255
197 220 255
197 220 255
197 220 255
197 220 255
197 220 255
197 220 255
197 220 255
197 220 255
197 220 255
196 220 255
196 220 255
196 220 255
196 220 255
196 220 255
196 220 255
196 220 255
196 220 255
196 220 255
196 220 255
196 220 255
196 220 255
196 220 255
196 220 255
196 220 255
196 220 255
196 220 255
196 220 255
196 220 255
196 220 255
196 220 255
196 220 255
196 220 255
196 220 255
196 220 255
196 220 255
196 220 255
196 220 255
196 220 255
196 220 255
196 220 255
196 220 255
196 220 255
196 220 255
196 220 255
196 220 255
196 220 255
196 220 255
196 220 255
196 220 255
196 220 255
196 220 255
196 220 255
196 220 255
196 220 255
196 220 255
196 220 255
196 220 255
196 220 255
196 220 255
196 220 255
195 219 255
195 219 255
195 219 255
195 219 255
195 219 255
195 219 255
195 219 255
195 219 255
195 219 255
195 219 255
195 219 255
195 219 255
195 219 255
195 219 255
195 219 255
195 219 255
195 219 255
195 219 255
195 219 255
195 219 255
195 219 255
195 219 255
195 219 255
195 219 255
195 219 255
195 219 255
195 219 255
195 219 255
195 219 255
195 219 255
195 219 255
195 219 255
195 219 255
195 219 255
195 219 255
195 219 255
195 219 255
195 219 255
195 219 255
195 219 255
195 219 255
195 219 255
195 219 255
195 219 255
195 219 255
195 219 255
195 219 255
195 219 255
195 219 255
195 219 255
195 219 255
195 219 255
195 219 255
195 219 255
195 219 255
195 219 255
195 219 255
195 219 255
195 219 255
195 219 255
195 219 255
195 219 255
195 219 255
195 219 255
195 219 255
195 219 255
195 219 255
195 219 255
195 219 255
195 219 255
195 219 255
195 219 255
196 220 255
196 220 255
196 220 255
196 220 255
196 220 255
196 220 255
196 220 255
196 220 255
196 220 255
196 220 255
196 220 255
196 220 255
196 220 255
196 220 255
196 220 255
196 220 255
196 220 255
196 220 255
196 220 255
196 220 255
196 220 255
196 220 255
196 220 255
196 220 255
196 220 255
196 220 255
196 220 255
196 220 255
196 220 255
196 220 255
196 220 255
196 220 255
196 220 255
196 220 255
196 220 255
196 220 255
196 220 255
196 220 255
196 220 255
196 220 255
196 220 255
196 220 255
196 220 255
196 220 255
196 220 255
196 220 255
196 220 255
196 220 255
196 220 255
196 220 255
196 220 255
196 220 255
197 220 255
197 220 255
197 220 255
197 220 255
197 220 255
197 220 255
197 220 255
197 220 255
197 220 255
197 220 255
197 220 255
197 220 255
197 220 255
197 220 255
197 220 255
197 220 255
197 220 255
197 220 255
197 220 255
197 220 255
197 220 255
197 220 255
197 220 255
197 220 255
197 220 255
197 220 255
197 220 255
197 220 255
197 221 255
191 213 247
181 203 236
176 198 229
156 175 204
150 168 196
130 147 172
134 151 177
113 128 150
105 118 139
99 112 132
81 93 110
72 83 99
82 94 112
50 58 70
33 40 50
36 43 53
26 33 42
24 30 39
25 31 40
23 29 37
25 31 40
25 32 41
23 29 38
24 30 39
23 29 37
22 28 37
24 30 39
26 32 42
16 19 24
9 11 14
9 12 15
10 13 16
11 13 17
12 15 19
10 12 15
12 14 19
13 16 20
13 15 20
15 18 23
9 12 15
13 15 20
11 13 17
12 15 20
11 14 18
13 16 20
14 18 24
13 16 20
13 16 20
12 15 19
11 13 17
11 13 17
8 11 14
9 11 14
12 14 18
12 15 19
12 16 20
13 16 21
8 10 13
11 13 17
11 13 17
12 14 18
11 13 17
11 14 18
13 17 21
11 14 18
10 12 16
12 14 18
11 14 18
9 12 16
12 15 20
7 9 12
11 14 18
9 11 15
9 12 15
13 16 21
8 10 13
8 10 13
11 14 18
11 13 17
11 13 17
10 12 16
13 15 19
10 12 16
11 14 17
11 13 17
13 16 20
12 14 19
11 14 18
11 13 16
13 16 20
9 11 14
11 13 17
10 13 16
13 15 19
12 15 19
10 13 16
12 15 19
12 15 19
9 11 14
11 14 18
12 15 19
10 12 15
11 13 17
15 19 24
11 14 18
10 13 16
11 13 17
10 13 16
10 12 16
11 13 17
11 14 18
13 15 20
11 13 17
13 16 21
11 13 17
9 12 16
11 13 17
10 12 15
11 14 17
11 13 17
10 12 16
13 16 21
11 13 17
10 12 15
11 14 18
10 13 16
12 15 20
13 16 20
15 18 24
14 17 22
8 10 13
11 13 17
11 14 18
10 13 16
13 16 21
11 14 18
12 14 19
12 14 19
12 14 18
12 15 19
9 12 15
15 18 23
12 14 19
14 17 23
13 17 21
10 13 16
11 14 18
11 14 18
13 17 22
15 18 23
10 12 15
11 14 18
13 16 20
12 14 18
10 12 16
16 20 26
25 31 40
26 33 43
24 30 39
24 29 38
26 32 41
25 31 41
24 30 39
26 32 42
26 33 42
24 30 39
27 33 42
30 37 47
28 35 45
51 60 73
49 57 69
73 83 99
71 81 97
83 95 112
107 121 142
101 115 135
104 118 139
133 150 176
131 148 173
146 164 191
148 166 194
173 194 225
180 201 234
192 215 249
197 221 255
197 220 255
197 220 255
197 220 255
197 220 255
197 220 255
197 220 255
197 220 255
197 220 255
197 220 255
197 220 255
197 220 255
197 220 255
197 220 255
197 220 255
197 220 255
197 220 255
197 220 255
197 220 255
197 220 255
197 220 255
197 220 255
197 220 255
197 220 255
197 220 255
197 220 255
197 220 255
197 220 255
197 220 255
197 220 255
196 220 255
196 220 255
196 220 255
196 220 255
196 220 255
196 220 255
196 220 255
196 220 255
196 220 255
196 220 255
196 220 255
196 220 255
196 220 255
196 220 255
196 220 255
196 220 255
196 220 255
196 220 255
196 220 255
196 220 255
196 220 255
196 220 255
196 220 255
196 220 255
196 220 255
196 220 255
196 220 255
196 220 255
196 220 255
196 220 255
196 220 255
196 220 255
196 220 255
196 220 255
196 220 255
196 220 255
196 220 255
196 220 255
196 220 255
196 220 255
196 220 255
196 220 255
196 220 255
196 220 255
196 220 255
196 220 255
196 220 255
196 220 255
196 220 255
196 220 255
196 220 255
196 220 255
195 219 255
195 219 255
195 219 255
195 219 255
195 219 255
195 219 255
195 219 255
195 219 255
195 219 255
195 219 255
195 219 255
195 219 255
195 219 255
195 219 255
195 219 255
195 219 255
195 219 255
195 219 255
195 219 255
195 219 255
195 219 255
195 219 255
195 219 255
195 219 255
195 219 255
195 219 255
195 219 255
195 219 255
195 219 255
195 219 255
195 219 255
195 219 255
195 219 255
196 220 255
196 220 255
196 220 255
196 220 255
196 220 255
196 220 255
196 220 255
196 220 255
196 220 255
196 220 255
196 220 255
196 220 255
196 220 255
196 220 255
196 220 255
196 220 255
196 220 255
196 220 255
196 220 255
196 220 255
196 220 255
196 220 255
196 220 255
196 220 255
196 220 255
196 220 255
196 220 255
196 220 255
196 220 255
196 220 255
196 220 255
196 220 255
196 220 255
196 220 255
196 220 255
196 220 255
196 220 255
196 220 255
196 220 255
196 220 255
196 220 255
196 220 255
196 220 255
196 220 255
196 220 255
196 220 255
196 220 255
196 220 255
196 220 255
196 220 255
196 220 255
196 220 255
196 220 255
196 220 255
197 220 255
197 220 255
197 220 255
197 220 255
197 220 255
197 220 255
197 220 255
197 220 255
197 220 255
197 220 255
197 220 255
197 220 255
197 220 255
197 220 255
197 220 255
197 220 255
197 220 255
197 220 255
197 220 255
197 220 255
197 220 255
197 220 255
197 220 255
197 220 255
197 220 255
197 220 255
197 220 255
197 220 255
197 220 255
197 220 255
197 221 255
197 221 255
191 213 247
184 206 239
175 197 228
165 186 216
135 152 177
141 159 186
121 136 160
111 125 147
95 108 127
77 89 107
68 78 93
61 71 85
59 68 82
33 40 50
30 37 46
26 32 41
24 29 38
22 27 36
23 29 37
22 28 37
24 30 39
22 27 36
24 31 40
25 31 40
27 33 43
25 32 41
24 30 39
25 31 40
26 32 42
24 30 39
23 29 37
25 31 41
23 29 38
22 28 37
25 30 39
24 30 39
25 32 42
25 31 40
24 30 40
23 29 39
26 32 41
24 30 39
26 33 43
17 21 28
10 12 15
11 14 17
9 11 15
12 15 19
10 12 16
11 14 19
14 17 22
12 14 19
12 15 19
10 12 16
14 17 22
13 16 20
14 17 21
11 13 17
12 15 19
11 13 17
10 12 16
13 16 20
14 17 22
15 18 23
13 16 21
11 14 18
9 11 15
10 13 17
14 17 21
14 17 22
13 15 19
14 17 21
10 13 16
15 18 22
10 12 16
11 13 17
8 10 13
9 11 14
11 13 16
8 10 13
12 14 18
8 10 13
12 15 19
12 14 18
10 13 16
10 13 16
14 17 22
10 12 15
10 12 15
9 12 15
11 14 18
12 15 20
8 10 13
11 14 18
9 11 14
8 10 13
10 13 17
10 12 16
10 13 16
11 14 17
8 9 11
8 9 12
9 11 14
12 14 19
12 15 20
11 14 18
12 15 19
12 14 18
11 13 17
13 16 20
11 14 18
11 13 17
9 11 14
9 11 15
12 15 19
12 15 19
11 13 17
7 9 12
12 14 18
9 11 14
12 15 19
11 13 17
11 14 17
10 13 17
11 13 16
12 15 20
8 10 12
9 12 15
11 14 18
10 13 16
9 11 14
11 14 18
11 14 17
11 13 17
16 19 25
11 14 17
9 11 15
12 15 19
12 15 19
10 12 16
12 14 18
11 14 18
12 14 18
12 15 19
15 18 23
12 15 19
10 13 16
10 12 16
12 15 19
11 13 17
12 15 19
12 15 19
12 15 19
11 14 18
11 14 18
12 15 19
12 15 19
11 13 17
14 17 21
11 14 17
9 12 15
12 15 19
11 13 17
13 15 20
11 13 17
13 17 21
12 14 18
9 12 15
13 16 21
9 11 13
19 23 30
26 33 43
22 28 36
25 31 41
25 31 40
28 35 45
26 32 41
24 30 39
23 29 38
23 29 37
22 28 36
25 31 39
25 31 41
24 31 40
24 30 39
25 31 40
25 31 40
25 31 41
28 34 44
25 30 39
24 30 39
25 31 40
24 30 39
25 31 41
25 31 41
25 32 41
23 29 38
23 28 37
24 30 39
29 35 44
32 39 49
42 50 61
67 78 93
77 88 105
73 84 100
85 97 115
113 128 151
121 137 160
148 166 194
141 158 184
164 184 215
170 191 222
173 194 225
192 215 249
197 221 255
197 221 255
197 221 255
197 220 255
197 220 255
197 220 255
197 220 255
197 220 255
197 220 255
197 220 255
197 220 255
197 220 255
197 220 255
197 220 255
197 220 255
197 220 255
197 220 255
197 220 255
197 220 255
197 220 255
197 220 255
197 220 255
197 220 255
197 220 255
197 220 255
197 220 255
197 220 255
197 220 255
197 220 255
197 220 255
197 220 255
197 220 255
196 220 255
196 220 255
196 220 255
196 220 255
196 220 255
196 220 255
196 220 255
196 220 255
196 220 255
196 220 255
196 220 255
196 220 255
196 220 255
196 220 255
196 220 255
196 220 255
196 220 255
196 220 255
196 220 255
196 220 255
196 220 255
196 220 255
196 220 255
196 220 255
196 220 255
196 220 255
196 220 255
196 220 255
196 220 255
196 220 255
196 220 255
196 220 255
196 220 255
196 220 255
196 220 255
196 220 255
196 220 255
196 220 255
196 220 255
196 220 255
196 220 255
196 220 255
196 220 255
196 220 255
196 220 255
196 220 255
196 220 255
196 220 255
196 220 255
196 220 255
196 220 255
196 220 255
196 220 255
196 220 255
195 219 255
195 219 255
195 219 255
195 219 255
195 219 255
195 219 255
195 219 255
196 220 255
196 220 255
196 220 255
196 220 255
196 220 255
196 220 255
196 220 255
196 220 255
196 220 255
196 220 255
196 220 255
196 220 255
196 220 255
196 220 255
196 220 255
196 220 255
196 220 255
196 220 255
196 220 255
196 220 255
196 220 255
196 220 255
196 220 255
196 220 255
196 220 255
196 220 255
196 220 255
196 220 255
196 220 255
196 220 255
196 220 255
196 220 255
196 220 255
196 220 255
196 220 255
196 220 255
196 220 255
196 220 255
196 220 255
196 220 255
196 220 255
196 220 255
196 220 255
196 220 255
196 220 255
197 220 255
197 220 255
197 220 255
197 220 255
197 220 255
197 220 255
197 220 255
197 220 255
197 220 255
197 220 255
197 220 255
197 220 255
197 220 255
197 220 255
197 220 255
197 220 255
197 220 255
197 220 255
197 220 255
197 220 255
197 220 255
197 220 255
197 220 255
197 220 255
197 220 255
197 220 255
197 220 255
197 220 255
197 220 255
197 221 255
197 221 255
197 221 255
197 221 255
197 221 255
193 216 250
179 201 233
165 185 215
150 168 196
131 147 172
138 155 181
130 147 172
96 109 129
89 102 120
71 82 98
61 71 85
53 62 75
38 46 56
26 32 41
26 33 42
24 30 39
21 27 35
24 29 38
24 31 41
26 32 41
24 30 38
27 34 44
24 31 40
25 30 39
25 31 40
27 34 44
26 32 42
26 32 42
26 33 43
24 30 39
25 32 42
26 32 42
25 31 40
24 31 41
24 30 40
23 29 38
26 32 41
26 32 41
24 29 38
25 31 41
23 28 37
27 33 43
28 34 43
22 28 36
24 31 40
25 31 41
23 28 37
23 29 38
27 34 43
26 32 42
26 32 41
25 31 41
24 31 40
23 29 38
25 32 41
25 31 40
25 32 42
23 28 36
12 14 19
12 14 18
11 14 18
10 13 16
11 14 18
13 15 20
12 14 18
14 17 21
12 15 19
11 13 17
13 17 21
10 12 16
9 12 15
11 13 16
13 15 20
10 12 15
11 14 18
12 15 19
13 16 20
11 13 17
14 17 22
11 13 17
12 15 19
10 12 16
12 14 18
12 15 19
12 15 19
12 15 19
12 15 19
11 14 18
13 16 20
10 12 16
11 14 18
9 11 14
13 16 21
11 14 18
10 12 15
11 14 18
10 12 16
11 13 17
12 14 18
12 14 18
10 13 16
13 16 20
12 15 19
11 14 18
11 15 19
9 11 15
8 11 14
11 14 18
10 13 16
9 11 14
8 10 13
8 10 13
11 14 18
10 13 16
11 13 17
11 14 18
11 13 17
13 16 21
12 15 19
11 14 17
11 13 17
9 11 14
10 13 16
10 12 16
11 13 17
9 11 14
11 13 18
7 9 12
10 13 17
11 14 18
14 18 23
11 13 17
9 11 14
9 11 13
11 14 18
11 13 18
12 14 19
11 14 18
13 15 20
11 14 18
9 11 14
12 15 20
9 11 14
13 16 20
10 12 16
10 13 16
12 15 19
15 19 24
13 16 20
12 14 18
12 15 19
8 10 13
13 15 20
13 15 20
13 16 20
10 13 16
11 13 17
13 16 20
12 14 18
11 14 18
12 14 18
11 14 17
12 15 19
11 14 18
12 15 19
14 17 22
12 14 18
12 15 20
15 18 22
14 16 21
12 15 19
12 15 20
9 11 14
12 15 19
8 10 13
12 15 20
10 13 16
13 16 21
12 15 20
11 13 17
11 13 17
12 14 18
12 15 19
13 16 20
21 26 34
27 33 43
24 30 39
25 32 42
24 30 39
25 31 40
22 27 35
23 29 37
24 30 39
25 31 41
25 32 42
25 31 41
25 31 41
24 29 38
27 33 44
25 31 40
25 30 39
24 30 39
25 32 41
25 31 40
26 32 42
26 33 42
22 28 36
27 33 43
24 30 39
25 31 41
23 29 37
24 30 39
25 31 40
26 32 42
24 30 40
26 33 43
26 33 42
25 32 42
22 27 35
24 31 40
26 32 42
26 32 41
24 30 39
24 29 38
26 32 42
24 30 39
24 30 39
24 30 40
26 32 41
44 52 64
51 60 73
68 79 95
84 96 114
77 88 104
106 120 141
104 118 139
132 149 174
136 154 180
147 165 193
158 177 206
183 205 238
197 221 255
197 221 255
197 221 255
197 221 255
197 221 255
197 221 255
197 220 255
197 220 255
197 220 255
197 220 255
197 220 255
197 220 255
197 220 255
197 220 255
197 220 255
197 220 255
197 220 255
197 220 255
197 220 255
197 220 255
197 220 255
197 220 255
197 220 255
197 220 255
197 220 255
197 220 255
197 220 255
197 220 255
197 220 255
197 220 255
197 220 255
197 220 255
197 220 255
197 220 255
197 220 255
196 220 255
196 220 255
196 220 255
196 220 255
196 220 255
196 220 255
196 220 255
196 220 255
196 220 255
196 220 255
196 220 255
196 220 255
196 220 255
196 220 255
196 220 255
196 220 255
196 220 255
196 220 255
196 220 255
196 220 255
196 220 255
196 220 255
196 220 255
196 220 255
196 220 255
196 220 255
196 220 255
196 220 255
196 220 255
196 220 255
196 220 255
196 220 255
196 220 255
196 220 255
196 220 255
196 220 255
196 220 255
196 220 255
196 220 255
196 220 255
196 220 255
196 220 255
196 220 255
196 220 255
196 220 255
196 220 255
196 220 255
196 220 255
196 220 255
196 220 255
196 220 255
196 220 255
196 220 255
196 220 255
196 220 255
196 220 255
196 220 255
196 220 255
196 220 255
196 220 255
196 220 255
196 220 255
196 220 255
196 220 255
196 220 255
196 220 255
196 220 255
196 220 255
196 220 255
196 220 255
196 220 255
196 220 255
196 220 255
196 220 255
196 220 255
197 220 255
197 220 255
197 220 255
197 220 255
197 220 255
197 220 255
197 220 255
197 220 255
197 220 255
197 220 255
197 220 255
197 220 255
197 220 255
197 220 255
197 220 255
197 220 255
197 220 255
197 220 255
197 220 255
197 220 255
197 220 255
197 220 255
197 220 255
197 220 255
197 220 255
197 220 255
197 220 255
197 220 255
197 220 255
197 221 255
197 221 255
197 221 255
197 221 255
197 221 255
197 221 255
197 221 255
190 213 247
180 202 234
155 174 203
153 171 199
120 135 159
108 122 142
100 113 134
104 119 140
92 105 124
61 71 86
47 55 67
40 48 59
28 34 44
24 29 38
25 32 42
27 34 44
25 31 41
26 32 42
27 34 44
26 32 42
23 29 37
23 29 38
24 29 38
24 30 39
22 28 37
24 30 40
24 30 39
25 31 41
26 33 43
25 31 40
24 30 38
24 30 39
26 32 42
24 30 39
26 33 43
27 33 43
26 33 43
28 35 45
24 30 40
27 33 43
26 32 42
26 33 42
26 32 41
24 30 38
23 29 38
22 28 37
25 31 40
25 31 41
27 33 42
24 29 38
25 31 40
25 30 39
27 33 43
26 32 41
25 31 40
23 28 37
26 32 42
25 31 40
24 29 38
23 29 39
25 30 39
25 30 39
22 28 36
28 34 45
24 30 39
24 30 39
23 29 37
26 32 42
27 33 42
24 30 38
24 30 39
12 15 19
11 13 16
11 13 17
13 16 21
11 13 17
10 12 16
10 13 16
14 17 22
13 16 21
10 12 15
12 15 19
11 13 17
12 15 20
10 13 16
11 14 18
12 14 19
13 16 21
11 14 18
11 14 18
12 15 19
13 15 20
13 16 21
10 12 16
10 12 16
13 16 21
12 14 18
13 16 20
10 12 15
9 11 15
12 15 19
13 16 19
13 15 19
9 11 15
8 10 13
13 16 21
10 12 16
14 17 21
13 16 20
8 10 13
11 14 18
12 15 20
7 9 12
10 13 17
11 13 17
9 11 14
10 12 16
9 11 14
11 13 17
12 15 19
9 11 15
11 13 17
12 15 20
13 15 19
12 15 19
11 14 18
11 13 17
12 15 19
10 12 16
8 10 12
12 15 20
9 11 14
9 11 14
8 10 13
13 16 20
14 17 21
8 9 12
8 10 13
12 15 19
13 16 20
10 12 16
11 13 17
11 14 18
8 10 13
15 18 23
9 11 15
11 13 17
10 13 16
8 11 14
9 11 15
10 11 14
12 15 19
12 15 19
10 12 15
11 13 17
13 16 20
9 11 14
9 12 15
14 17 22
14 17 21
13 16 20
11 14 18
11 14 17
12 14 18
11 14 18
13 16 20
15 18 22
10 12 15
11 14 18
8 10 13
12 14 18
12 15 19
10 13 16
12 15 19
11 13 16
12 14 18
10 12 16
15 19 24
12 15 19
11 14 17
12 15 19
13 16 20
11 14 18
10 13 17
11 13 17
12 15 20
12 15 19
12 15 19
12 15 19
13 16 21
13 16 21
13 16 20
12 15 19
10 12 16
11 14 18
11 14 17
9 12 15
24 30 38
25 31 40
25 31 40
22 27 35
24 30 39
25 32 41
23 29 38
24 29 38
23 29 38
26 33 43
25 31 40
26 32 41
24 30 39
23 29 37
22 28 36
25 32 41
25 31 40
22 28 36
24 30 38
26 33 42
25 31 40
26 32 41
23 28 37
23 29 37
23 28 37
24 29 37
22 27 35
23 29 38
25 31 41
24 29 38
24 30 39
26 32 42
25 31 41
23 28 37
24 30 39
25 31 40
22 28 37
24 31 40
25 31 40
27 34 45
23 28 37
23 29 38
26 32 41
24 30 39
24 30 38
24 30 39
25 31 40
25 32 41
24 30 38
23 28 37
27 33 44
26 33 44
23 29 38
25 32 42
24 31 40
26 32 41
23 29 38
25 31 41
30 37 47
47 55 68
64 74 89
60 69 83
80 91 109
83 94 112
114 128 150
125 141 165
126 142 167
148 166 193
160 179 208
173 194 226
185 208 241
197 221 255
197 221 255
197 221 255
197 221 255
197 221 255
197 221 255
197 221 255
197 220 255
197 220 255
197 220 255
197 220 255
197 220 255
197 220 255
197 220 255
197 220 255
197 220 255
197 220 255
197 220 255
197 220 255
197 220 255
197 220 255
197 220 255
197 220 255
197 220 255
197 220 255
197 220 255
197 220 255
197 220 255
197 220 255
197 220 255
197 220 255
197 220 255
197 220 255
197 220 255
197 220 255
197 220 255
197 220 255
196 220 255
196 220 255
196 220 255
196 220 255
196 220 255
196 220 255
196 220 255
196 220 255
196 220 255
196 220 255
196 220 255
196 220 255
196 220 255
196 220 255
196 220 255
196 220 255
196 220 255
196 220 255
196 220 255
196 220 255
196 220 255
196 220 255
196 220 255
196 220 255
196 220 255
196 220 255
196 220 255
196 220 255
196 220 255
196 220 255
196 220 255
196 220 255
196 220 255
196 220 255
196 220 255
196 220 255
196 220 255
196 220 255
196 220 255
196 220 255
196 220 255
196 220 255
196 220 255
197 220 255
197 220 255
197 220 255
197 220 255
197 220 255
197 220 255
197 220 255
197 220 255
197 220 255
197 220 255
197 220 255
197 220 255
197 220 255
197 220 255
197 220 255
197 220 255
197 220 255
197 220 255
197 220 255
197 220 255
197 220 255
197 220 255
197 220 255
197 220 255
197 220 255
197 220 255
197 220 255
197 220 255
197 220 255
197 220 255
197 220 255
197 220 255
197 221 255
197 221 255
197 221 255
197 221 255
197 221 255
197 221 255
197 221 255
192 215 249
157 176 205
162 182 212
139 156 182
124 140 164
95 108 128
98 111 131
100 114 134
92 104 123
77 89 107
57 66 80
40 48 59
28 35 45
26 33 43
23 29 38
25 31 40
25 31 40
25 31 41
23 29 37
25 31 41
25 31 41
26 32 41
27 33 43
23 28 36
25 31 40
25 31 40
27 33 43
24 30 39
25 32 41
23 29 38
24 30 39
26 32 41
24 29 38
25 31 40
24 30 39
24 30 40
24 30 39
28 34 44
23 28 37
24 30 39
26 32 42
25 31 40
25 31 41
25 31 40
25 32 41
21 26 34
26 32 42
26 32 42
26 32 42
25 32 41
25 32 41
25 30 39
23 29 38
23 29 38
24 30 40
24 29 37
26 32 42
23 29 37
25 31 40
24 30 39
23 29 39
25 32 41
25 32 41
23 29 38
25 31 41
25 31 40
24 30 39
23 29 38
27 33 42
25 32 41
24 30 39
24 31 40
22 28 36
22 28 36
26 32 41
25 31 40
24 30 40
22 28 36
22 28 36
24 30 39
22 28 36
26 32 42
24 30 40
21 26 35
13 16 21
14 18 23
10 13 17
8 10 13
10 12 16
12 14 18
13 16 20
10 13 16
13 16 20
12 14 18
12 15 20
9 11 14
14 17 22
14 17 22
12 15 19
10 12 16
13 17 22
13 16 20
14 17 22
10 12 15
11 14 18
11 13 17
13 16 20
13 16 20
11 13 17
14 17 21
14 17 22
10 13 17
9 11 15
12 15 19
11 14 17
11 14 18
10 13 16
11 14 18
10 12 16
10 12 16
12 14 18
13 16 20
13 15 20
11 13 17
12 14 19
10 13 16
12 15 19
13 16 20
12 14 18
10 12 16
11 13 17
9 11 14
11 13 17
11 14 17
12 15 19
11 14 18
10 13 17
10 12 15
9 11 14
12 15 19
11 14 18
11 13 16
12 15 19
11 13 17
11 14 18
10 12 15
12 14 18
11 13 17
10 13 16
12 15 19
12 14 18
12 15 19
9 11 14
11 14 18
13 16 21
9 11 15
11 14 18
9 11 14
10 13 16
13 15 19
7 9 12
10 12 15
8 9 12
10 13 16
12 14 18
13 16 21
9 11 14
12 15 19
12 14 18
9 11 14
13 16 20
13 16 21
12 15 20
15 18 23
9 11 14
11 13 17
13 16 21
10 13 16
8 10 13
11 13 17
9 11 14
14 17 22
14 17 22
12 15 19
13 15 19
12 15 19
12 14 18
11 14 18
12 15 19
12 15 20
12 15 19
11 13 17
12 15 19
12 14 18
11 14 18
10 12 16
13 16 20
13 17 22
10 13 16
11 13 17
11 13 17
12 15 19
13 16 20
11 13 17
15 18 23
8 10 12
13 15 20
11 14 19
13 16 21
17 22 28
21 26 34
25 31 40
24 30 39
25 31 41
25 31 41
26 32 42
27 34 44
25 31 40
26 32 42
25 30 39
22 27 35
24 30 39
24 30 38
25 32 42
26 32 42
23 29 38
22 28 36
20 26 34
27 34 44
25 31 39
24 30 39
26 33 43
25 32 41
24 29 38
26 32 41
27 33 43
24 30 39
25 31 40
23 29 38
22 28 37
24 31 40
25 31 41
25 31 41
23 28 37
22 27 36
24 30 40
24 29 38
26 32 42
24 30 40
24 30 40
26 32 42
24 30 39
24 30 39
26 32 42
25 31 40
22 27 36
24 31 40
23 29 39
22 28 36
24 30 38
25 31 41
24 31 40
25 31 40
24 31 40
25 30 39
24 30 38
26 32 42
26 32 42
25 31 41
26 33 43
25 31 41
26 33 43
25 31 41
27 33 43
24 30 39
24 30 39
22 28 35
23 29 37
24 30 40
23 29 37
25 32 42
30 37 47
38 46 57
44 51 63
68 79 94
90 103 122
81 93 111
105 119 140
117 133 156
131 148 173
149 168 196
167 188 218
169 189 220
192 215 249
197 221 255
197 221 255
197 221 255
197 221 255
197 221 255
197 221 255
197 221 255
197 221 255
197 220 255
197 220 255
197 220 255
197 220 255
197 220 255
197 220 255
197 220 255
197 220 255
197 220 255
197 220 255
197 220 255
197 220 255
197 220 255
197 220 255
197 220 255
197 220 255
197 220 255
197 220 255
197 220 255
197 220 255
197 220 255
197 220 255
197 220 255
197 220 255
197 220 255
197 220 255
197 220 255
197 220 255
197 220 255
197 220 255
196 220 255
196 220 255
196 220 255
196 220 255
196 220 255
196 220 255
196 220 255
196 220 255
196 220 255
196 220 255
196 220 255
196 220 255
196 220 255
196 220 255
196 220 255
197 220 255
197 220 255
197 220 255
197 220 255
197 220 255
197 220 255
197 220 255
197 220 255
197 220 255
197 220 255
197 220 255
197 220 255
197 220 255
197 220 255
197 220 255
197 220 255
197 220 255
197 220 255
197 220 255
197 220 255
197 220 255
197 220 255
197 220 255
197 220 255
197 220 255
197 220 255
197 220 255
197 220 255
197 220 255
197 220 255
197 220 255
197 220 255
197 221 255
197 221 255
197 221 255
197 221 255
197 221 255
197 221 255
197 221 255
197 221 255
196 219 253
183 204 237
170 191 222
157 176 205
142 160 186
140 157 183
124 140 164
104 118 138
92 104 123
72 83 99
47 55 67
57 67 81
32 39 49
24 30 39
26 32 42
26 32 42
24 29 38
26 32 41
25 31 40
27 33 43
25 31 41
26 33 43
24 30 39
26 32 41
25 31 41
23 29 38
25 31 40
22 27 35
25 31 40
24 30 40
24 30 39
26 32 42
23 29 38
24 30 39
27 34 43
25 31 40
27 33 43
25 31 40
22 28 36
23 29 37
26 32 42
25 31 41
25 31 41
24 31 40
23 28 37
25 31 40
24 30 38
23 29 37
24 29 38
26 32 41
27 34 44
23 29 37
23 29 37
25 31 40
27 34 44
23 29 38
25 31 40
27 33 43
24 30 39
23 29 37
27 33 43
27 34 44
23 29 37
25 31 40
24 30 40
26 32 42
24 29 38
25 31 40
24 30 40
24 31 40
25 31 40
25 31 41
25 31 41
27 34 44
25 31 40
25 31 40
24 31 40
25 31 40
23 28 37
23 29 38
21 27 35
25 32 41
23 29 38
25 31 40
27 33 43
23 28 37
26 32 42
23 29 39
25 31 41
24 30 39
25 32 41
25 31 40
23 28 37
27 34 44
23 29 38
24 31 40
24 30 39
20 24 31
10 12 15
11 13 17
9 11 14
10 12 16
8 10 13
11 13 17
16 19 24
13 15 19
10 12 16
12 15 19
12 14 18
12 14 19
12 14 18
10 13 16
12 14 18
9 11 15
12 14 18
10 13 16
10 13 16
14 17 21
9 11 14
9 11 15
13 16 20
10 12 16
10 12 16
10 12 16
10 12 16
11 13 17
11 13 17
13 16 20
9 11 14
8 10 13
9 12 15
8 10 13
9 12 15
10 12 15
11 14 18
9 12 15
13 16 20
9 12 15
14 18 23
8 10 13
12 14 18
9 12 15
9 11 14
12 15 20
12 14 18
9 11 14
11 14 18
12 14 19
8 10 13
10 13 16
10 12 16
11 14 17
10 12 16
11 14 19
9 11 15
9 11 14
14 17 21
11 13 17
11 13 17
12 15 19
12 14 19
10 12 16
11 13 17
8 10 14
9 11 14
11 14 18
12 15 19
9 12 15
11 14 17
11 14 18
11 13 17
11 14 18
8 10 13
9 12 15
11 13 17
10 13 16
11 13 17
11 14 18
11 14 18
12 15 19
10 13 16
10 12 15
7 9 12
12 15 19
11 14 17
13 16 20
10 13 16
13 16 21
11 13 17
11 13 17
9 12 15
9 11 14
14 17 22
11 14 19
9 11 15
11 13 17
11 14 18
12 16 20
14 16 21
10 12 16
11 13 17
12 15 19
8 10 14
10 12 16
12 15 19
12 14 18
11 14 17
9 11 15
12 15 19
8 10 13
11 13 17
11 13 17
14 18 23
13 16 21
13 16 21
12 14 18
11 14 18
10 12 16
11 14 18
8 10 13
13 16 21
13 16 21
21 26 33
22 27 35
22 28 36
22 28 36
25 31 41
23 29 37
25 31 40
24 29 38
25 31 40
24 31 40
24 30 40
24 31 40
25 32 41
25 30 39
22 28 36
23 29 37
22 27 36
26 32 42
21 27 35
23 29 38
24 30 39
25 31 40
25 31 40
24 30 40
23 30 39
23 29 37
22 28 37
26 32 41
25 31 41
24 30 39
25 32 41
26 33 43
23 28 37
23 29 38
25 31 40
23 28 37
26 32 41
26 32 41
22 28 36
26 32 42
25 31 41
24 30 40
25 31 41
25 31 40
23 28 36
23 29 38
25 31 41
23 29 38
23 30 39
25 31 41
24 30 40
24 30 39
24 30 39
25 32 41
26 33 43
24 29 38
23 28 36
25 31 41
27 34 43
25 31 40
25 32 42
24 29 38
27 33 43
28 35 45
24 31 40
26 32 42
26 32 42
25 31 40
26 32 42
24 30 39
25 31 40
24 30 40
26 32 42
23 29 38
22 27 35
26 32 42
24 30 39
26 33 42
27 33 43
24 30 38
23 29 38
24 30 40
25 31 40
26 32 41
26 32 42
27 34 43
44 52 64
56 65 78
70 81 97
67 77 92
107 120 141
109 123 145
128 145 169
147 166 193
141 158 185
174 194 226
178 200 231
196 219 253
197 221 255
197 221 255
197 221 255
197 221 255
197 221 255
197 221 255
197 221 255
197 221 255
197 221 255
197 220 255
197 220 255
197 220 255
197 220 255
197 220 255
197 220 255
197 220 255
197 220 255
197 220 255
197 220 255
197 220 255
197 220 255
197 220 255
197 220 255
197 220 255
197 220 255
197 220 255
197 220 255
197 220 255
197 220 255
197 220 255
197 220 255
197 220 255
197 220 255
197 220 255
197 220 255
197 220 255
197 220 255
197 220 255
197 220 255
197 220 255
197 220 255
197 220 255
197 220 255
197 220 255
197 220 255
197 220 255
197 220 255
197 220 255
197 220 255
197 220 255
197 220 255
197 220 255
197 220 255
197 220 255
197 220 255
197 220 255
197 220 255
197 220 255
197 221 255
197 221 255
197 221 255
197 221 255
197 221 255
197 221 255
197 221 255
197 221 255
197 221 255
197 221 255
197 221 255
176 198 229
174 195 226
155 173 202
151 169 197
131 147 172
121 136 160
101 115 136
83 95 113
59 68 83
56 65 78
40 47 58
25 31 39
24 30 39
21 27 35
26 32 41
25 31 40
22 28 36
23 29 37
25 31 40
25 32 41
24 30 40
24 29 38
25 31 40
24 29 38
26 32 41
24 31 40
27 33 42
24 29 38
22 28 36
24 30 40
25 32 42
24 31 40
23 29 38
26 32 42
26 32 42
25 31 40
25 31 41
24 30 39
26 32 42
26 32 41
26 32 42
23 29 38
26 32 41
25 31 40
26 33 43
22 27 35
24 30 39
25 31 40
25 31 41
24 30 39
24 30 39
25 31 41
26 33 43
26 32 41
24 30 39
26 32 41
24 30 40
23 28 36
24 30 38
25 31 40
26 32 42
27 34 44
23 29 38
25 31 40
22 28 37
24 30 39
23 29 38
22 28 36
27 34 44
24 30 39
26 33 43
23 28 37
24 30 39
25 31 41
24 30 39
24 29 38
25 31 40
26 32 41
26 33 42
26 33 42
25 31 41
24 30 39
24 30 39
23 29 37
25 31 40
26 33 42
25 30 39
23 28 37
23 29 39
24 30 40
25 31 41
24 30 39
25 31 40
24 30 40
23 30 39
24 29 38
27 33 42
23 28 37
24 31 40
26 32 42
25 31 40
27 33 44
25 32 42
26 32 41
26 32 41
24 30 39
25 31 40
25 30 39
21 26 33
11 14 18
10 13 16
12 15 19
11 13 17
13 16 20
11 13 17
9 11 14
12 14 18
10 12 16
11 14 18
9 11 14
12 14 18
13 15 19
10 13 16
13 16 21
9 12 15
11 14 17
11 13 17
10 13 17
11 13 18
12 14 18
13 16 20
13 16 20
12 14 17
11 13 17
13 16 20
14 17 21
10 12 16
11 14 18
11 13 17
9 12 16
12 15 19
12 15 19
8 10 13
12 14 19
11 14 17
10 12 16
13 16 21
10 13 17
11 14 18
12 15 19
12 15 19
11 13 17
10 12 15
10 12 15
11 13 17
8 10 13
12 15 19
8 10 13
13 16 20
7 9 12
10 12 15
9 11 14
11 13 17
11 14 17
10 13 16
11 13 17
11 14 18
10 12 16
8 10 12
13 16 21
11 13 17
12 14 18
12 15 19
7 9 11
9 11 14
11 13 17
10 13 17
10 12 16
9 11 14
14 17 22
12 15 19
12 15 19
10 13 17
10 13 17
12 15 20
12 15 19
12 14 18
13 16 21
8 10 13
13 15 20
9 12 15
11 14 17
11 13 17
12 15 19
9 11 14
11 14 18
12 14 18
9 12 15
11 13 16
10 13 17
12 14 18
11 13 17
8 10 13
10 12 16
14 17 22
10 12 16
11 13 17
10 13 16
12 14 18
12 14 18
11 14 18
16 19 24
12 15 19
11 14 18
12 15 19
10 12 16
11 14 18
12 15 20
14 17 22
12 15 19
10 12 15
12 14 18
10 13 16
10 12 16
11 13 16
10 12 15
9 12 15
9 12 15
11 14 18
9 11 14
11 14 18
12 15 19
12 15 20
22 28 36
25 32 42
25 31 41
23 29 39
26 32 42
25 31 41
25 31 40
25 31 40
23 28 37
25 31 41
23 29 39
25 31 41
25 31 40
26 32 42
26 32 41
23 29 37
25 31 41
22 27 35
23 28 37
25 31 41
26 32 42
25 31 40
23 29 37
22 28 37
22 28 36
25 31 41
24 30 39
26 32 41
22 28 36
26 33 43
22 28 36
23 29 37
24 30 39
25 31 40
24 31 40
24 30 40
23 29 38
24 29 38
24 30 39
27 33 43
25 31 41
24 29 38
25 32 42
23 29 37
24 29 38
24 30 39
23 28 37
26 32 41
25 31 41
24 29 38
25 31 40
23 29 38
21 27 36
22 28 36
27 33 43
26 32 41
23 29 37
25 32 41
23 29 37
25 32 41
26 32 41
23 28 37
26 32 42
25 31 39
25 32 41
24 30 40
26 32 41
25 32 42
25 32 41
24 31 40
29 35 45
26 32 42
23 29 38
26 32 42
25 31 40
25 32 41
24 30 39
25 31 40
27 33 43
25 31 41
25 31 41
24 29 38
22 28 36
24 30 39
25 30 39
25 31 41
25 31 41
26 32 42
22 28 36
23 28 37
26 32 42
24 30 38
25 31 40
24 30 39
24 30 40
25 31 40
25 31 41
30 37 46
37 44 55
50 58 70
64 74 89
84 96 113
98 111 131
102 116 137
115 130 153
151 169 197
163 183 213
170 191 222
187 210 243
197 221 255
197 221 255
197 221 255
197 221 255
197 221 255
197 221 255
197 221 255
197 221 255
197 221 255
197 221 255
197 220 255
197 220 255
197 220 255
197 220 255
197 220 255
197 220 255
197 220 255
197 220 255
197 220 255
197 220 255
197 220 255
197 220 255
197 220 255
197 220 255
197 220 255
197 220 255
197 220 255
197 220 255
197 220 255
197 220 255
197 220 255
197 220 255
197 220 255
197 220 255
197 221 255
197 221 255
197 221 255
197 221 255
197 221 255
197 221 255
197 221 255
197 221 255
197 221 255
197 221 255
197 221 255
197 221 255
186 209 242
178 199 230
164 184 214
135 152 177
127 143 167
124 140 163
98 111 131
90 103 121
78 89 107
54 63 76
40 47 58
28 34 43
26 32 41
24 30 39
27 33 43
28 34 44
25 31 40
25 31 40
23 29 37
26 33 43
24 30 39
24 30 38
24 31 41
25 31 40
23 28 37
25 31 40
22 28 36
23 29 38
24 30 39
26 33 43
26 32 42
22 27 36
24 30 39
24 30 39
24 30 39
23 29 38
24 30 39
25 31 40
25 31 41
25 31 39
26 32 42
24 30 40
27 34 44
23 29 37
22 28 37
26 32 42
25 31 40
24 29 38
24 29 38
25 32 41
28 34 44
24 30 38
26 32 41
25 31 40
27 33 43
25 31 41
23 29 38
26 32 42
24 31 41
24 30 39
24 30 39
23 29 38
25 31 40
27 33 43
25 32 41
23 29 38
25 31 40
26 32 42
25 30 39
23 28 37
24 30 39
26 32 41
26 32 42
28 34 44
24 30 39
25 31 40
24 31 40
24 30 39
24 30 40
26 33 42
24 29 38
23 29 38
26 32 41
25 31 41
27 33 43
24 30 38
26 32 42
24 31 40
25 31 40
24 29 38
26 33 43
25 31 40
25 31 40
23 28 37
23 29 37
27 33 43
24 31 41
25 31 41
21 26 33
25 31 40
25 32 41
26 32 42
23 29 38
25 31 40
25 31 40
25 32 41
23 29 38
26 32 42
24 30 40
24 31 40
25 31 40
24 30 40
24 30 39
26 32 41
26 33 43
25 31 41
24 30 38
27 34 44
24 30 39
24 30 39
26 32 41
16 20 26
10 13 16
10 12 16
13 16 20
9 11 14
11 14 18
12 15 19
10 13 16
12 14 18
13 15 19
12 15 18
11 14 18
9 11 14
13 16 20
13 16 20
12 15 19
11 14 18
10 12 16
12 14 18
13 15 19
11 14 17
11 13 17
13 15 20
9 11 14
10 12 16
12 14 18
9 11 14
11 14 18
12 15 19
9 12 16
10 12 15
13 16 20
9 12 15
9 11 14
11 13 17
11 13 17
11 14 17
11 13 17
11 14 17
11 14 18
9 11 14
9 12 15
14 17 21
11 14 18
11 14 18
13 16 20
11 13 16
14 17 21
9 11 14
13 16 20
9 12 15
10 13 16
12 15 19
10 12 16
11 13 17
13 16 20
10 13 16
12 15 19
9 11 14
9 11 14
8 10 13
10 12 15
11 14 18
10 12 16
12 15 19
11 14 18
10 13 17
10 12 16
8 10 13
11 13 17
11 13 17
9 12 15
10 12 16
13 16 21
11 13 17
13 16 20
8 10 13
12 15 20
10 12 15
9 11 14
11 13 17
9 12 15
9 11 15
11 13 17
11 13 17
8 10 13
11 14 17
11 14 18
11 13 17
9 11 14
11 14 18
10 13 16
11 14 18
13 16 20
12 15 19
12 15 19
12 14 19
8 10 13
10 13 17
12 14 18
13 16 20
9 11 15
10 12 15
9 11 14
11 14 17
11 14 18
11 13 17
12 15 19
14 18 23
13 16 21
13 16 21
10 13 16
10 13 16
11 14 18
12 15 19
12 15 18
12 14 18
12 15 19
10 13 16
10 13 17
14 17 22
12 14 18
9 11 15
12 15 19
23 29 38
23 29 39
25 32 41
25 31 40
24 29 38
25 31 41
26 33 42
24 29 38
24 30 39
24 30 39
24 30 39
24 30 40
21 26 33
25 32 42
24 30 39
23 29 37
23 28 37
25 31 40
22 28 36
23 30 39
25 31 40
25 30 39
24 30 39
24 30 39
24 30 39
25 32 41
24 29 38
23 29 38
27 33 43
24 30 39
24 31 40
23 28 36
26 32 42
23 29 38
24 30 39
26 32 42
24 30 39
27 33 43
25 32 41
24 29 38
26 32 42
25 30 39
22 28 37
23 29 38
22 28 36
25 31 40
24 30 39
24 30 40
25 32 41
26 32 42
25 31 40
24 30 40
24 30 39
26 32 42
23 29 37
26 33 43
24 30 39
23 29 38
24 30 39
26 33 42
25 31 41
23 29 38
25 31 40
23 28 37
24 30 39
27 33 43
23 29 38
26 32 42
25 31 40
25 31 40
25 31 40
25 31 40
20 25 33
25 31 39
26 32 42
24 30 39
24 30 39
25 32 41
24 30 39
22 28 37
24 30 39
24 30 39
24 30 40
25 31 41
28 34 44
25 31 40
25 31 40
24 30 38
23 29 38
25 31 41
22 28 36
27 33 42
23 29 38
23 29 37
24 30 39
24 30 39
24 29 38
26 32 42
24 30 39
26 32 42
25 31 41
25 31 41
23 28 37
25 31 40
24 30 38
24 30 39
24 30 40
24 30 39
26 32 42
23 29 37
40 47 58
55 64 77
78 89 106
77 88 105
113 127 150
116 131 154
126 142 166
122 138 162
156 175 204
163 183 213
184 206 239
196 219 253
197 221 255
197 221 255
197 221 255
197 221 255
197 221 255
197 221 255
197 221 255
197 221 255
197 221 255
197 221 255
197 221 255
197 220 255
197 220 255
197 220 255
197 220 255
197 220 255
197 221 255
197 221 255
197 221 255
197 221 255
197 221 255
190 213 247
170 191 222
160 180 209
149 167 195
124 140 163
121 137 160
93 106 125
68 78 93
69 80 95
53 61 74
41 48 59
34 41 51
25 31 40
26 32 42
24 30 40
24 30 39
26 33 43
25 31 40
25 32 41
26 32 41
24 30 39
24 30 39
24 30 39
23 28 37
23 28 37
27 34 43
26 32 42
25 31 40
26 33 42
25 32 41
23 30 39
23 29 39
25 31 41
25 31 41
25 31 41
25 31 40
25 32 42
27 34 44
23 28 37
22 28 37
26 32 42
25 31 40
25 31 41
24 30 39
25 31 40
23 29 37
20 25 33
24 31 40
26 32 42
25 32 41
25 31 40
25 31 41
23 29 38
24 29 38
27 34 43
24 30 39
24 30 39
26 32 41
24 29 38
24 30 39
25 32 42
23 29 38
24 30 39
21 26 34
26 33 42
23 28 37
27 33 43
23 29 37
24 31 40
21 27 35
24 30 40
24 30 39
24 30 38
25 31 41
26 33 43
24 30 39
27 33 43
22 27 35
24 30 39
24 30 39
25 31 41
25 31 41
22 28 36
25 31 40
25 31 41
24 30 39
24 29 38
24 31 40
24 30 38
23 29 38
23 29 38
26 33 42
23 28 37
23 29 38
24 30 39
24 29 38
25 31 40
25 32 42
24 29 38
21 27 36
22 27 35
25 31 40
25 30 39
27 34 45
24 30 38
22 28 36
26 33 42
24 30 38
24 30 39
26 32 42
25 31 40
21 27 35
24 30 39
23 29 38
23 30 39
25 31 41
25 31 40
27 33 42
26 33 42
24 30 39
24 30 40
24 31 40
24 29 38
24 29 38
25 31 41
24 30 39
23 29 38
27 33 43
23 28 37
24 30 39
25 31 41
25 31 40
23 28 37
18 22 29
11 14 18
11 14 18
14 17 22
12 15 19
12 15 19
9 11 14
12 14 18
12 15 19
12 14 18
11 14 17
10 13 16
11 14 18
13 16 20
10 12 16
13 16 20
10 12 15
12 15 19
11 14 18
11 13 17
7 9 11
12 14 19
11 14 18
10 12 15
9 11 14
12 14 18
11 13 17
13 16 21
12 15 19
10 12 15
13 16 21
12 15 19
12 14 18
11 13 17
8 10 13
10 12 15
9 12 15
12 15 19
9 12 15
10 12 15
9 11 14
11 13 17
10 12 15
11 13 17
9 11 14
11 14 18
8 10 13
10 12 16
11 13 17
11 14 17
11 14 18
11 14 18
12 14 18
11 13 17
10 13 16
12 15 20
10 12 15
8 10 13
11 14 17
10 12 15
9 12 15
10 13 16
9 11 14
11 13 17
13 16 20
8 10 13
12 15 20
10 12 16
10 12 15
12 14 18
9 12 15
9 11 14
10 12 16
9 12 15
9 11 14
10 13 16
10 13 17
11 13 16
10 12 16
13 16 19
8 9 12
11 13 17
13 16 21
13 15 20
9 11 15
9 11 15
10 12 15
14 16 21
10 13 16
13 16 21
10 13 16
12 14 18
9 12 15
12 15 19
12 14 19
9 11 15
8 10 13
10 13 16
11 13 17
10 13 16
12 15 19
8 10 13
12 14 18
11 13 17
13 16 20
13 16 21
11 14 18
13 16 20
11 14 17
9 11 15
8 10 13
12 15 19
9 11 14
10 13 16
11 14 18
10 12 16
14 18 22
11 14 18
9 12 15
11 13 17
11 13 17
12 14 18
10 12 15
17 21 28
25 31 39
26 33 43
24 30 39
25 31 41
22 28 37
24 29 38
24 31 40
23 29 38
26 32 41
25 32 41
22 27 35
24 30 39
23 29 37
24 30 38
25 31 39
23 28 37
25 31 40
26 32 42
24 30 39
22 27 36
25 32 41
22 28 36
23 29 38
24 30 39
25 31 40
26 33 43
23 29 38
25 31 41
22 27 36
26 32 42
25 31 40
23 28 37
25 31 41
25 31 40
26 32 42
23 29 37
24 30 40
21 27 35
23 29 37
25 31 41
24 30 39
26 33 43
23 29 38
25 31 41
25 31 41
24 29 37
22 28 36
24 30 39
23 29 37
26 32 41
23 29 38
27 34 44
23 29 37
24 30 39
23 28 37
22 28 36
25 31 41
23 29 37
24 30 39
23 29 38
24 30 39
21 27 35
24 30 39
24 31 40
24 30 39
21 26 34
26 32 42
26 32 42
23 29 38
23 29 38
24 29 38
26 32 42
24 30 39
25 31 41
26 32 42
26 33 42
24 30 38
25 31 41
24 30 40
26 32 42
24 30 39
21 27 35
23 29 39
24 30 39
23 29 38
25 31 40
24 30 39
23 29 38
24 30 39
24 31 40
25 32 41
24 30 39
27 33 43
21 27 35
25 31 40
25 31 40
26 32 42
27 33 44
25 30 39
26 32 41
22 28 37
24 30 38
25 31 41
27 33 43
24 31 40
26 32 42
23 29 37
23 29 37
22 27 36
26 33 42
25 32 42
26 32 41
26 32 42
26 33 43
24 30 39
28 35 46
25 32 41
25 31 40
23 29 37
26 32 42
27 33 42
29 35 45
40 48 59
70 81 96
69 79 94
92 105 124
106 120 141
121 137 160
124 140 164
156 175 204
161 181 210
173 194 225
197 221 255
197 221 255
197 221 255
197 221 255
197 221 255
197 221 255
98 111 131
86 98 117
69 80 96
56 65 78
39 46 57
27 34 44
25 31 40
26 33 42
23 29 37
25 31 41
24 30 40
25 31 41
22 28 35
23 29 38
27 34 44
26 32 42
25 31 41
25 31 40
24 30 39
22 28 36
24 30 39
23 29 37
27 33 43
26 33 42
25 32 41
26 32 42
27 34 44
27 33 44
27 34 44
24 30 39
26 32 42
24 29 38
25 31 41
24 30 40
24 30 39
23 29 38
22 27 36
24 30 39
25 31 40
24 30 39
26 32 41
25 32 41
25 31 41
23 29 37
24 30 38
24 30 40
24 30 38
24 30 38
23 28 36
24 31 40
24 29 38
24 30 39
25 31 40
25 31 40
26 32 42
23 29 38
24 30 40
22 28 36
23 28 37
23 28 36
24 30 39
25 31 40
22 28 36
23 29 38
26 32 41
24 30 39
24 30 39
24 30 39
26 32 41
26 32 41
23 29 37
25 31 40
25 31 40
26 33 42
23 28 36
23 29 37
25 31 41
24 30 40
24 30 39
24 30 40
24 29 38
23 29 38
24 30 39
25 32 41
25 31 40
24 30 40
25 31 40
22 28 36
26 32 42
25 31 40
26 33 43
24 30 38
25 31 40
25 31 41
23 29 38
25 30 39
28 35 45
24 29 38
26 32 41
27 33 43
24 30 39
25 31 40
24 29 38
24 29 38
23 28 37
25 31 41
25 32 42
24 30 40
25 31 40
22 27 35
24 29 38
23 29 38
25 31 40
25 32 41
26 32 42
23 29 38
24 29 38
27 34 44
25 32 41
25 31 41
23 30 39
26 32 42
23 29 38
23 29 37
25 31 41
25 31 41
23 28 37
26 33 43
24 30 39
23 29 38
24 29 38
24 30 39
25 31 40
25 31 40
23 29 38
22 28 36
25 32 41
23 29 39
22 27 35
10 12 15
9 11 14
11 14 18
14 18 22
11 13 17
11 13 17
12 15 19
11 14 17
12 15 19
11 13 17
12 14 19
12 15 19
10 13 16
11 13 17
13 16 20
12 14 18
14 18 23
9 11 14
9 11 15
10 13 16
15 18 23
12 15 20
11 13 17
9 12 15
12 15 20
12 15 19
10 12 16
14 18 23
14 18 22
12 14 19
9 11 15
14 17 21
8 10 13
12 15 18
11 14 17
9 11 14
11 14 18
12 15 20
10 13 17
11 14 17
10 12 15
12 14 18
12 15 19
13 17 21
12 15 19
10 12 16
11 13 17
10 12 16
11 14 17
9 11 15
10 12 15
13 16 21
10 13 16
12 15 19
11 14 18
11 13 17
10 12 15
7 9 12
12 15 19
12 14 18
11 14 18
11 13 17
10 12 16
10 12 15
9 11 15
10 13 17
10 13 17
8 10 13
10 12 15
11 13 17
10 12 16
11 13 18
11 14 18
13 15 19
11 13 17
9 12 15
9 12 15
13 16 20
11 14 17
12 15 19
14 17 21
11 13 16
11 13 17
10 12 16
11 13 17
15 18 23
12 15 19
13 16 20
11 14 17
8 10 14
10 13 17
10 13 16
10 13 17
13 16 21
8 9 12
12 15 19
11 14 18
8 10 13
11 13 17
13 16 20
10 13 16
10 12 15
10 12 16
12 15 19
12 15 19
9 12 15
11 13 17
10 12 15
8 10 13
10 13 16
11 13 17
11 13 16
10 12 16
10 12 16
10 12 16
13 16 21
12 14 18
11 13 17
10 12 16
11 13 17
11 14 17
9 11 14
22 28 36
23 28 36
23 29 38
24 30 38
26 32 42
24 29 38
25 31 40
25 32 42
23 29 38
24 30 39
25 32 41
24 30 39
25 32 41
26 32 41
21 26 35
24 30 39
24 30 39
24 30 39
22 28 37
23 29 38
22 27 35
24 30 39
26 33 42
22 27 35
24 30 38
25 31 40
23 28 37
25 31 41
25 31 41
24 30 39
24 30 39
26 32 42
24 30 39
26 32 42
24 31 40
24 30 40
25 31 41
26 33 43
25 31 41
25 31 40
21 26 34
24 29 38
25 30 39
23 29 38
24 29 38
24 30 39
25 31 41
20 26 33
26 32 41
27 34 44
24 30 40
26 32 41
26 32 41
24 30 38
25 30 39
25 31 40
24 31 40
23 29 38
25 31 41
25 31 40
24 30 39
23 29 37
22 28 36
23 28 37
23 30 39
25 30 39
25 31 40
26 32 41
25 31 40
25 31 40
23 29 38
21 27 34
25 31 40
24 30 40
22 28 36
25 31 41
26 32 41
24 30 39
25 31 41
22 28 36
23 29 37
24 30 40
25 31 41
22 28 37
26 32 42
24 30 39
27 33 43
21 26 35
22 28 37
25 32 41
24 30 40
25 31 40
22 28 37
25 31 41
23 29 38
24 30 39
25 31 41
26 32 41
25 31 40
27 33 43
25 32 41
21 27 35
22 28 36
25 31 40
28 35 45
26 33 42
23 29 37
24 30 39
25 31 40
24 30 39
25 31 40
24 30 39
21 27 35
28 34 45
28 34 44
23 28 37
25 31 41
26 32 41
24 29 37
25 32 41
26 32 42
24 29 38
23 29 38
25 32 41
22 28 37
26 32 42
24 30 39
26 32 42
23 29 38
24 30 39
24 30 39
26 32 41
25 32 41
25 31 41
30 37 46
53 62 75
60 69 83
87 99 118
101 114 134
25 31 40
26 32 42
23 29 38
25 31 40
23 29 38
24 30 39
23 28 37
24 30 38
25 32 41
25 31 41
26 33 43
27 34 44
25 31 40
25 31 40
23 29 38
24 30 39
24 30 39
26 32 41
23 29 38
25 31 40
24 30 40
26 32 42
25 31 40
26 32 41
23 28 37
24 31 40
24 30 39
25 31 40
24 30 39
25 31 40
23 29 39
27 33 43
25 31 41
26 32 41
27 34 43
25 31 41
26 33 43
24 30 39
23 28 37
26 32 42
25 31 41
25 31 41
27 33 43
25 31 40
24 30 39
28 35 46
22 27 35
25 31 40
26 33 43
26 32 41
26 33 43
24 30 39
25 31 40
22 27 36
25 31 40
27 34 44
28 34 44
25 32 41
25 31 40
24 30 39
26 32 41
26 32 42
26 32 41
25 32 41
24 31 40
23 29 38
23 29 38
26 32 41
26 32 42
23 29 39
25 31 41
25 32 41
23 29 38
24 30 38
23 28 37
26 32 42
24 30 39
24 30 39
24 30 39
25 30 39
23 29 38
24 31 40
26 33 42
22 28 36
24 30 40
21 26 33
23 28 37
24 30 39
25 32 41
23 29 38
26 32 43
24 30 40
25 32 41
24 29 38
22 27 35
25 31 41
25 31 40
24 29 38
26 33 43
22 28 37
27 33 43
23 29 37
25 31 40
26 32 42
23 29 37
24 30 40
25 31 40
27 34 43
24 30 40
25 31 41
23 29 38
23 29 38
23 28 36
25 31 40
25 31 40
24 31 40
24 29 37
24 30 39
24 31 41
24 30 39
21 27 35
23 28 37
24 30 39
24 30 39
25 31 41
24 30 39
26 32 42
24 29 38
24 31 40
24 30 38
23 29 38
24 30 39
24 30 39
24 30 39
26 32 42
24 30 40
25 31 41
23 29 37
23 29 37
14 17 22
10 13 16
12 14 19
10 12 15
11 14 18
12 14 18
11 14 18
8 11 14
13 16 20
12 15 19
12 14 18
12 15 19
10 12 16
11 13 17
9 11 14
8 10 13
11 14 18
10 12 16
11 14 17
10 13 16
10 13 16
10 12 16
10 12 15
14 17 22
12 14 18
13 16 21
10 12 16
10 12 16
11 14 18
9 11 15
11 13 16
14 17 22
10 13 16
9 11 14
10 13 16
13 16 20
13 16 20
9 12 15
7 9 12
9 11 14
11 14 18
12 15 19
11 14 18
13 16 21
14 17 21
10 12 14
12 14 19
12 15 19
13 16 21
12 14 18
11 13 17
9 12 15
9 12 15
9 11 15
10 12 15
11 13 17
10 12 16
11 13 17
11 13 17
12 14 19
12 14 18
10 12 15
9 11 14
10 13 16
11 14 18
10 12 16
11 14 18
11 13 17
12 15 19
9 12 15
12 14 18
12 15 19
10 13 17
10 12 16
8 10 13
10 12 16
11 13 16
9 11 14
11 13 17
12 15 20
8 10 14
16 20 25
11 13 17
10 12 16
8 10 13
11 13 17
12 14 18
12 14 18
14 17 21
10 12 16
10 12 16
10 12 16
9 11 14
13 16 20
11 14 18
11 14 17
13 15 19
12 14 18
9 12 15
13 16 21
9 12 15
10 12 16
10 13 16
12 14 18
11 13 17
12 15 18
10 12 16
10 13 17
8 10 12
12 15 19
12 15 19
10 12 16
11 13 16
12 15 20
10 12 16
12 14 18
11 14 18
15 18 23
10 12 15
11 14 17
12 15 19
16 19 25
27 33 43
23 29 37
23 29 38
24 30 39
21 27 35
20 26 33
23 29 38
23 29 37
23 29 38
24 30 39
25 31 40
25 31 40
24 30 39
23 29 37
25 31 41
24 29 38
26 33 43
24 30 40
24 30 39
25 31 40
23 29 38
22 28 37
25 31 41
23 29 38
23 29 38
26 32 41
24 30 38
27 34 44
25 31 40
23 29 38
25 32 41
26 32 42
23 29 37
23 29 38
25 32 41
24 30 39
24 30 38
25 31 40
24 30 40
26 32 42
25 31 40
24 30 39
25 32 41
24 30 39
24 30 38
25 31 41
26 32 42
27 33 43
23 29 37
25 31 41
24 30 40
23 28 36
25 31 40
23 29 38
23 29 38
25 31 40
23 29 38
25 31 40
24 30 38
25 31 41
24 31 40
23 28 37
23 29 38
25 31 40
25 31 40
25 30 39
24 30 39
25 31 41
25 31 40
23 29 37
25 31 40
24 30 40
25 31 41
25 30 39
26 33 42
22 28 36
25 30 39
25 32 42
25 31 40
26 33 42
25 31 40
24 30 40
24 30 39
24 30 39
26 33 43
23 28 37
24 30 39
23 29 38
27 33 43
23 29 37
25 31 41
25 31 40
25 32 41
25 30 39
25 31 41
25 31 40
25 31 40
25 31 41
24 29 38
24 30 38
23 29 38
24 30 39
21 27 35
26 32 42
23 29 38
23 29 38
25 31 40
25 32 41
26 32 42
24 30 39
25 31 41
25 31 41
24 30 39
24 30 39
26 32 41
25 31 40
22 28 37
24 30 39
23 28 37
24 30 38
26 32 42
25 31 40
25 32 41
26 32 42
24 30 40
26 33 42
24 30 39
27 34 44
24 30 40
25 32 41
28 34 45
23 29 39
26 32 41
25 32 41
28 35 45
23 28 37
26 32 42
26 33 43
24 30 39
25 32 41
26 32 42
27 33 43
25 32 41
27 33 43
24 30 38
21 26 34
24 30 38
25 31 41
24 30 39
23 29 38
24 30 40
26 33 42
24 30 40
24 30 39
24 30 39
23 29 37
24 30 38
22 27 35
27 34 43
24 30 39
26 32 42
24 30 39
25 31 40
25 30 39
25 31 41
23 29 38
25 31 41
24 30 39
25 31 41
23 29 37
25 31 40
25 31 40
24 31 40
24 30 39
23 29 38
27 34 44
24 29 38
26 32 42
25 32 41
24 30 39
24 30 38
23 28 37
24 29 38
27 33 43
25 31 40
24 30 40
24 30 39
24 29 38
25 31 40
26 33 43
25 31 40
26 32 42
23 28 37
26 32 42
22 28 37
26 33 42
24 29 38
24 29 38
27 33 43
24 30 40
24 29 38
26 33 42
27 34 44
22 27 36
25 31 40
26 32 41
26 32 43
23 29 37
26 33 42
24 30 39
25 32 41
26 32 41
24 29 38
23 29 38
25 31 40
23 29 38
25 31 39
25 31 40
24 30 39
24 30 39
25 31 41
24 30 40
24 31 40
25 31 40
24 30 39
25 31 40
25 31 41
24 30 38
24 30 39
25 31 41
26 32 41
24 31 40
25 31 40
25 31 41
25 31 40
23 29 39
25 31 40
25 31 40
23 28 36
25 31 40
23 29 37
27 34 44
23 29 38
24 29 38
24 30 40
24 30 38
22 28 36
25 31 40
23 29 38
26 32 42
24 29 38
22 28 36
25 31 40
22 27 35
24 30 39
24 31 40
24 30 39
21 27 35
25 31 41
24 30 39
26 32 42
23 29 37
22 27 36
25 31 40
26 32 42
24 29 38
23 29 37
24 30 40
25 31 40
25 32 42
23 28 36
26 32 42
24 30 39
24 30 39
24 30 39
24 29 38
25 30 39
24 30 39
19 24 31
11 14 18
12 15 19
9 11 15
10 12 15
10 13 16
9 12 15
11 13 17
13 15 20
9 11 14
12 15 20
10 12 16
11 14 18
9 11 14
9 12 15
13 15 19
9 12 16
13 16 20
10 12 15
11 13 17
11 13 17
10 12 16
12 14 18
12 15 19
10 12 16
11 13 17
11 13 17
10 12 16
12 15 19
10 12 16
12 15 19
12 15 19
14 17 21
14 17 22
11 13 17
9 11 14
9 11 14
11 13 16
11 14 17
11 13 17
13 15 19
11 13 17
9 12 15
10 12 16
13 16 21
10 13 16
10 12 15
8 10 13
11 14 17
9 11 14
12 15 20
12 15 19
14 17 22
12 14 18
10 12 16
11 13 17
9 11 14
12 15 19
10 13 16
9 11 14
11 14 17
10 13 16
10 12 15
11 13 17
13 15 20
12 15 20
11 13 17
10 11 14
15 18 23
8 9 12
12 14 18
11 13 17
10 12 15
10 12 16
8 10 13
9 12 15
9 11 14
10 12 16
10 13 16
12 15 19
12 15 19
11 13 17
8 10 13
10 12 15
9 11 14
10 12 16
10 12 15
10 12 16
11 14 18
11 14 17
11 13 17
12 15 19
9 11 15
11 13 17
11 13 17
8 10 12
11 13 16
10 12 15
11 13 17
10 12 16
11 14 17
10 13 17
12 15 18
11 14 18
13 16 20
13 16 21
12 15 19
10 12 16
11 13 17
13 16 20
11 13 17
10 12 15
9 12 15
10 12 16
12 15 19
9 11 14
8 10 13
10 13 16
10 12 16
14 17 21
11 14 18
20 25 32
23 28 36
22 27 36
22 28 37
24 30 39
22 27 36
23 28 36
23 29 38
25 31 40
22 27 35
24 30 39
25 31 40
25 31 40
24 30 39
26 32 41
23 28 37
21 26 34
25 31 41
24 30 39
25 31 40
24 30 39
24 31 41
25 31 41
23 29 37
26 33 42
24 30 39
24 30 40
24 30 39
27 34 44
23 29 38
23 28 37
26 32 41
25 31 41
23 29 39
24 30 39
25 31 41
26 33 43
26 32 42
26 33 43
24 30 40
24 30 40
24 30 39
25 31 40
23 28 37
23 29 38
24 30 38
22 28 36
23 29 38
24 30 40
25 31 41
26 32 42
24 30 39
24 30 39
25 32 41
23 29 37
26 32 42
24 30 40
25 32 42
25 31 41
24 30 39
24 30 39
23 29 38
23 29 38
23 29 37
24 30 40
23 29 37
23 29 38
26 32 41
24 30 39
24 30 39
23 29 37
23 29 38
23 29 38
24 30 39
26 32 41
24 29 38
26 33 42
24 30 38
22 28 36
23 28 37
23 29 38
24 29 38
23 29 38
24 30 39
24 30 39
28 35 45
27 33 42
21 26 35
27 33 43
26 33 43
23 29 38
23 29 38
24 30 39
23 29 38
26 33 42
25 31 40
27 33 44
25 31 40
23 29 38
23 29 39
24 30 39
25 30 39
25 31 40
23 29 37
26 32 42
23 29 39
23 29 38
28 35 45
25 31 40
26 32 41
25 31 40
24 30 39
23 30 39
25 31 40
24 31 40
26 32 41
24 30 39
24 30 39
25 31 40
26 32 41
27 34 43
24 31 40
24 29 38
24 30 40
27 33 42
25 31 40
25 31 40
26 32 41
26 32 41
22 28 37
25 31 40
25 31 40
25 32 41
24 31 40
26 33 42
26 33 43
24 30 39
24 29 38
23 29 38
25 30 39
26 32 42
27 33 42
24 30 39
25 31 40
27 33 43
21 27 35
24 30 39
24 29 38
25 32 41
26 32 42
21 27 35
25 31 40
24 30 39
24 29 38
27 34 44
26 31 40
24 30 40
26 32 41
25 31 40
28 35 45
23 29 37
23 29 37
26 32 42
27 33 43
23 29 38
26 32 42
22 28 36
26 33 42
24 30 39
28 34 44
22 28 36
24 31 40
25 31 39
24 29 38
24 30 39
26 32 42
23 28 36
24 29 38
23 28 37
27 33 44
25 31 40
25 31 41
26 33 42
27 33 43
24 30 40
24 30 40
25 31 40
25 32 41
22 27 35
26 32 41
25 31 40
21 27 35
25 31 41
24 29 38
22 28 37
24 31 40
26 32 41
25 31 40
23 29 37
24 29 38
22 28 36
27 34 44
25 31 40
23 29 37
24 30 39
23 29 38
22 27 36
25 32 41
25 31 41
25 31 40
23 28 37
21 26 34
23 29 39
26 32 41
25 31 41
25 31 40
23 29 38
26 32 41
24 31 40
26 32 42
26 32 41
26 32 41
25 31 41
26 33 43
23 28 37
25 31 40
25 31 40
24 30 39
25 31 40
26 32 41
23 29 38
24 30 39
23 29 38
27 34 44
23 29 37
26 32 42
24 30 39
24 29 38
25 31 40
27 33 43
26 32 41
24 30 39
24 30 39
23 28 37
23 29 37
25 31 40
23 29 37
22 27 34
26 32 42
24 31 40
25 31 41
22 28 36
25 31 40
24 30 38
23 29 38
22 28 36
22 27 36
23 28 36
24 30 39
22 28 36
25 31 41
27 33 43
24 30 40
24 30 39
25 32 41
22 28 36
23 29 38
24 30 39
25 30 39
24 31 41
20 25 33
24 30 39
22 27 35
22 27 35
24 30 39
25 32 41
22 28 36
25 31 40
26 32 42
22 27 35
13 15 20
10 12 15
12 15 19
13 16 20
11 13 17
6 8 10
10 13 16
12 14 18
12 15 18
12 15 19
11 14 18
12 14 18
13 16 21
9 11 14
10 13 16
10 12 15
15 18 23
10 13 16
11 13 17
9 11 15
12 15 19
9 12 15
10 13 16
11 13 17
11 14 17
10 12 16
9 12 15
10 12 15
12 14 18
12 15 19
11 14 18
12 15 19
12 14 18
10 12 15
9 11 14
10 12 16
11 13 17
13 16 21
10 12 15
9 12 15
12 15 19
11 14 18
10 12 15
14 17 22
9 11 14
12 15 20
11 13 17
13 16 20
8 10 13
13 16 20
8 10 13
10 12 16
9 11 14
11 13 17
11 13 17
10 12 15
9 11 14
8 10 13
9 11 14
10 13 16
10 13 16
13 15 19
9 11 14
9 11 14
11 13 17
13 16 21
12 15 19
8 9 11
10 12 15
9 10 13
10 12 16
11 14 17
10 12 15
10 12 15
10 12 16
13 16 21
9 11 14
11 14 18
9 11 14
10 12 15
8 10 13
8 10 13
9 11 15
11 14 18
11 13 17
11 14 17
10 12 16
9 11 14
13 16 20
10 13 16
13 16 21
9 11 14
9 11 14
11 14 18
12 15 19
11 13 16
11 13 17
8 10 13
9 11 14
11 13 17
9 12 15
15 18 23
14 17 21
10 12 16
9 11 14
11 14 18
12 14 19
11 14 18
13 16 20
11 14 18
12 15 19
11 14 18
9 11 14
12 15 19
6 8 10
13 15 19
9 12 15
11 14 17
8 10 13
12 14 18
26 32 41
22 28 36
24 29 38
25 30 39
23 29 38
26 33 42
27 33 43
22 27 34
24 30 39
25 32 41
25 31 40
25 31 40
23 29 38
22 27 35
25 31 41
22 28 37
25 31 40
24 30 39
24 31 40
24 30 39
22 28 36
25 31 39
26 32 42
25 30 39
24 30 39
22 27 35
23 28 37
23 29 39
24 30 39
26 33 43
25 31 40
22 27 36
25 31 40
26 32 41
25 32 41
23 29 37
24 30 39
25 31 41
25 31 41
22 27 35
25 31 41
24 31 40
23 29 38
24 30 39
23 28 36
24 30 39
26 32 41
24 30 39
25 31 40
26 31 40
24 29 38
25 31 40
25 31 40
24 30 40
25 31 41
24 30 38
25 30 39
24 30 39
24 30 39
25 32 41
22 28 36
25 31 40
25 32 41
25 31 40
25 31 40
25 31 40
26 32 42
24 30 39
28 34 43
22 27 36
26 32 42
24 30 40
26 33 43
24 29 38
22 28 36
25 31 40
26 32 42
24 30 39
23 29 38
26 31 40
25 31 41
24 30 39
25 32 41
27 33 43
24 29 38
25 31 40
24 31 40
25 31 41
24 30 39
25 32 42
23 29 38
25 31 40
24 30 40
28 34 44
25 31 40
23 28 36
24 30 39
24 30 38
24 29 38
23 29 37
25 31 41
23 29 37
26 32 42
22 27 35
23 29 38
24 30 40
24 30 39
25 31 40
26 32 42
25 31 41
23 29 37
27 34 44
26 33 43
22 27 36
23 29 38
25 31 40
22 28 36
25 32 42
23 29 38
25 32 41
24 30 39
23 29 37
27 34 44
26 32 42
25 32 42
25 31 40
27 33 44
24 30 39
24 30 39
20 25 33
25 31 40
23 29 38
23 29 38
24 30 39
24 30 40
24 31 41
25 31 40
24 30 39
24 30 39
25 31 40
25 31 40
24 30 40
27 34 44
24 30 39
24 30 39
24 30 40
25 31 40
23 29 37
26 32 42
26 33 43
24 30 40
22 27 35
23 29 38
22 27 36
25 31 40
25 32 41
27 34 44
25 32 42
23 29 38
27 34 44
24 30 38
25 31 41
25 32 41
25 31 39
23 28 36
26 32 41
25 31 40
26 32 42
24 30 40
24 30 38
24 29 38
27 33 43
24 30 39
25 31 40
25 32 42
25 31 40
23 29 38
28 35 45
24 31 40
24 30 38
24 30 39
23 29 38
26 32 41
27 34 44
24 30 39
26 32 41
24 30 40
24 30 39
26 32 41
25 31 41
23 29 38
23 28 37
26 32 41
26 32 42
25 31 40
22 28 37
25 32 42
27 34 44
24 30 39
24 29 38
25 31 41
24 30 39
25 31 40
25 31 40
24 30 40
24 30 39
24 30 39
23 29 38
24 30 39
24 29 38
25 31 40
25 31 40
25 31 40
23 29 38
22 28 36
25 31 41
24 31 40
26 32 42
22 27 35
24 31 40
24 29 38
24 30 39
23 29 38
25 31 41
24 29 38
25 31 40
26 32 42
25 31 40
25 31 41
26 32 41
27 33 43
27 33 43
25 31 40
26 32 41
24 30 38
25 31 40
25 32 41
28 35 45
24 30 40
25 30 39
22 28 36
23 28 37
25 31 40
22 27 35
26 32 41
22 28 36
24 30 39
25 31 40
24 30 39
21 27 35
25 32 41
23 28 35
24 29 38
23 29 37
24 30 39
23 29 37
24 29 38
24 30 39
23 29 37
22 28 36
24 30 39
24 30 39
26 32 42
25 31 40
22 27 34
24 30 39
23 29 38
25 31 41
24 30 40
23 29 37
24 31 40
26 32 42
24 31 40
23 29 37
24 30 39
25 31 40
25 31 41
23 29 37
21 27 35
25 32 41
17 20 26
10 12 15
11 14 18
9 12 15
12 15 19
10 13 16
15 18 23
12 14 18
10 12 16
12 15 19
12 14 18
14 17 21
14 17 22
12 15 19
11 14 17
11 14 18
13 16 20
11 13 17
13 15 20
10 13 17
14 17 22
8 9 12
12 15 19
8 10 13
13 15 20
11 13 16
10 12 15
9 12 15
10 13 16
12 14 18
11 14 18
9 11 15
9 12 15
11 14 18
9 12 15
13 16 20
8 9 12
8 10 13
9 11 14
10 12 15
9 11 15
10 12 15
10 12 16
11 13 17
11 14 18
10 12 16
11 14 18
11 13 17
10 13 16
12 15 19
11 13 17
12 15 19
11 14 18
11 14 18
10 12 15
12 14 18
11 13 16
8 10 13
11 14 18
11 14 17
11 14 18
12 14 18
10 12 16
9 11 14
10 12 15
8 9 12
12 15 19
10 13 16
12 14 18
10 12 15
10 12 15
9 11 14
12 15 19
11 14 18
10 12 16
11 13 16
12 15 20
10 12 15
12 15 19
8 10 12
10 13 16
10 13 16
10 13 16
8 10 13
13 15 20
14 17 22
14 17 21
8 10 13
10 13 16
9 12 15
9 11 15
14 17 22
11 14 18
9 11 14
11 13 17
13 16 20
10 12 15
10 13 16
10 12 16
8 10 12
11 13 16
12 15 18
11 13 17
12 15 20
10 12 16
10 13 16
9 11 14
10 12 15
12 15 19
10 12 16
10 13 16
11 13 17
11 13 17
9 11 14
13 17 21
10 12 15
10 13 16
11 13 16
11 13 17
16 20 27
25 31 41
22 28 36
24 30 39
22 28 36
23 29 38
23 29 37
26 33 42
25 31 41
25 31 40
26 32 42
25 31 41
24 30 39
24 30 40
25 31 40
24 30 40
26 33 43
23 29 38
26 32 41
24 30 39
25 32 41
24 31 40
23 28 36
22 27 35
23 29 37
27 33 43
25 31 40
26 32 41
26 32 42
25 30 39
21 27 34
25 31 41
23 29 39
24 30 39
25 31 41
24 30 40
23 29 38
25 31 40
22 29 38
23 29 37
24 30 39
25 31 41
22 28 36
25 30 39
25 30 39
24 30 38
25 31 40
25 31 40
24 30 39
24 30 40
24 30 40
23 29 38
24 30 39
26 33 43
25 31 40
25 31 41
22 28 37
26 33 43
24 31 40
26 31 40
27 33 44
24 30 39
24 30 39
25 31 40
24 31 40
24 30 39
24 31 40
24 31 40
25 31 40
26 32 42
24 30 39
26 33 42
24 30 39
25 30 39
25 31 41
26 33 43
25 31 40
24 30 40
27 33 43
24 29 38
26 33 43
26 33 43
25 31 40
25 31 40
25 31 41
23 29 38
24 30 39
25 31 40
26 32 41
24 29 38
23 28 37
22 28 36
24 31 40
24 30 39
25 31 41
27 33 43
25 31 40
24 30 39
26 32 42
23 28 37
26 33 43
27 33 43
26 32 42
26 32 41
22 27 35
24 30 39
28 34 44
25 32 41
25 31 41
22 28 36
24 29 38
26 33 43
25 31 40
26 32 42
26 32 41
27 33 43
25 31 41
23 28 37
26 33 42
26 33 43
26 33 43
25 32 41
26 33 43
23 29 37
25 32 41
26 33 43
24 31 40
24 30 39
25 30 39
24 30 40
24 29 38
26 32 42
24 30 39
25 32 41
23 29 37
24 30 39
27 34 44
23 29 37
25 31 41
22 28 37
25 31 40
26 32 41
26 32 42
24 30 39
26 32 42
24 29 38
23 28 37
25 31 40
22 27 35
26 32 42
25 31 40
23 29 38
23 29 38
23 29 37
26 32 42
24 30 39
23 30 39
25 31 40
24 30 38
21 27 34
25 30 39
25 31 40
26 32 41
22 28 36
25 31 41
27 33 43
25 31 40
25 31 40
25 31 41
24 30 38
22 28 36
24 29 38
23 29 38
22 28 37
22 27 36
26 33 42
26 32 42
25 31 41
25 31 40
24 30 39
24 30 40
23 29 38
26 32 42
26 32 42
23 29 37
24 31 40
25 31 41
24 30 38
23 29 37
25 31 40
24 29 38
24 29 38
26 33 43
24 30 38
24 30 39
24 30 40
22 28 36
25 31 41
20 26 33
25 31 40
26 32 41
24 29 38
26 32 41
28 35 45
25 32 42
23 29 38
23 29 38
22 28 36
24 30 39
24 30 38
27 33 43
24 30 39
24 30 39
21 26 34
23 29 39
25 31 40
24 30 39
24 30 39
24 30 40
22 27 35
23 29 37
24 30 39
24 29 38
25 31 41
25 30 39
26 33 42
23 29 38
24 29 38
25 31 40
25 31 40
24 30 39
26 32 41
24 29 38
24 30 39
24 30 40
24 30 39
24 30 40
25 31 40
25 31 40
26 32 41
23 29 38
23 29 37
23 29 38
24 31 40
26 32 41
25 32 42
25 32 41
23 29 38
23 29 38
24 29 38
22 27 35
26 32 41
24 29 38
24 31 40
22 28 37
23 29 37
23 29 39
24 30 39
22 28 36
23 29 37
24 30 39
25 31 40
26 32 42
25 31 40
22 28 37
24 31 40
25 31 40
25 32 41
23 29 38
26 32 42
23 29 38
24 30 39
23 29 38
25 31 41
23 29 37
26 32 42
22 27 35
25 31 41
22 27 36
25 32 42
24 29 38
21 27 36
13 16 20
9 11 14
9 12 15
9 11 14
10 12 16
11 14 18
11 14 17
9 11 13
10 12 15
11 13 17
8 10 13
10 12 15
11 13 17
10 13 16
11 13 17
9 11 14
9 11 14
10 12 15
8 10 13
10 12 16
12 15 20
13 16 20
8 10 13
12 15 18
12 14 18
11 13 17
10 13 16
11 14 18
11 13 17
11 14 18
10 12 16
11 14 17
10 12 16
10 12 15
9 11 13
11 14 18
11 13 17
8 10 13
9 11 15
11 14 18
10 13 17
11 13 17
10 12 16
9 11 14
13 16 21
8 10 13
13 16 20
9 12 15
10 12 16
11 13 17
9 11 14
11 13 17
11 13 17
11 13 17
9 11 14
11 14 19
9 12 15
11 13 17
11 14 18
9 11 15
11 13 17
9 11 15
7 9 12
11 13 16
10 12 15
9 11 14
13 16 21
11 13 17
11 13 16
9 12 15
11 13 17
10 13 16
12 14 18
9 11 15
12 15 19
11 13 17
11 14 19
9 11 15
10 13 16
11 14 18
13 16 21
11 14 17
9 11 14
8 10 13
9 11 14
8 10 13
10 12 16
11 13 17
11 13 16
10 12 15
10 12 16
12 14 18
10 12 15
11 13 17
11 14 18
12 14 18
11 13 16
11 13 17
13 16 20
12 14 18
11 14 18
9 11 14
10 12 15
10 12 16
11 14 18
15 19 24
12 15 19
11 13 17
10 12 15
9 11 14
12 14 18
8 11 14
10 12 16
11 14 18
9 11 14
9 11 15
9 11 14
10 13 17
23 29 37
25 31 40
21 26 33
24 30 39
22 28 37
21 26 34
23 28 37
24 30 39
23 28 37
24 31 40
24 30 39
23 28 37
23 29 38
25 31 40
25 31 40
24 29 38
26 33 43
24 30 40
22 28 36
24 31 40
21 27 35
24 30 39
23 29 38
25 31 40
24 31 40
24 30 40
24 30 40
25 31 41
25 31 39
27 34 44
25 30 39
23 29 38
25 30 39
23 28 37
22 28 37
26 33 42
23 28 36
25 31 40
24 30 39
24 30 39
25 31 41
25 31 40
25 30 39
23 29 38
24 30 39
23 29 38
23 29 38
23 29 38
26 33 43
25 30 39
24 30 39
24 31 40
25 31 40
24 30 39
25 31 40
25 32 42
25 31 40
23 29 38
24 31 40
25 32 42
24 30 39
23 29 37
26 33 42
25 31 41
25 30 39
24 30 39
27 33 42
25 31 41
22 28 36
24 30 39
25 31 40
24 31 40
23 29 38
24 31 40
24 30 40
27 34 43
24 31 40
25 32 42
23 29 38
24 30 39
21 27 35
25 31 40
25 30 39
25 31 41
25 31 40
23 29 38
23 29 37
25 31 40
26 32 42
24 30 39
22 27 36
25 31 40
25 31 41
26 33 42
24 30 39
26 32 42
24 31 41
25 31 39
24 29 38
26 33 42
25 31 41
28 35 45
25 31 41
26 32 42
23 28 37
21 26 34
24 29 38
25 31 40
23 29 37
25 31 40
24 30 39
26 32 42
25 31 41
25 31 39
25 30 39
23 29 38
23 29 37
25 31 41
24 30 39
22 28 36
24 30 39
23 29 38
24 30 39
26 33 43
24 30 40
24 30 39
22 28 37
26 32 42
25 31 40
25 32 42
25 31 40
23 28 37
25 32 41
24 30 39
26 32 42
24 29 38
23 29 38
25 31 40
23 29 37
25 31 41
21 27 35
23 28 37
26 32 41
25 31 40
25 32 41
23 28 36
26 32 41
25 31 40
21 26 34
25 32 41
26 33 43
22 28 37
25 31 40
26 32 42
24 30 39
25 31 41
24 29 38
24 29 38
24 29 38
24 30 39
25 31 40
25 32 41
25 32 42
24 31 40
24 31 41
23 29 37
23 29 38
25 31 40
23 29 39
24 30 40
24 29 38
24 30 40
23 29 38
24 30 39
26 32 42
24 30 39
25 32 42
26 32 42
24 30 39
24 30 39
26 33 43
23 30 39
23 28 36
22 28 36
23 28 36
23 28 37
24 30 40
24 29 38
25 30 39
25 31 40
24 30 39
23 29 38
24 30 39
26 33 43
24 31 40
24 30 39
23 29 38
25 31 41
25 31 40
24 30 38
26 32 42
23 29 38
24 30 38
25 31 40
24 30 39
23 29 38
24 30 39
21 26 34
24 30 38
25 31 41
26 32 42
25 32 42
24 30 39
23 29 38
25 31 41
24 29 38
23 29 39
25 32 41
24 31 40
24 29 38
25 31 41
25 32 41
24 30 39
24 29 38
23 29 37
27 34 44
26 32 41
25 31 40
23 29 37
24 30 39
26 33 44
23 29 39
26 32 42
23 28 37
22 28 36
25 32 41
25 31 41
23 29 38
25 31 41
23 28 37
25 31 40
24 31 40
25 31 41
25 32 41
25 30 39
25 31 40
24 30 39
24 30 39
26 33 42
24 30 39
24 30 39
25 31 41
24 30 39
23 29 38
25 32 42
23 29 38
25 31 41
24 30 40
23 28 37
21 26 34
24 31 40
26 32 42
24 29 38
23 28 37
23 29 38
23 29 38
24 31 40
25 31 41
23 29 37
22 27 36
23 29 38
27 33 43
23 29 38
22 27 35
25 31 40
23 29 38
26 32 41
24 30 39
25 31 40
23 29 38
23 30 39
24 30 39
13 16 21
10 12 16
12 15 19
11 13 17
9 11 14
12 14 18
11 14 18
12 14 18
11 14 17
9 11 15
12 14 18
9 12 15
12 15 19
11 14 18
9 11 15
13 16 20
11 14 17
10 12 15
12 15 19
11 13 16
13 15 20
10 12 15
10 13 16
11 13 17
10 12 16
11 14 17
9 11 14
10 12 15
10 12 16
10 12 15
12 15 19
13 16 20
10 12 15
7 9 11
10 12 16
10 13 17
9 11 14
12 15 19
10 12 15
8 10 13
8 9 12
12 14 18
10 13 17
8 10 13
9 11 14
11 13 17
13 16 20
10 12 16
10 13 17
10 12 16
11 14 18
12 15 19
8 10 13
10 13 17
8 11 14
9 12 15
11 14 18
10 12 15
8 10 13
10 12 16
13 16 20
7 9 11
11 13 17
13 16 20
10 12 15
11 14 18
8 10 13
11 14 17
12 14 18
10 13 16
11 13 17
10 12 15
8 10 13
10 13 17
10 13 16
10 12 15
10 12 15
7 9 12
11 13 17
10 12 16
11 13 16
11 14 18
8 10 13
9 11 14
11 14 17
9 11 14
10 12 16
12 15 19
11 14 18
14 17 22
10 12 16
10 12 15
13 16 21
10 12 15
11 13 17
11 13 17
11 14 17
11 13 16
12 15 19
12 14 18
12 15 19
10 13 16
10 13 16
14 17 21
11 14 17
9 11 14
14 17 22
14 17 21
10 12 16
11 14 18
10 13 17
11 14 17
11 13 17
10 12 15
13 15 20
10 13 16
10 12 15
17 22 28
20 25 32
23 29 38
23 28 36
19 24 32
24 29 38
27 33 43
21 26 34
24 30 39
27 33 43
23 28 36
21 27 35
24 30 39
23 29 37
22 28 37
25 31 39
24 29 38
25 31 41
24 31 40
24 30 40
23 28 36
25 31 41
24 30 38
23 28 36
22 28 36
28 34 44
22 28 37
22 27 35
24 29 38
25 32 42
24 30 39
25 31 41
23 29 37
23 29 38
23 29 38
23 28 36
24 30 39
25 31 40
24 30 39
27 34 44
24 30 39
24 30 38
26 32 42
24 30 39
25 31 40
27 33 43
24 30 38
24 30 40
23 29 38
24 29 38
26 33 42
23 28 37
26 32 42
24 30 38
24 30 40
23 28 37
24 30 39
22 28 37
23 29 38
25 32 41
27 33 43
24 30 39
24 30 40
27 33 43
23 28 37
26 33 43
23 29 38
24 30 39
22 27 35
26 32 41
24 30 39
25 31 40
23 29 37
25 31 41
25 31 41
25 31 41
24 30 40
26 33 43
28 35 46
23 29 37
25 32 41
24 30 39
26 32 42
28 34 45
26 33 42
24 30 40
24 30 38
27 34 44
26 33 43
25 31 40
25 31 40
23 29 38
24 30 39
25 31 40
25 31 41
20 26 34
24 31 40
25 30 39
23 28 37
25 31 40
21 27 35
25 30 39
25 31 40
22 28 36
25 31 40
25 31 40
21 27 35
24 30 39
23 29 38
25 31 40
26 32 42
25 31 41
24 29 38
25 31 40
25 31 41
24 30 39
26 32 41
24 31 40
24 29 38
24 30 39
24 31 40
24 30 40
24 30 39
22 28 37
24 30 39
27 33 42
24 30 39
22 28 36
25 31 40
24 29 37
24 30 40
23 29 38
26 32 41
27 33 43
25 32 41
24 30 40
23 29 37
25 32 42
24 30 39
23 28 37
23 29 38
25 31 41
24 30 39
25 31 40
25 31 40
24 30 39
27 33 43
24 30 39
24 29 38
23 29 39
24 31 40
26 32 42
26 32 41
27 33 43
25 32 42
24 30 40
22 27 36
25 31 41
25 32 42
26 32 41
24 30 39
25 31 41
28 34 44
24 30 40
26 32 42
24 30 40
23 29 38
27 33 43
26 32 42
22 28 36
25 32 41
24 29 38
25 31 40
23 28 36
24 30 38
22 27 34
25 31 40
22 27 35
25 31 40
24 30 38
23 29 37
24 31 40
21 26 34
25 31 41
24 30 39
24 29 37
26 32 42
23 29 37
23 29 38
24 30 39
25 31 40
24 30 39
25 32 42
26 32 42
25 31 40
24 30 39
24 31 41
23 29 38
25 31 41
23 29 38
27 33 42
23 29 38
23 29 38
24 30 39
24 30 39
27 34 44
23 28 37
25 30 39
22 27 35
24 30 39
25 32 41
24 30 39
25 31 41
24 30 39
22 27 35
24 30 40
24 30 39
23 29 37
25 31 39
24 30 39
25 31 40
24 30 38
23 29 38
24 30 39
24 30 39
26 32 41
24 30 39
25 31 40
23 28 37
25 31 40
24 30 38
23 29 37
23 28 37
23 29 38
22 28 36
25 32 41
25 32 41
24 30 39
25 31 40
25 32 41
24 30 38
24 30 39
24 30 40
24 30 39
23 29 38
24 30 40
22 27 35
25 31 40
24 30 39
24 30 39
25 31 40
22 28 37
25 31 41
25 32 41
25 32 42
24 30 39
24 30 38
24 30 40
20 26 34
26 32 41
24 30 40
23 28 37
24 30 39
25 30 39
23 29 37
23 29 38
22 28 36
22 28 36
21 27 35
23 29 38
21 27 35
24 31 41
23 29 38
23 29 38
22 28 37
22 27 35
24 31 40
22 28 37
24 30 39
22 27 36
22 28 36
23 29 38
23 29 38
23 28 36
12 15 19
11 14 18
10 12 16
12 15 19
12 15 19
11 13 17
10 12 16
10 13 16
12 14 18
10 12 15
12 15 19
11 14 18
10 12 16
10 12 15
10 12 16
12 15 19
10 13 17
10 12 16
9 11 15
11 14 17
11 14 18
9 11 14
12 15 19
10 12 15
12 14 18
13 15 19
11 13 16
10 13 16
10 12 15
10 13 16
11 14 18
9 11 14
9 11 15
13 15 19
10 12 16
11 13 17
11 13 17
10 13 17
12 15 19
11 13 17
11 13 17
11 13 17
10 12 16
11 14 17
11 13 17
9 11 14
10 12 15
11 13 17
11 13 16
7 9 12
13 15 19
9 11 14
9 11 14
11 13 17
9 11 14
9 11 15
8 10 13
10 12 16
9 12 15
12 14 18
11 14 18
12 15 19
11 14 18
10 12 15
11 13 17
8 11 14
10 12 16
11 14 17
11 14 17
10 13 16
11 14 17
11 13 16
11 13 17
10 12 15
8 10 14
12 15 19
11 13 17
13 15 19
13 16 20
10 12 16
11 14 18
9 11 14
12 14 18
10 12 15
8 9 12
11 14 18
9 12 15
10 12 16
13 16 20
12 14 18
10 12 15
12 14 18
9 11 14
12 14 18
12 15 19
11 14 17
10 12 15
10 12 16
13 15 19
12 15 19
10 13 16
12 14 18
11 13 17
11 13 17
11 13 17
11 14 18
12 15 19
12 15 19
10 12 16
11 14 18
10 13 16
12 14 18
10 12 16
10 12 16
9 11 15
9 12 15
22 27 34
25 31 40
23 29 37
24 30 39
25 31 40
24 30 38
25 32 41
26 33 42
24 30 39
25 32 42
22 28 37
25 31 40
22 28 36
23 29 38
23 28 37
24 29 37
27 33 43
25 31 41
24 30 40
24 30 40
22 27 35
23 29 37
24 31 40
24 31 40
25 31 40
24 30 38
24 29 38
26 32 42
22 27 35
25 31 41
25 31 40
25 31 40
24 31 40
25 31 40
21 27 35
25 30 39
26 32 42
24 30 39
25 31 41
21 26 34
24 30 39
25 31 40
22 27 35
24 31 40
25 31 41
25 31 40
26 32 41
23 28 37
24 30 39
19 24 30
26 33 42
25 31 41
22 28 37
25 31 40
23 28 37
25 32 41
24 30 39
25 31 40
23 29 38
21 27 34
24 30 39
27 34 45
23 29 37
22 28 36
24 29 38
23 28 37
24 31 40
24 30 39
25 31 41
27 33 43
23 28 37
25 32 41
26 32 41
25 31 40
24 30 39
25 31 41
26 33 43
25 31 40
23 29 38
24 30 39
22 28 37
24 30 40
24 30 38
23 28 36
25 31 40
23 29 38
22 27 36
26 33 43
24 30 40
24 30 40
23 29 38
24 30 39
23 28 37
23 29 37
23 29 37
23 29 38
23 28 37
26 32 42
24 30 40
25 30 39
23 28 36
25 32 41
22 28 37
23 29 38
22 27 35
24 30 39
21 26 35
22 28 36
24 30 39
24 29 38
22 27 35
23 29 38
26 32 42
23 29 37
24 31 41
24 30 40
26 32 42
24 30 39
23 29 37
26 32 41
24 30 39
24 30 40
24 29 38
25 31 41
23 29 37
22 28 37
24 30 39
23 29 38
24 30 39
26 32 42
23 29 38
23 29 38
25 32 42
26 33 44
23 29 38
23 29 38
25 31 41
23 29 38
24 30 39
24 30 39
26 32 41
24 30 38
24 30 39
21 26 33
25 31 41
24 29 38
23 29 38
24 30 39
23 29 38
25 31 41
26 32 42
26 32 42
25 31 41
26 32 42
24 29 38
24 30 39
25 31 40
26 33 42
24 30 39
25 31 41
22 28 37
26 32 42
21 27 35
25 30 39
25 31 40
26 32 41
23 29 37
25 31 41
25 31 40
24 31 41
22 28 36
22 28 36
26 33 44
24 30 39
25 31 41
25 32 42
25 31 40
27 33 43
27 33 43
25 31 40
26 32 41
25 31 41
22 28 37
24 31 40
24 30 38
21 27 35
23 29 38
25 31 40
26 32 41
22 28 37
25 31 40
26 32 41
23 29 37
25 31 40
25 32 41
25 31 41
24 30 39
24 29 38
22 28 36
25 31 41
24 30 39
25 31 40
27 34 44
26 32 41
23 29 39
25 31 40
25 31 40
23 29 38
25 31 41
27 33 43
22 27 36
22 28 37
27 33 43
24 31 40
21 26 33
24 30 39
23 29 38
27 33 43
23 29 38
22 28 37
25 31 40
26 33 42
26 32 41
25 31 40
22 27 36
22 28 36
23 28 37
23 29 37
27 34 44
23 29 39
24 30 39
26 32 41
23 29 37
27 33 43
24 30 39
25 31 40
25 31 41
23 28 37
22 28 36
23 30 39
24 30 39
24 30 39
25 31 40
24 30 39
25 32 42
26 32 41
26 32 42
24 30 39
23 28 36
21 27 35
24 30 39
24 30 39
22 27 35
22 27 35
24 30 39
26 32 42
20 25 33
26 33 43
24 30 39
22 27 36
24 30 39
24 30 39
23 29 38
21 27 36
24 30 39
25 31 40
22 28 37
24 30 39
23 29 38
24 30 39
22 28 36
22 27 36
22 27 36
24 30 39
19 25 33
24 30 39
24 29 38
21 26 34
22 28 36
26 31 40
23 29 37
24 30 39
24 30 38
25 32 41
13 15 20
10 12 15
11 13 17
8 10 13
10 12 15
11 13 17
12 14 18
12 15 19
10 12 16
10 12 16
8 10 13
11 14 18
9 11 15
11 14 18
11 13 17
11 13 17
9 10 13
10 12 16
11 14 18
9 11 15
10 12 16
11 14 17
11 13 17
10 12 15
12 14 18
11 13 17
10 12 15
11 13 16
10 12 16
13 16 20
11 14 17
11 13 17
10 13 16
12 15 18
12 14 18
8 10 13
11 13 17
9 10 13
10 13 16
8 10 13
10 13 17
9 11 15
11 13 17
11 13 17
12 15 18
11 14 17
9 11 15
10 13 16
9 12 15
11 13 17
9 11 14
7 9 11
10 12 16
8 10 13
11 13 17
9 11 14
11 14 17
10 13 16
11 14 17
10 12 16
11 14 18
9 12 15
10 13 16
10 12 15
11 14 17
9 11 13
11 14 18
11 13 17
10 12 16
11 14 18
8 10 13
9 11 14
11 13 16
8 10 13
10 13 16
9 10 13
9 11 14
13 16 20
10 12 15
10 13 16
10 12 16
10 12 15
11 13 16
11 14 18
10 12 15
12 15 19
11 14 17
12 15 19
11 14 17
9 11 15
11 14 18
11 13 17
11 14 17
12 14 18
10 12 15
10 12 15
14 17 22
10 12 15
12 14 18
10 12 15
14 16 21
12 15 19
10 12 15
12 14 18
11 13 17
12 15 19
12 15 19
11 13 17
10 13 17
12 14 18
10 12 16
11 14 17
10 13 16
11 14 17
6 7 9
14 18 23
23 29 38
25 30 39
24 30 40
25 31 41
24 30 38
22 27 36
24 29 37
24 30 39
23 28 36
22 28 36
21 27 35
21 27 35
23 28 37
23 29 38
24 30 40
24 30 39
24 30 39
25 31 40
24 30 40
25 31 40
24 30 39
24 31 40
24 30 39
25 32 41
23 29 38
26 32 41
25 31 40
22 27 36
24 30 39
26 33 42
23 29 38
23 29 38
24 30 40
24 30 39
24 30 40
26 32 42
25 31 41
27 33 43
25 31 40
23 29 38
23 28 37
24 30 39
23 28 37
22 28 36
22 28 36
23 28 37
24 31 40
25 31 41
24 30 38
25 31 40
25 31 41
25 32 42
24 30 39
25 31 41
23 29 38
25 31 40
25 32 42
22 28 37
24 30 39
24 30 38
24 30 39
24 30 39
23 29 37
24 30 38
21 26 34
24 30 39
25 31 40
24 30 39
28 34 44
26 32 42
21 26 35
24 30 39
23 29 38
25 31 41
25 31 41
23 29 38
25 31 40
24 30 39
22 28 37
23 29 37
25 31 40
23 29 39
24 30 39
25 31 40
25 32 41
25 31 40
22 27 36
25 31 41
25 31 40
25 31 41
25 31 41
25 31 40
25 31 40
23 29 38
24 30 39
22 28 36
24 30 39
23 29 37
26 32 42
24 30 39
25 31 40
22 28 36
24 30 39
25 31 41
25 31 40
23 29 38
25 31 40
23 29 37
26 32 41
26 32 42
22 28 37
24 30 40
25 31 40
24 29 38
28 34 44
23 28 36
23 29 39
25 31 40
22 28 37
27 33 43
25 30 39
25 31 41
23 29 38
25 31 40
23 28 37
23 29 39
24 30 39
22 28 38
25 31 40
27 34 44
24 29 38
23 29 39
24 30 39
27 34 44
24 30 39
25 31 41
25 31 41
25 31 41
23 29 38
24 30 38
25 31 40
26 32 42
25 31 40
24 30 40
26 33 43
24 29 38
24 30 38
26 32 41
23 29 37
26 32 41
26 33 43
24 30 39
23 28 37
24 30 39
23 28 37
23 29 37
26 32 42
26 32 41
24 29 38
20 26 34
22 27 36
24 30 39
26 32 42
24 30 39
24 30 39
23 28 37
24 30 40
24 30 39
25 31 40
25 32 41
28 34 45
24 30 39
25 31 40
26 33 42
22 28 37
26 32 43
25 31 40
22 28 37
26 33 43
24 30 40
23 28 36
25 32 42
25 31 40
25 32 42
25 31 40
26 32 42
24 30 39
23 29 37
24 30 39
24 30 39
23 28 37
24 29 37
23 29 38
26 32 42
24 30 39
24 30 39
26 32 41
26 32 42
24 30 39
24 30 38
24 30 40
24 30 39
25 31 40
24 30 39
25 31 40
24 30 39
24 30 39
21 26 34
26 33 42
25 32 41
24 30 39
24 29 38
23 29 38
25 31 41
28 34 45
24 29 38
22 28 36
23 29 37
26 32 41
24 31 40
25 31 40
24 30 39
24 31 40
25 31 41
25 31 40
22 28 37
25 31 41
24 30 38
23 29 38
23 29 38
25 31 41
22 28 38
22 28 36
26 33 43
26 32 42
23 28 36
24 30 39
25 31 40
22 28 36
23 28 37
25 31 40
25 31 40
23 29 38
23 29 38
24 30 39
25 31 40
25 31 41
24 30 39
24 30 40
23 29 38
23 29 38
25 31 40
24 30 39
25 31 40
25 30 39
24 30 39
25 31 41
21 27 35
21 26 33
24 30 38
22 28 37
27 33 43
24 30 39
27 33 43
21 26 34
23 29 38
22 27 35
25 31 40
24 30 39
21 27 34
23 28 36
25 31 40
24 30 39
23 29 38
25 31 40
23 28 36
22 28 36
24 30 39
25 31 41
24 30 40
22 28 37
23 29 38
21 26 34
21 27 35
23 28 36
11 14 17
8 10 13
8 10 13
12 15 20
12 15 19
10 12 16
11 14 18
12 15 19
8 10 13
11 13 16
11 14 18
8 10 13
10 12 15
11 13 16
9 11 14
12 14 18
9 10 13
10 13 16
9 11 14
13 15 20
13 16 19
7 9 11
13 16 20
12 15 19
10 12 15
10 12 16
12 14 18
7 8 11
10 13 17
9 10 13
11 14 18
11 13 17
11 14 18
8 10 13
11 14 18
11 13 16
10 13 16
12 14 19
10 13 16
10 12 15
11 13 16
11 13 17
11 13 16
11 14 18
9 11 15
7 9 12
10 12 15
10 12 15
11 13 17
10 12 16
9 11 15
11 13 16
9 11 14
7 9 12
10 12 15
11 13 17
10 13 16
10 12 16
12 14 18
8 9 12
10 12 16
7 9 11
8 10 13
9 11 14
10 12 15
10 13 16
11 14 17
12 14 18
8 10 13
10 12 16
10 13 16
9 11 14
10 12 16
11 13 17
10 13 16
10 12 16
11 13 17
10 12 15
9 11 14
10 12 16
10 12 15
10 13 16
12 15 19
10 12 15
11 14 18
11 14 17
10 12 15
12 15 19
8 10 13
14 18 22
13 16 20
11 14 18
9 11 14
10 12 16
9 12 15
10 12 15
10 12 15
13 16 21
9 12 15
8 10 13
11 13 17
12 15 19
11 14 18
11 14 17
9 11 15
12 14 18
10 12 16
8 10 13
11 13 16
9 11 14
13 16 21
8 10 13
10 13 16
12 15 19
20 25 33
23 29 38
21 26 33
24 30 39
23 29 38
25 31 41
21 26 35
20 26 35
25 31 40
20 25 33
24 30 39
23 29 37
20 25 33
24 30 39
22 28 36
23 28 37
23 29 37
23 29 38
22 28 36
19 24 32
21 27 34
22 27 36
23 29 37
23 29 36
27 33 43
24 30 39
24 30 39
24 29 38
25 31 41
26 32 41
23 29 38
26 32 42
23 28 37
27 33 43
25 32 41
25 30 39
23 29 38
24 29 38
25 31 40
25 31 40
23 29 37
24 30 40
26 32 42
23 29 39
24 29 38
23 28 37
25 31 40
24 31 40
24 31 40
24 30 39
27 33 43
24 30 39
24 29 38
25 31 41
22 27 35
24 30 40
25 31 40
24 30 39
27 32 41
25 32 41
22 28 35
22 28 37
24 30 39
23 29 37
24 30 39
24 30 38
28 35 46
25 32 42
24 30 39
25 31 40
23 29 37
23 30 39
24 30 38
25 32 41
23 29 37
23 29 39
23 29 38
25 31 41
23 29 38
24 29 38
23 28 35
24 30 39
24 29 38
25 31 40
24 29 37
26 33 42
25 31 41
23 29 38
23 29 38
24 31 40
26 32 41
27 34 44
23 28 37
26 32 42
27 34 44
23 29 37
23 29 38
26 33 42
22 27 35
23 28 37
24 30 40
27 34 44
24 30 38
26 33 42
25 31 40
23 29 37
22 28 36
25 31 41
23 28 37
25 31 40
25 31 40
24 30 39
26 32 42
23 29 38
25 32 41
25 32 43
24 30 40
24 30 39
27 34 44
26 32 42
25 31 40
25 31 40
25 31 41
26 32 41
24 30 38
23 29 38
25 32 41
25 31 41
24 29 38
24 30 40
24 30 39
24 30 39
25 31 40
24 30 39
26 32 42
25 31 40
25 31 40
24 30 39
23 30 39
24 30 40
23 29 38
25 31 40
25 30 39
26 32 42
26 32 42
23 29 37
24 30 38
23 29 38
23 28 37
23 29 37
24 30 39
25 31 41
24 30 39
23 29 38
24 30 40
23 29 38
25 31 41
26 32 42
25 32 41
25 31 41
23 28 36
25 31 41
24 30 39
25 32 41
25 32 41
24 30 39
27 33 43
24 30 40
23 29 38
23 28 37
25 31 41
26 32 42
28 34 45
25 31 40
25 31 40
23 29 38
21 26 33
22 28 36
23 28 37
27 33 44
23 28 37
25 31 40
25 31 40
25 31 40
27 34 44
26 32 42
24 30 39
25 31 41
25 31 40
24 30 39
23 29 37
22 27 36
24 30 39
24 29 38
26 32 41
24 30 40
24 29 38
23 28 37
23 29 38
24 30 39
25 31 40
23 28 37
25 31 40
26 33 43
25 31 41
25 30 39
25 31 41
24 29 38
24 30 39
25 31 40
25 32 41
20 26 33
23 29 38
23 29 37
24 30 39
23 29 39
24 30 39
24 30 39
24 30 39
25 31 40
25 31 41
24 29 38
23 28 37
26 32 42
25 31 40
25 31 40
23 29 38
26 32 42
22 27 35
25 32 41
22 27 36
22 28 37
25 32 41
27 33 43
26 32 42
24 31 40
22 28 36
25 32 41
22 28 36
23 28 37
25 31 40
26 32 41
22 27 36
23 29 37
23 29 38
24 30 38
23 29 37
23 29 37
22 28 37
22 28 37
26 32 42
24 30 39
25 32 41
26 33 42
22 27 36
23 29 37
23 29 38
24 30 39
23 29 38
25 30 39
23 29 38
23 29 38
25 31 40
23 29 38
23 29 38
27 33 43
23 28 36
26 32 41
24 30 39
22 28 37
24 29 38
23 29 37
22 27 35
25 31 41
24 30 40
24 30 39
21 26 33
24 30 39
23 28 37
23 28 37
20 26 33
21 26 34
24 29 38
24 30 39
23 29 38
25 31 39
17 21 27
10 12 15
11 14 17
10 12 16
9 11 13
10 13 16
12 15 19
10 13 16
10 12 15
12 14 18
11 14 18
13 16 20
9 12 15
8 10 13
10 12 15
10 12 15
8 10 13
12 15 19
10 12 15
11 13 17
8 10 13
8 10 12
8 10 13
11 13 16
10 12 16
9 12 15
10 13 16
13 16 20
14 16 21
10 13 16
12 15 19
10 12 15
10 12 15
11 13 17
9 11 14
9 10 13
11 14 17
11 13 17
10 12 16
9 11 13
7 9 12
12 15 19
10 13 16
10 12 15
9 11 13
11 13 16
12 14 18
8 10 13
11 13 17
10 13 16
10 12 15
11 13 17
10 12 15
9 11 15
12 15 19
11 13 17
8 10 12
11 13 17
9 11 14
9 12 15
9 12 15
12 15 19
12 14 18
10 12 16
9 11 14
9 11 13
9 11 13
11 14 18
8 10 13
12 14 18
11 13 17
7 9 12
6 8 10
8 9 12
9 11 15
8 9 12
8 10 13
9 11 14
11 14 18
11 14 18
11 13 17
10 12 15
11 14 18
13 15 20
10 12 16
12 14 18
9 11 14
13 16 20
10 13 16
11 14 18
8 10 12
9 11 14
11 14 18
11 13 17
10 12 16
9 11 14
11 14 17
13 15 20
11 13 17
10 12 16
8 9 12
12 14 18
8 10 13
11 13 17
14 17 21
10 12 16
9 12 15
12 15 19
9 11 14
9 12 15
10 12 15
11 14 17
9 11 14
18 22 29
22 28 36
23 29 38
25 31 40
21 27 35
21 26 34
23 29 37
24 30 39
23 29 38
24 29 38
22 27 36
21 27 35
22 28 36
22 28 36
23 28 36
21 26 34
23 29 39
23 29 38
24 30 39
23 29 38
24 30 39
23 29 37
22 27 35
24 29 38
21 27 35
26 32 40
23 29 38
22 28 36
24 30 40
23 29 37
25 31 41
25 31 40
24 30 39
23 29 37
23 28 36
25 31 41
24 30 39
25 32 41
24 30 39
26 33 42
26 32 42
21 27 35
24 30 39
25 30 39
24 30 40
24 30 39
25 31 41
26 32 41
22 28 37
23 29 37
24 30 39
24 29 38
23 28 36
24 31 40
24 30 38
25 31 40
24 29 38
22 28 37
25 31 40
21 26 34
21 27 35
26 32 41
24 30 39
23 29 39
23 29 38
21 27 35
23 29 38
27 33 43
25 31 40
22 28 36
24 31 40
27 33 43
25 31 40
26 32 41
22 27 36
25 32 41
27 33 42
23 28 37
25 31 40
25 31 40
23 29 37
26 33 42
24 29 37
27 33 44
25 31 41
23 29 37
25 31 40
27 33 43
25 32 41
25 31 40
22 28 36
23 28 36
20 25 33
24 30 39
26 32 42
25 31 40
24 30 40
25 31 40
22 27 35
24 30 40
25 31 41
24 30 39
24 30 39
27 34 44
22 28 36
26 33 42
22 28 37
25 32 42
23 29 37
25 31 40
24 30 39
24 30 39
24 30 39
23 29 38
24 30 39
25 31 39
25 31 41
24 30 40
25 31 40
24 30 39
23 29 38
22 27 36
23 29 37
24 30 39
23 29 38
25 31 40
24 29 38
23 29 38
25 31 41
25 31 40
26 32 41
23 29 38
22 28 36
23 29 38
24 30 38
23 29 38
23 29 38
24 31 41
25 31 40
24 30 40
20 25 33
25 31 40
24 30 40
24 31 40
24 30 38
25 31 40
24 30 39
23 29 37
24 30 39
26 32 42
24 30 39
23 29 38
25 31 40
25 32 41
26 32 41
24 29 38
25 31 41
24 30 40
24 30 39
25 31 41
24 30 39
23 29 37
24 30 39
24 31 40
22 28 36
22 28 36
26 32 41
28 35 45
23 29 38
25 31 40
26 32 41
25 31 39
24 30 40
26 32 42
25 31 40
26 31 40
24 30 40
24 30 40
26 32 42
24 29 38
27 33 43
27 33 43
23 29 38
24 30 39
25 31 40
23 29 37
24 30 39
24 30 38
27 34 44
25 32 42
26 33 43
25 31 40
22 28 36
24 30 39
23 29 38
24 30 39
24 30 39
25 32 42
24 30 38
26 32 43
23 29 37
27 33 42
24 30 40
22 27 36
26 32 42
23 29 38
24 30 39
24 30 39
25 32 42
25 32 41
22 27 36
23 28 36
25 31 41
23 29 37
24 30 38
24 29 38
24 29 38
25 31 40
22 27 35
25 31 41
24 30 38
23 29 37
26 32 42
23 29 38
23 29 38
25 31 41
23 29 38
24 30 39
25 31 41
22 27 34
24 30 39
25 31 40
23 30 39
24 30 39
22 28 37
23 28 36
24 30 39
23 29 38
25 31 40
25 31 40
23 29 38
23 28 36
23 29 37
28 34 44
24 31 40
22 28 37
23 28 36
20 25 32
25 31 41
25 31 41
26 33 42
22 28 37
24 29 38
24 30 39
23 29 38
21 26 34
23 29 37
20 26 34
24 31 40
23 28 36
21 27 35
24 30 38
24 30 39
24 30 38
25 31 39
23 29 37
21 26 34
24 30 38
23 29 37
23 28 37
25 31 40
23 29 37
24 29 38
26 32 41
23 29 38
20 25 33
22 27 35
24 30 40
22 27 35
25 31 41
22 28 37
22 27 35
25 31 40
23 28 37
20 25 33
24 29 38
22 27 35
22 27 35
13 16 20
9 11 14
10 12 16
11 14 17
12 14 18
7 8 10
9 11 14
11 14 18
12 14 18
13 16 21
8 10 13
10 12 16
12 14 18
12 15 18
11 14 18
11 14 18
11 14 17
11 14 18
11 14 18
9 10 13
10 13 17
11 13 17
11 13 17
11 13 17
12 15 19
9 11 14
10 12 16
11 13 16
11 14 17
9 11 14
10 13 16
9 11 14
12 15 19
10 13 16
11 13 17
12 14 18
13 16 20
12 14 18
10 13 16
13 16 20
11 13 17
10 12 16
11 14 17
10 12 15
12 14 18
11 14 17
10 13 16
8 10 12
10 12 15
12 14 18
7 9 12
8 10 12
11 14 18
9 11 14
8 10 12
8 10 13
10 12 16
11 13 17
8 9 12
9 11 14
7 9 11
11 14 17
9 11 15
12 15 19
10 13 16
8 9 12
12 14 18
10 12 15
12 14 18
10 12 15
9 12 15
10 12 15
10 12 16
12 14 18
9 11 14
11 14 17
9 12 15
12 14 19
12 15 19
8 9 12
9 11 14
11 13 17
10 12 15
11 14 18
12 15 20
8 10 13
12 15 19
11 14 17
11 14 18
11 13 17
9 12 15
9 12 15
8 10 13
15 18 23
10 12 15
10 12 15
11 13 17
9 11 14
9 11 14
10 12 16
10 12 15
12 15 19
12 15 18
10 12 16
11 14 17
11 13 17
10 12 15
9 11 14
10 12 15
9 11 14
8 10 13
10 12 15
23 29 37
23 28 37
23 29 38
24 30 39
19 24 32
24 30 38
22 28 37
25 31 40
22 28 36
24 29 38
21 27 35
25 30 39
23 29 37
22 27 35
23 29 37
22 28 36
25 30 39
22 27 35
22 28 36
23 29 38
23 29 37
23 29 38
23 29 37
26 32 42
24 30 39
23 28 37
26 32 41
23 29 38
26 32 41
22 28 36
21 27 34
22 27 35
22 28 36
23 29 37
25 30 39
22 27 35
25 31 40
25 31 41
25 31 41
26 32 42
27 34 45
25 31 40
24 30 39
24 30 39
25 31 40
23 28 37
25 31 40
24 30 39
25 31 40
23 29 38
25 32 42
23 29 38
25 31 40
25 32 41
25 31 40
23 29 37
23 29 38
24 30 39
24 29 38
23 29 37
22 27 36
25 31 40
24 30 39
25 31 40
26 32 42
25 31 40
24 29 38
23 29 37
24 30 40
25 31 40
23 29 37
23 28 37
26 33 42
25 32 41
23 29 37
24 29 38
24 30 38
24 31 40
24 29 38
24 30 40
24 30 39
23 28 37
24 31 40
24 30 39
27 34 44
24 29 37
24 30 39
26 32 41
26 32 41
26 32 42
24 30 38
22 28 37
24 31 40
25 31 41
24 31 41
25 32 42
24 30 39
25 32 41
23 28 37
24 30 39
25 31 41
24 31 40
24 31 40
23 29 38
25 31 41
26 33 43
23 29 38
25 31 40
23 29 37
25 31 40
24 30 38
25 31 41
25 32 41
23 28 37
26 32 41
25 31 40
24 30 39
26 32 42
25 31 41
23 29 38
24 31 41
26 32 41
27 34 44
26 33 43
24 29 37
25 31 41
25 32 41
23 29 38
24 29 38
23 28 36
23 29 39
25 31 41
24 30 40
24 30 39
25 30 39
21 26 34
26 32 42
24 30 38
24 30 39
26 32 41
24 29 38
25 31 41
24 29 38
27 33 44
23 29 37
25 31 41
24 29 38
26 32 42
23 28 37
24 30 40
24 30 38
26 32 41
23 29 38
25 31 40
25 31 40
25 31 41
27 33 43
26 32 41
24 30 40
23 28 37
24 30 40
26 32 41
24 30 39
24 30 39
23 29 38
21 26 34
25 31 40
25 31 41
23 29 37
25 31 40
26 32 42
24 30 39
24 30 40
25 32 41
24 30 39
25 31 40
25 31 41
24 30 40
21 26 33
25 32 41
24 30 39
24 31 40
26 32 41
24 30 39
23 29 38
23 29 37
22 28 36
24 30 39
22 28 36
23 29 38
26 32 42
26 32 42
26 32 41
23 29 38
24 30 38
25 30 39
24 30 38
24 29 38
24 30 39
23 30 39
23 29 37
23 29 38
25 32 41
25 31 40
23 28 37
22 28 37
21 26 34
23 29 38
23 28 37
25 32 41
24 30 40
22 28 37
25 31 39
23 29 38
22 28 36
22 28 36
23 29 38
25 31 39
24 30 39
25 31 40
23 29 37
22 27 35
24 29 38
25 31 40
25 31 41
25 31 40
23 28 36
24 30 39
25 31 40
24 30 39
23 28 36
26 33 43
23 29 37
25 31 41
23 29 38
24 29 38
23 29 38
24 29 38
23 29 38
24 30 39
23 29 38
24 29 38
25 30 39
23 28 37
25 31 40
24 30 39
25 31 40
23 29 38
23 29 37
22 27 35
23 29 37
25 31 41
23 29 38
23 29 38
24 30 38
24 30 39
24 29 38
24 30 39
25 31 40
24 29 37
22 28 36
24 29 38
25 30 39
22 28 36
24 30 39
21 26 34
22 28 36
24 30 39
24 31 40
22 28 36
25 31 41
24 30 38
21 26 34
22 28 36
23 29 37
19 24 31
23 28 36
22 28 36
23 29 38
24 30 38
22 27 35
23 29 37
22 28 36
23 28 37
26 32 42
21 27 35
23 28 36
20 25 33
19 23 30
14 17 22
11 13 17
13 16 20
9 11 15
9 11 14
10 12 15
10 13 16
9 11 14
10 12 15
10 12 16
15 18 22
10 12 15
8 10 12
14 17 22
11 13 17
9 11 14
10 13 16
10 13 16
8 10 13
10 12 16
10 13 16
11 13 17
12 15 18
11 13 17
10 12 15
9 11 14
11 13 17
11 14 17
9 12 15
11 13 17
12 14 18
13 15 19
8 10 13
13 15 20
10 12 15
8 10 13
10 12 16
12 15 19
12 14 18
13 16 20
11 13 17
11 13 17
10 13 16
11 14 17
13 16 21
9 11 15
11 14 18
9 11 14
9 12 15
8 10 13
8 10 13
10 12 16
9 11 14
10 13 16
7 9 11
6 8 10
11 13 16
13 16 20
10 13 16
10 12 15
7 9 11
7 9 12
9 11 13
11 13 17
12 14 18
12 15 18
11 13 17
11 13 17
8 9 12
11 13 17
11 14 17
11 13 17
10 13 17
12 15 20
10 12 16
7 8 10
9 11 14
9 11 14
10 12 16
10 12 15
11 13 17
10 13 16
11 13 17
12 14 18
10 12 15
9 12 15
11 14 18
10 12 16
14 17 21
9 12 15
12 14 18
8 10 13
10 12 15
10 12 16
10 12 16
12 15 20
10 13 16
12 14 17
9 11 14
11 13 17
10 12 15
9 11 14
9 11 14
9 11 14
11 13 17
8 10 13
8 10 12
11 14 17
11 13 17
9 11 14
19 23 30
25 31 39
24 29 38
22 28 36
24 30 39
22 28 37
23 28 37
24 30 39
21 26 33
22 28 36
24 30 40
23 29 38
23 28 36
21 27 35
24 30 39
23 29 37
21 27 35
23 29 38
24 30 39
22 28 36
22 28 37
25 31 40
23 28 37
23 28 37
23 28 37
23 29 39
23 29 38
24 30 39
22 28 36
23 29 38
22 27 35
21 26 34
26 32 42
24 30 39
24 30 39
21 27 35
24 29 38
25 30 39
23 29 38
24 30 38
23 29 38
25 31 40
24 31 41
24 30 38
25 32 41
23 29 38
26 32 41
23 28 36
25 31 40
24 30 39
25 31 41
25 30 39
23 29 38
25 31 41
24 30 38
24 30 39
24 30 39
23 29 38
24 29 38
24 30 38
24 29 38
25 31 40
21 27 35
24 30 39
25 31 40
23 28 36
22 28 37
23 29 37
25 31 40
24 29 38
22 28 36
23 28 37
24 30 40
24 30 39
24 30 40
25 31 40
24 30 39
24 29 38
23 29 38
24 31 40
24 30 39
22 28 37
26 33 42
22 27 35
23 28 37
24 30 38
22 27 35
23 29 38
27 33 43
23 28 36
25 31 40
23 29 38
22 28 37
25 31 40
24 30 39
26 32 41
26 32 42
23 28 37
24 30 38
25 32 41
25 31 41
24 30 39
26 32 41
24 30 39
24 30 39
23 29 39
27 34 44
26 32 42
25 31 41
24 30 39
25 32 41
25 30 39
25 31 40
25 31 40
24 30 39
24 31 40
23 29 38
22 28 36
26 32 42
25 31 40
25 32 41
24 30 39
23 29 37
24 30 39
24 30 39
25 31 40
24 30 38
23 29 38
22 27 35
25 31 40
24 30 39
23 29 38
25 31 41
24 30 40
26 33 43
23 29 38
26 32 42
24 29 38
26 33 42
24 30 39
24 30 39
24 30 39
24 30 39
23 29 37
22 28 36
24 30 39
23 29 38
24 30 40
24 29 38
23 28 37
24 30 40
21 27 35
23 29 38
23 29 38
25 31 40
24 30 38
25 31 40
25 31 40
23 29 38
23 29 38
24 30 39
26 32 42
27 34 44
25 31 40
25 31 41
24 30 39
25 31 40
24 30 39
26 32 41
25 31 41
25 31 40
26 32 42
24 30 40
24 30 39
25 32 41
23 29 38
25 31 40
23 29 38
24 30 39
22 28 36
25 31 40
24 30 38
26 32 41
23 29 37
24 31 40
24 30 39
23 29 37
24 30 39
25 31 41
24 30 39
24 30 38
24 30 39
21 27 34
27 33 42
25 31 41
25 31 40
23 29 37
24 30 39
22 28 36
25 31 41
23 29 38
23 29 38
22 28 36
23 28 37
23 29 37
26 32 42
23 28 37
25 31 40
26 33 44
24 30 39
21 27 35
24 30 39
24 29 38
26 32 42
26 32 41
20 26 34
23 29 37
26 33 42
22 28 37
23 29 38
23 29 37
22 28 37
24 30 39
22 27 35
26 32 41
24 30 39
26 32 42
23 29 37
26 33 43
24 29 37
24 31 40
24 31 40
21 26 34
24 29 38
25 30 39
20 25 32
22 28 36
25 31 40
24 30 39
24 31 40
24 30 40
22 27 36
22 28 36
23 28 36
22 28 36
25 31 41
22 28 37
24 29 37
24 30 39
25 31 40
21 26 34
21 27 35
23 29 38
23 29 38
22 27 36
24 30 39
23 29 38
25 31 40
23 29 38
25 32 41
24 30 39
20 25 32
25 30 39
24 29 38
22 28 36
21 26 35
21 26 34
22 27 35
22 28 36
23 28 37
22 26 34
24 30 39
25 31 40
23 28 36
21 26 34
24 29 38
22 28 36
23 29 37
19 24 32
22 28 36
21 27 35
24 30 39
23 29 38
19 24 31
25 31 41
24 29 38
23 29 38
23 29 37
20 25 33
21 26 34
13 15 19
11 13 17
11 13 17
9 11 14
7 9 11
10 12 16
14 17 22
9 11 15
12 15 19
9 11 14
10 12 15
10 12 16
13 15 19
11 14 17
11 13 17
11 13 16
10 12 16
9 11 14
9 11 13
11 13 17
9 11 14
12 14 18
9 11 15
10 12 16
8 10 13
12 14 18
9 11 15
9 11 14
8 10 14
10 12 15
8 9 12
11 14 18
12 14 18
8 10 13
10 12 16
11 13 17
10 12 16
10 13 16
12 14 18
10 12 15
11 14 17
11 13 17
7 8 11
10 13 16
12 15 18
11 14 18
11 14 17
8 9 12
9 11 14
10 12 15
11 13 17
10 12 16
10 13 16
9 12 15
11 14 17
9 11 14
10 12 16
9 11 15
10 12 15
7 9 12
9 11 14
8 10 12
12 14 18
9 11 13
10 12 15
10 13 16
9 11 14
8 10 13
9 11 13
8 10 13
11 13 17
9 11 14
10 13 16
9 11 14
13 16 20
10 12 15
9 11 14
10 13 17
10 12 15
11 13 16
9 11 13
11 14 18
12 15 20
8 10 13
11 13 17
9 11 14
10 13 16
10 12 15
10 12 16
9 11 14
7 9 11
9 11 15
9 11 14
8 10 12
13 15 19
10 13 16
11 13 17
9 11 15
11 13 16
11 14 17
9 11 14
9 11 14
10 12 15
10 12 15
10 12 16
7 9 12
10 12 16
9 11 14
11 13 16
12 14 18
22 28 36
24 30 39
23 29 37
23 29 39
19 24 32
22 27 35
23 28 37
26 32 41
21 26 34
24 30 39
23 28 37
23 29 38
24 31 40
23 29 38
23 29 38
21 26 34
24 30 39
22 28 36
24 30 39
24 30 39
22 27 36
22 27 35
26 33 43
22 27 36
23 29 39
23 29 38
24 30 39
20 25 33
22 27 35
21 26 35
25 32 42
25 31 41
24 31 40
24 30 40
24 30 39
24 29 38
24 30 39
22 27 36
24 30 38
24 30 40
24 29 38
25 31 40
24 30 39
25 32 42
24 30 39
23 29 39
21 27 35
24 31 40
24 29 38
23 29 37
23 29 37
25 32 41
25 32 42
25 31 41
23 29 38
23 30 39
24 29 38
23 29 37
23 29 37
19 24 32
23 29 37
22 28 37
26 32 42
25 31 41
25 30 39
22 28 37
26 32 42
25 31 41
23 29 37
26 33 42
23 29 38
24 30 39
24 30 39
23 29 37
21 27 34
23 28 37
22 27 35
23 29 38
23 28 36
24 30 40
23 28 36
26 32 41
23 29 37
26 33 42
25 32 41
25 31 40
26 33 43
26 32 41
23 29 37
25 31 41
25 31 41
21 26 34
24 30 39
24 30 38
25 31 41
25 31 40
23 29 38
26 33 42
23 29 39
23 29 37
23 29 38
22 28 36
23 30 39
23 29 37
23 29 38
23 29 37
25 32 42
24 30 38
24 30 39
26 32 41
28 34 44
24 30 39
25 31 40
23 29 38
25 32 41
25 31 40
24 30 39
25 31 41
22 27 36
26 32 42
24 30 39
25 31 41
25 31 40
25 31 40
24 29 37
26 33 43
27 33 43
23 29 37
25 32 41
25 31 40
22 27 35
23 28 37
23 30 39
24 30 40
24 30 39
26 32 42
27 34 44
23 28 36
24 30 39
24 30 40
23 29 38
25 31 41
23 29 38
24 30 39
24 30 39
24 30 39
22 28 37
26 33 42
25 31 41
25 31 39
24 30 39
26 32 41
25 31 40
23 28 37
25 30 39
23 29 38
24 30 39
25 31 41
25 31 41
26 33 43
25 31 40
25 31 40
24 30 39
26 33 42
26 32 42
23 29 39
23 28 37
22 27 36
23 29 37
25 31 40
23 29 37
25 31 40
27 33 43
24 30 39
24 30 39
24 30 39
24 30 38
25 31 40
24 30 39
24 30 39
24 30 40
22 28 37
24 29 38
25 31 40
24 30 39
25 31 40
28 35 45
24 30 39
23 29 38
24 30 39
24 30 39
23 29 37
24 30 40
22 28 36
23 28 37
26 32 41
24 30 39
25 31 41
24 30 39
26 32 41
23 29 38
25 31 40
25 31 40
25 31 41
24 29 38
25 31 40
26 32 42
25 32 41
24 30 39
22 28 36
23 28 37
24 30 39
22 27 35
23 29 37
25 32 41
22 27 35
24 30 39
23 29 37
24 30 40
22 28 37
23 29 37
25 31 40
26 32 42
25 30 39
24 30 39
24 30 39
24 29 38
22 28 36
23 29 37
23 29 37
23 29 38
25 31 40
24 30 40
23 28 36
25 31 40
21 26 34
22 27 36
21 27 35
22 27 36
24 30 40
20 26 33
25 30 39
23 29 38
24 30 39
22 27 35
23 29 38
24 31 40
23 29 38
24 31 40
24 29 38
25 31 40
26 32 42
22 27 36
23 29 37
25 31 40
24 30 39
25 31 41
23 28 36
21 26 34
24 29 38
23 29 38
23 29 37
24 29 38
20 25 33
24 30 40
22 27 36
22 27 35
23 28 36
21 26 34
21 27 34
23 29 37
22 27 35
25 31 41
21 27 34
22 27 35
24 30 39
25 30 39
20 25 33
22 28 36
26 33 42
23 28 36
22 27 36
24 30 39
18 23 30
22 28 37
21 27 35
21 26 34
21 27 35
20 25 33
25 31 41
16 21 27
8 10 13
11 13 17
13 16 21
10 12 15
8 10 13
8 10 13
9 12 15
12 15 18
12 14 18
6 7 10
11 14 17
11 13 17
9 12 15
11 13 17
10 12 15
6 7 10
11 14 17
9 11 15
12 14 18
10 12 15
7 8 11
12 15 19
14 16 21
10 12 16
10 12 15
9 11 14
11 14 18
7 9 11
10 12 15
10 12 16
11 13 17
6 8 10
9 12 15
9 11 13
12 15 19
10 12 15
12 15 19
11 13 17
9 11 14
12 14 18
9 11 14
12 14 18
8 10 13
12 14 18
11 14 18
11 13 17
8 10 13
8 9 12
10 13 16
9 11 13
12 15 19
11 14 17
10 12 15
10 12 15
11 14 17
10 12 16
8 10 13
9 11 14
8 9 12
11 13 17
11 14 18
9 11 15
10 12 15
10 12 15
9 11 14
10 12 15
7 9 12
10 13 16
10 13 16
9 11 14
12 14 18
11 13 16
11 13 17
9 11 14
9 11 14
7 9 12
10 12 15
11 14 18
10 13 16
10 13 16
10 13 16
10 12 15
10 13 17
11 13 16
11 13 17
12 14 18
16 19 24
10 12 16
12 14 18
9 11 14
13 15 20
10 13 16
9 10 13
9 11 14
9 11 14
9 11 14
11 14 17
8 10 13
11 14 17
11 13 17
10 12 15
10 12 16
10 13 16
11 13 16
8 10 13
9 11 14
10 12 15
12 14 18
20 25 33
22 27 35
22 28 37
22 28 36
23 29 37
24 30 39
23 29 37
22 27 35
23 28 37
21 26 34
23 29 37
24 31 40
24 30 40
21 27 35
23 29 37
22 27 35
22 28 37
24 30 40
22 27 36
23 29 37
22 27 35
23 29 37
23 29 37
24 31 40
24 30 39
23 29 38
22 28 37
24 30 38
22 27 36
23 28 37
24 31 40
22 28 36
24 30 38
23 29 37
23 29 37
23 29 37
23 28 37
24 30 39
23 29 37
23 29 38
22 27 35
23 28 36
25 31 41
22 28 36
27 33 42
23 29 37
22 28 36
21 26 34
25 31 41
22 28 37
22 27 35
23 29 38
24 29 38
24 30 39
23 29 38
24 30 39
23 29 37
24 30 39
26 32 42
21 26 33
27 33 42
23 28 36
24 30 39
23 29 38
24 30 38
22 27 36
23 29 37
24 29 38
24 30 39
24 30 40
21 26 34
24 30 39
23 28 37
25 32 41
24 30 39
23 29 38
24 30 39
26 33 43
24 30 39
25 31 40
25 31 41
26 33 42
23 28 36
24 30 38
24 30 40
23 29 39
25 31 40
24 30 39
25 32 41
23 29 38
25 32 41
25 31 40
24 30 39
24 30 39
22 28 37
24 30 38
23 29 37
24 30 39
25 31 40
25 31 41
26 33 43
24 30 39
25 31 41
24 30 39
24 30 39
24 31 41
25 31 41
23 29 38
26 32 42
26 32 42
22 28 36
21 26 34
24 31 40
23 29 37
24 30 39
25 31 40
23 29 37
24 29 38
22 28 37
25 32 42
24 29 38
25 31 41
23 29 38
25 31 40
23 29 38
24 30 39
24 31 40
26 33 43
24 30 39
22 28 36
24 29 38
22 27 35
23 29 37
24 29 38
22 28 37
25 31 41
27 34 44
24 30 39
27 34 44
25 31 40
24 30 40
25 31 41
26 33 42
25 31 40
23 29 39
24 30 38
27 34 44
24 30 39
25 31 40
25 31 40
25 31 40
25 32 41
23 29 38
22 27 36
21 27 35
24 30 39
25 31 41
25 31 41
25 32 42
24 30 40
26 32 42
25 31 40
25 31 41
24 29 38
26 33 42
26 33 43
25 31 40
22 28 36
22 28 37
24 30 39
25 31 40
21 26 34
24 30 39
26 33 42
24 30 40
24 30 39
23 28 36
25 31 40
22 27 35
24 30 39
26 33 42
24 30 39
25 31 40
24 30 39
26 33 42
24 30 39
24 30 39
24 30 39
26 32 42
25 32 41
27 34 44
25 31 40
26 32 41
22 28 36
25 32 41
25 31 40
25 30 39
26 32 42
25 31 41
24 29 38
26 32 42
25 31 40
25 31 40
25 31 41
24 30 39
20 25 33
23 28 37
23 29 38
26 32 42
22 28 36
24 29 38
24 30 38
24 30 39
22 28 36
23 28 37
26 32 41
23 29 37
24 30 39
20 25 32
25 31 40
24 30 39
24 30 39
26 32 42
26 32 42
25 31 41
25 31 40
22 28 37
25 32 41
20 26 34
25 31 40
24 30 39
21 27 34
22 27 36
21 27 34
24 30 40
25 31 40
21 27 35
24 30 39
22 28 36
25 31 40
25 31 40
22 28 36
21 27 36
24 30 39
22 27 36
25 31 40
20 26 34
21 27 35
25 31 40
20 25 32
21 26 34
21 27 35
21 26 33
25 32 42
23 28 37
23 29 38
24 30 39
24 30 39
25 31 40
26 33 43
23 29 37
21 27 35
25 31 41
22 27 36
23 29 38
22 27 35
24 30 39
23 29 37
24 30 39
21 26 34
23 28 37
22 27 36
22 28 36
17 21 28
22 27 35
21 26 34
25 32 41
24 29 38
24 30 39
23 29 38
24 30 39
20 25 32
22 27 35
21 27 35
24 29 37
21 27 35
23 29 37
20 25 33
23 28 37
22 28 36
23 28 36
24 30 39
19 24 30
8 10 13
10 12 15
9 11 14
12 14 18
9 11 15
9 10 13
9 11 15
10 12 15
10 12 16
11 13 17
13 16 20
12 14 18
11 13 16
9 11 14
11 14 18
11 13 17
8 10 13
8 10 13
11 13 16
11 13 17
16 19 24
12 15 19
12 14 18
8 10 13
10 12 16
11 13 17
13 16 21
11 13 17
10 12 16
9 11 14
9 11 14
10 12 15
10 12 15
10 13 17
11 13 17
11 13 17
11 13 17
9 11 14
9 12 15
9 11 14
13 16 20
10 12 15
9 12 15
11 14 17
13 16 20
10 12 15
9 11 13
8 10 13
12 15 19
9 11 14
12 14 18
10 13 17
11 13 17
11 14 18
9 12 15
8 10 13
10 12 15
12 15 19
10 12 15
9 11 14
10 12 16
8 10 13
11 13 16
9 12 15
13 15 19
9 10 13
11 14 18
11 14 17
13 16 20
9 11 14
10 12 15
7 9 12
11 14 18
10 13 16
12 15 19
10 12 16
10 12 16
9 11 14
15 18 22
11 13 16
9 12 15
9 11 15
12 15 19
10 11 14
12 15 19
8 10 12
10 12 16
10 13 16
8 10 13
9 11 14
12 14 18
11 14 17
11 14 17
9 11 14
10 13 16
12 15 19
11 13 16
11 14 17
10 12 16
13 16 19
10 12 15
9 11 14
9 11 14
9 11 14
9 11 14
9 10 13
18 22 29
23 28 37
21 26 34
21 26 33
21 26 34
22 28 36
24 29 38
20 25 32
21 26 34
22 27 35
24 30 39
22 27 35
22 27 36
25 32 42
21 26 35
23 28 37
24 30 39
23 28 37
25 31 40
22 27 35
22 28 37
21 27 34
23 29 38
24 30 39
23 28 37
21 27 35
25 31 40
22 28 36
22 28 36
23 29 38
24 30 38
22 27 36
22 28 36
21 27 36
24 30 39
24 30 39
22 27 36
23 29 38
23 29 37
23 29 38
24 29 38
24 30 38
22 27 35
23 29 38
23 29 38
22 28 37
25 31 40
23 28 37
21 26 35
23 29 39
24 30 39
22 27 35
22 28 36
21 26 33
25 32 41
21 26 33
24 30 38
23 28 37
24 29 38
23 29 38
24 30 39
23 28 37
22 27 35
23 29 38
25 31 41
25 31 40
23 29 37
26 32 42
22 28 36
24 30 38
21 26 35
23 29 37
23 29 37
22 28 37
24 29 38
22 28 36
25 31 40
22 28 36
23 29 38
22 27 36
25 31 40
26 33 42
23 28 37
24 30 39
22 28 36
26 32 42
25 31 40
26 33 42
22 28 36
24 30 39
24 30 39
25 31 40
26 33 42
22 27 36
26 32 41
26 32 42
25 31 40
22 27 35
26 32 41
25 31 41
25 31 40
25 32 41
25 31 41
24 30 39
24 31 40
24 30 38
25 31 40
23 29 37
24 30 39
26 33 43
23 29 37
25 31 40
25 31 41
24 29 38
25 30 39
26 32 42
25 31 40
24 30 39
26 31 40
23 29 38
25 31 40
23 28 37
26 32 42
24 30 38
25 31 41
25 31 40
23 29 38
25 31 40
23 29 37
23 29 38
23 29 38
25 31 39
24 30 38
24 30 39
26 32 42
26 33 43
24 31 40
22 28 36
23 28 37
24 29 38
22 27 35
25 31 40
22 28 37
25 31 40
24 30 39
25 31 41
26 33 43
26 32 42
26 32 42
22 28 36
24 30 38
24 30 39
25 31 40
23 29 38
21 27 35
26 33 42
26 33 43
24 30 39
25 31 40
26 32 42
26 32 42
22 27 34
24 30 40
26 32 41
25 31 41
23 29 37
24 31 40
24 30 39
25 31 41
23 30 39
24 31 40
23 28 36
23 29 38
21 26 33
25 31 41
23 29 38
26 32 42
24 30 38
24 30 39
24 30 40
22 27 36
24 30 39
24 30 39
23 29 38
26 32 42
25 31 41
25 32 42
22 27 34
24 31 40
22 28 36
26 32 41
24 29 38
24 30 40
24 30 39
24 30 39
26 32 42
25 31 40
24 31 40
27 33 42
23 29 37
22 28 36
23 28 37
24 30 39
21 27 36
25 31 40
25 32 42
26 33 42
24 30 39
25 31 40
22 27 35
23 29 37
25 32 41
25 31 40
24 30 39
23 28 37
26 33 43
25 32 43
26 33 43
23 29 38
24 29 38
24 30 39
24 30 39
24 30 39
25 32 41
23 28 36
22 28 36
27 33 44
24 29 38
25 31 41
22 28 36
24 30 39
23 29 38
20 26 33
26 33 42
25 31 40
25 32 41
22 28 36
22 28 36
22 28 37
23 28 37
23 29 37
22 28 37
23 29 37
23 30 39
23 29 38
23 29 37
24 29 38
22 28 36
23 28 37
22 27 36
24 30 39
24 30 38
25 31 41
24 30 39
22 27 36
23 28 37
24 30 40
23 29 38
22 28 36
25 32 41
24 30 40
23 28 36
21 26 33
23 29 38
22 27 35
21 26 34
23 29 37
23 29 37
20 25 33
21 27 36
22 27 35
21 26 34
23 29 38
23 28 36
22 27 35
18 23 30
20 25 33
19 23 30
23 29 37
19 24 31
23 29 37
19 25 32
21 27 34
22 27 36
22 27 36
19 24 32
22 27 35
23 29 37
21 26 34
21 27 34
21 26 34
21 26 34
21 26 35
19 24 31
13 16 21
7 9 11
9 11 14
11 13 17
7 9 12
11 14 17
10 12 16
12 15 19
10 12 15
9 11 14
7 9 12
8 10 13
9 11 14
11 14 18
11 14 17
10 12 15
9 11 14
10 13 16
10 12 15
10 12 16
11 14 17
8 10 12
9 11 14
9 11 14
10 12 15
13 15 19
10 13 16
11 13 17
8 10 12
12 14 19
10 12 15
9 11 14
11 13 17
10 12 15
11 14 18
9 11 14
10 12 15
11 13 17
10 13 16
10 12 16
9 11 14
12 15 19
10 13 16
11 14 17
8 10 13
12 15 19
11 14 17
9 11 13
13 16 20
9 11 14
10 12 15
10 12 16
9 11 15
8 10 12
11 14 18
8 10 13
11 13 16
10 12 16
8 10 13
8 10 13
7 9 12
10 12 15
10 13 16
11 13 17
10 13 16
11 13 17
10 12 16
10 12 16
9 11 14
11 14 17
10 12 15
11 13 17
9 11 14
13 15 19
8 10 13
8 10 13
10 12 16
8 10 12
9 11 14
9 12 15
9 11 14
11 13 17
11 13 17
9 11 14
11 13 17
10 12 16
10 13 16
8 10 12
10 12 15
10 12 15
9 11 13
9 11 14
11 14 17
11 14 17
8 9 12
9 11 14
8 10 13
10 12 16
9 11 14
11 13 16
7 8 10
8 10 13
13 15 19
10 12 15
11 14 17
14 17 22
23 28 36
23 29 38
21 27 35
22 28 37
22 27 36
21 26 34
21 26 34
19 24 31
21 26 33
22 28 36
25 31 40
22 28 37
23 28 37
21 27 35
24 30 39
21 27 34
21 26 34
25 32 41
22 28 36
24 30 38
22 28 36
24 29 38
21 26 33
22 27 36
23 28 37
22 27 34
22 27 36
22 28 36
27 33 44
25 31 40
24 30 40
24 29 38
20 25 33
24 31 40
25 31 41
24 29 37
21 27 35
25 31 41
20 26 34
23 29 39
23 28 36
22 27 35
22 28 36
22 28 36
24 30 40
23 29 37
25 31 40
23 29 39
22 28 36
23 29 37
24 30 38
23 28 37
22 28 36
24 30 39
23 29 38
23 29 38
23 29 38
23 29 38
22 27 35
26 32 41
21 26 34
22 27 35
21 27 35
22 28 37
25 31 41
21 27 35
24 30 38
25 30 39
26 32 42
24 30 40
24 30 39
24 30 38
23 29 38
23 29 37
26 32 42
23 29 38
25 31 40
22 28 36
24 30 38
24 30 39
26 33 43
24 31 40
24 30 39
23 30 39
24 30 39
24 30 39
22 28 36
23 29 37
27 33 43
25 31 41
25 32 41
24 30 39
22 27 36
22 28 37
26 32 42
24 30 39
24 30 39
22 27 35
26 33 43
25 31 41
25 31 41
25 31 41
26 32 42
25 31 40
24 31 40
27 33 42
24 30 39
27 33 43
26 32 41
21 27 35
23 28 37
24 29 38
24 31 40
22 28 36
22 28 37
23 29 38
25 31 41
24 29 38
23 29 37
24 30 39
25 31 40
23 29 37
22 28 37
23 29 38
25 30 39
25 31 40
26 32 42
24 30 39
24 29 38
23 29 37
24 30 39
24 30 39
24 30 39
25 31 40
25 32 41
23 29 38
26 33 43
26 32 42
26 33 43
25 31 41
24 29 38
24 30 40
24 30 39
26 32 41
23 29 37
25 31 41
24 30 39
23 29 38
25 31 41
24 30 39
23 29 38
23 29 38
22 28 36
25 31 40
24 30 39
25 31 40
24 30 39
24 30 39
24 29 38
22 28 37
25 32 41
24 30 39
26 32 42
23 28 37
24 30 40
24 30 39
25 31 41
25 31 41
26 32 42
24 29 38
27 33 43
24 30 38
25 31 40
24 30 39
24 30 39
24 30 39
24 30 39
26 32 42
23 28 37
24 30 38
24 30 39
26 33 43
26 32 41
26 32 42
24 30 40
24 30 39
24 30 39
26 32 42
24 30 39
19 24 32
24 30 38
24 30 39
24 31 40
24 29 38
24 30 38
25 31 41
21 26 34
25 31 40
26 32 41
22 28 37
26 33 43
25 31 40
25 31 40
24 30 39
25 31 40
25 32 42
23 29 39
25 31 41
24 30 39
22 27 36
24 29 38
25 30 39
24 29 38
24 30 38
20 25 33
25 31 40
24 31 40
23 29 38
23 28 37
25 32 41
21 26 34
26 32 41
23 28 37
25 31 40
24 30 39
23 28 36
25 31 40
25 31 41
23 29 38
22 27 36
23 29 38
26 32 42
23 28 37
22 28 36
24 30 40
23 29 37
22 28 37
23 28 36
25 31 40
24 30 40
22 28 36
22 28 36
23 28 37
24 30 39
25 31 41
22 28 36
24 31 41
23 29 37
24 29 38
25 32 41
23 28 37
23 28 37
25 30 39
22 27 36
24 30 39
25 31 40
22 28 37
22 28 36
25 31 41
24 30 39
25 31 40
26 32 41
22 27 35
22 27 36
24 31 40
24 30 39
24 31 40
22 28 36
23 29 37
24 29 38
25 31 41
21 26 35
23 28 37
22 27 35
23 29 37
23 28 36
23 28 37
21 26 34
21 26 35
22 28 36
24 30 39
24 29 37
24 29 38
24 30 39
24 30 40
22 27 35
21 26 33
20 25 33
23 28 36
24 29 38
21 26 34
22 27 35
22 27 35
23 28 37
17 21 27
12 15 19
10 12 15
9 11 13
10 12 15
8 10 12
9 11 14
10 12 15
9 11 15
10 12 15
8 10 14
10 12 15
9 12 15
10 12 15
10 12 16
10 12 16
12 15 19
10 12 16
9 12 15
7 9 12
9 12 15
9 11 13
12 15 19
10 13 16
11 13 16
9 10 13
9 11 14
9 11 13
12 14 18
10 12 15
9 11 14
9 11 13
8 10 13
10 12 15
8 9 12
13 15 19
7 9 12
9 11 14
12 15 18
11 13 16
10 13 16
10 12 15
8 10 13
10 12 15
12 14 18
12 14 18
10 12 15
8 9 12
12 14 18
10 12 15
10 12 15
10 12 15
10 12 15
9 11 15
9 11 14
11 13 17
9 11 14
9 11 14
11 13 16
9 12 15
8 10 13
9 10 13
8 10 13
9 10 13
9 11 14
10 12 16
9 11 14
10 13 16
11 13 16
11 13 17
10 13 16
12 14 18
9 11 14
10 12 16
9 11 14
9 11 13
9 11 14
10 12 15
10 13 16
11 14 17
11 14 17
8 10 13
10 12 16
8 10 13
10 12 16
10 13 16
9 11 14
8 10 13
9 11 14
12 14 18
9 11 14
9 11 14
7 8 10
10 12 16
9 11 13
8 10 13
12 14 18
11 13 17
8 9 12
9 11 14
9 12 15
8 10 12
10 12 15
11 14 18
10 12 15
19 24 31
22 27 36
22 27 35
22 27 35
19 24 31
21 27 36
23 28 37
24 30 39
22 27 35
22 28 36
21 26 34
21 26 34
21 26 34
22 27 36
23 28 37
22 28 36
22 27 35
23 28 37
22 27 36
23 29 37
21 26 34
23 29 37
24 30 39
23 28 37
22 28 36
24 30 39
24 30 38
25 31 40
25 31 40
23 28 36
24 29 38
25 31 41
21 27 35
22 27 35
26 32 41
24 30 39
25 31 40
26 32 42
23 29 38
23 29 38
23 29 37
24 30 39
24 30 38
24 30 39
22 27 35
22 28 37
22 27 35
26 32 41
23 28 36
25 32 42
24 30 38
22 28 36
23 29 38
26 32 41
23 28 36
22 28 36
22 27 35
24 31 40
22 27 36
25 32 42
28 35 46
24 30 39
24 30 39
24 30 39
24 30 39
21 27 35
25 31 41
24 30 38
21 27 35
23 29 38
25 32 41
25 32 41
25 30 39
24 30 40
23 28 37
24 30 38
23 28 37
21 26 34
23 29 39
23 29 38
23 29 38
22 28 37
24 30 40
23 29 38
25 31 40
23 29 37
24 30 39
23 29 38
24 30 40
25 31 39
24 30 39
26 32 41
22 28 36
26 33 43
25 31 40
24 30 39
24 30 39
25 31 40
25 32 41
22 27 35
25 31 41
20 25 33
24 30 39
25 31 40
24 30 39
23 29 38
27 33 43
21 27 34
25 31 39
24 30 39
26 32 42
23 28 37
23 29 38
24 30 39
26 32 42
26 32 42
24 30 39
25 31 41
28 35 45
22 28 36
22 28 36
24 30 40
25 31 40
25 31 40
25 31 40
24 29 37
26 32 41
27 33 43
22 28 36
22 28 36
24 30 39
24 30 39
23 29 38
23 29 38
26 32 41
25 31 40
24 30 39
25 31 40
23 29 38
25 31 41
26 32 42
24 30 39
23 29 38
24 30 38
25 32 41
26 33 42
25 31 40
24 29 38
22 28 36
24 30 39
25 31 41
22 28 36
26 32 42
25 31 39
24 29 38
24 30 39
24 29 38
24 29 38
22 27 35
24 30 38
24 31 40
23 29 38
23 29 38
24 30 39
24 30 40
23 29 38
21 26 34
26 33 42
24 30 40
24 30 38
25 31 40
26 32 41
25 30 39
25 32 41
23 29 38
20 25 33
22 28 36
23 29 38
25 31 41
26 32 42
22 28 36
24 30 39
26 33 43
24 30 39
24 30 40
26 32 41
25 30 39
25 31 41
24 30 39
23 29 38
25 31 40
22 28 36
27 34 44
25 31 40
24 30 39
24 30 39
23 29 37
26 32 41
24 30 39
25 30 39
22 28 37
22 28 36
23 29 38
24 30 39
26 33 42
23 28 36
24 30 40
25 31 40
23 29 37
22 27 36
24 30 38
24 30 39
22 27 35
25 32 41
23 29 37
23 29 37
24 30 38
23 29 37
24 30 39
23 29 38
23 29 38
24 30 38
26 33 42
23 28 37
23 28 37
24 30 39
23 29 38
23 29 38
23 29 37
23 29 37
24 30 40
23 29 37
26 32 42
24 30 38
25 30 39
23 28 36
24 30 39
25 31 40
24 30 39
22 27 35
24 30 39
23 29 37
24 30 39
24 31 40
22 28 36
24 30 39
23 29 38
21 26 34
24 30 39
23 29 38
23 28 36
25 31 40
23 29 37
25 32 41
23 28 37
21 26 34
21 27 35
24 30 39
24 30 39
25 31 42
23 29 37
24 30 39
21 27 35
23 28 36
22 27 35
22 28 37
21 27 35
23 29 37
23 29 38
23 29 38
23 28 37
23 29 38
24 30 39
25 31 40
21 26 34
26 32 41
23 29 38
22 28 36
22 28 37
22 27 35
19 23 30
22 28 36
22 27 36
23 29 37
21 27 35
21 26 33
23 29 38
20 25 33
19 24 31
19 23 30
24 30 39
22 28 36
20 25 33
21 26 34
21 26 33
22 28 36
20 24 32
10 13 17
11 13 16
9 11 14
8 10 13
9 10 13
10 12 16
8 10 13
9 11 14
10 12 15
11 13 16
9 11 14
10 12 15
11 13 16
9 11 15
10 12 16
10 13 16
9 11 14
10 13 16
9 11 14
8 10 13
7 9 12
9 11 14
12 14 18
10 13 16
10 12 15
10 12 14
10 12 15
9 11 14
9 11 14
8 10 12
9 11 14
10 12 15
9 11 14
11 14 17
9 11 14
10 13 16
10 12 16
9 10 13
10 12 16
8 10 13
10 12 16
10 12 15
11 13 17
8 10 12
10 12 15
9 10 13
9 11 14
9 11 13
11 13 17
9 11 14
13 16 19
9 11 14
10 12 16
9 11 14
8 10 12
10 12 16
8 10 13
11 14 17
10 13 16
8 9 12
11 14 18
10 12 16
7 9 12
11 13 17
10 12 15
9 12 15
11 13 17
11 14 18
9 11 14
10 12 16
14 17 21
13 16 20
9 11 14
11 13 17
10 12 15
9 12 15
10 12 15
13 16 20
13 15 19
11 13 17
10 13 16
10 12 15
12 14 18
11 13 16
11 14 17
9 11 14
7 9 11
12 14 18
9 11 14
11 14 17
15 18 22
9 11 14
11 14 18
11 14 17
7 9 11
14 16 20
9 11 14
11 14 17
8 10 12
9 12 15
10 12 16
12 14 17
19 23 30
21 27 34
23 29 37
18 23 29
22 27 35
20 25 33
18 23 30
20 25 33
20 25 33
20 25 33
21 26 34
21 26 34
20 25 33
22 27 35
22 28 36
23 29 38
22 28 36
24 30 39
22 27 34
23 29 37
20 25 33
21 26 34
22 28 36
22 27 35
18 22 29
21 26 34
22 28 37
21 26 35
23 29 37
24 30 38
21 27 35
24 30 39
25 31 40
23 29 38
22 27 36
24 30 40
22 28 37
23 29 38
23 29 38
23 29 37
20 26 34
19 24 31
25 31 41
22 27 35
22 27 35
22 28 36
25 31 40
20 25 32
22 28 36
24 29 38
23 29 38
24 30 39
23 29 37
23 28 36
22 27 36
21 26 34
24 30 39
20 25 33
25 31 40
21 27 35
21 27 35
21 27 35
26 32 42
25 31 41
23 28 36
23 29 37
20 25 33
24 29 38
24 30 40
24 30 39
25 31 41
23 29 37
23 29 39
24 30 40
23 29 38
21 26 33
24 31 40
23 28 37
21 26 34
24 30 39
25 31 40
24 29 38
24 30 39
25 31 41
25 31 41
23 28 37
21 27 35
22 28 37
22 28 37
23 28 37
24 30 39
24 30 39
24 30 39
23 29 37
26 33 43
27 33 42
25 31 41
24 30 38
22 28 36
26 32 41
24 30 40
26 33 43
25 31 40
24 30 39
23 29 38
25 31 40
25 31 41
26 33 42
24 29 38
24 31 40
25 31 41
25 31 40
26 32 42
24 30 39
23 28 37
25 31 40
25 31 41
23 29 38
25 31 41
23 28 36
24 30 39
26 32 42
26 32 41
27 34 45
24 30 39
25 31 41
23 28 37
24 30 39
22 28 36
24 29 38
25 31 40
24 30 39
24 30 39
22 28 36
25 31 41
24 29 38
23 29 38
26 32 41
27 33 43
24 29 38
24 30 39
24 30 39
23 29 38
27 33 43
23 29 38
22 28 37
25 31 41
22 28 36
23 28 37
24 30 39
26 33 43
24 30 39
24 29 38
25 30 39
24 30 40
24 30 39
23 29 38
25 31 40
22 28 36
26 32 42
24 30 39
23 28 36
25 31 41
24 30 40
24 30 40
25 31 41
24 29 38
24 30 40
26 32 42
23 28 37
22 28 36
24 30 39
24 30 39
24 30 39
25 31 40
25 31 41
25 31 40
22 28 36
24 30 39
25 31 40
23 28 37
23 28 37
25 31 40
23 28 37
23 28 37
23 29 37
24 29 38
24 29 38
25 32 42
23 28 36
26 32 42
25 31 40
26 32 42
23 29 38
23 29 38
23 30 39
23 29 39
25 31 41
27 34 44
24 30 38
23 29 38
24 30 39
24 29 38
24 31 40
23 28 36
23 29 37
25 31 40
25 30 39
25 32 42
24 30 38
21 27 35
23 28 37
24 30 39
25 32 41
24 29 38
25 31 40
23 30 39
23 28 37
23 29 37
25 31 41
26 33 42
23 29 39
23 29 38
23 29 39
21 27 35
26 33 42
23 29 38
24 30 38
21 26 35
23 29 38
23 28 37
24 30 39
23 29 38
21 27 36
21 26 34
25 31 40
25 31 41
23 29 37
22 28 37
24 30 39
22 27 36
23 29 37
24 30 39
24 29 38
22 28 35
23 28 37
25 31 41
22 27 35
25 31 40
25 32 42
23 29 37
23 28 37
24 29 38
25 31 41
23 29 38
22 28 35
23 28 37
24 30 38
24 29 38
22 28 37
24 29 38
26 32 41
25 31 40
23 29 37
21 27 35
22 28 36
23 29 38
23 29 38
21 27 36
22 28 36
21 27 34
22 28 37
23 28 36
22 27 35
23 29 39
24 30 39
24 30 40
24 30 39
24 30 39
20 25 32
21 26 33
22 28 36
23 29 38
20 25 33
21 26 33
22 27 35
24 30 39
22 28 37
21 26 33
22 27 35
21 26 35
22 27 34
21 26 34
20 24 32
20 25 33
20 25 32
19 24 31
22 27 34
17 21 26
10 13 16
10 12 16
10 12 15
9 12 15
10 12 15
8 10 13
9 12 15
8 10 12
9 11 15
10 12 16
11 13 17
8 10 13
9 11 14
9 11 13
10 12 15
8 10 12
9 11 14
9 11 14
11 13 17
12 14 18
11 13 16
11 13 16
10 12 15
11 14 18
10 13 16
9 12 15
8 10 13
8 10 13
8 10 12
14 17 22
7 9 11
10 12 16
10 13 16
10 12 15
9 11 14
9 11 14
10 12 15
11 13 17
10 12 15
11 13 17
10 13 16
11 14 18
10 13 16
11 13 17
12 15 19
7 9 11
8 10 13
10 12 16
10 12 16
12 15 19
12 14 19
10 12 16
9 11 14
8 10 13
9 11 14
12 15 19
11 13 16
9 11 14
10 12 16
12 15 19
10 12 15
8 10 13
10 13 17
11 13 17
9 11 14
10 12 15
11 13 16
11 13 16
11 14 17
9 11 14
11 14 17
10 13 16
10 12 15
11 13 16
10 12 15
13 16 20
11 13 17
9 12 15
9 10 13
14 17 22
8 10 12
11 13 17
12 15 19
12 15 19
8 10 13
6 8 10
13 16 20
10 12 16
10 12 16
11 14 17
9 11 14
9 11 14
5 7 9
9 11 14
8 10 13
11 13 17
11 13 16
10 13 16
9 11 14
8 9 12
15 19 25
22 27 35
23 29 37
21 27 36
20 24 32
19 24 32
22 27 35
21 26 34
24 29 38
19 23 30
22 27 36
23 29 37
23 29 37
24 29 38
24 29 37
24 29 37
20 25 32
22 27 36
21 27 35
20 25 32
21 26 34
21 26 34
22 27 35
22 28 36
20 26 34
21 27 35
21 27 35
24 29 38
21 27 35
21 26 34
23 29 37
24 30 40
22 28 36
20 26 34
23 29 38
19 24 32
25 31 40
23 29 37
24 29 38
20 25 32
25 31 41
22 28 37
21 26 34
21 27 35
21 26 35
24 30 39
20 25 33
23 28 37
23 28 36
20 25 33
24 29 38
24 30 39
23 28 36
23 29 38
20 25 33
22 28 36
24 30 39
22 27 35
24 29 38
26 32 42
23 28 37
26 32 42
22 28 36
24 30 39
23 29 37
27 33 43
26 32 42
27 33 43
21 26 35
23 29 38
24 30 39
21 27 35
25 31 41
23 29 38
24 30 38
22 28 36
23 29 37
23 28 37
24 29 38
26 33 42
22 28 37
25 31 40
23 28 36
26 32 42
24 29 38
24 30 38
24 31 40
23 29 37
23 29 37
25 31 40
23 29 38
24 30 39
23 29 38
23 28 37
23 30 39
25 31 41
25 31 41
24 30 39
25 32 41
23 29 38
24 30 39
26 32 41
25 31 40
23 29 37
22 28 37
23 28 37
26 33 43
22 27 35
26 33 43
22 28 36
25 31 41
24 30 38
24 29 38
25 31 40
24 29 38
24 30 38
28 34 44
24 30 39
24 30 39
21 26 33
25 32 41
25 31 40
27 33 43
24 30 38
24 30 39
27 33 43
24 29 38
25 32 42
23 29 38
25 31 41
23 29 37
25 31 41
26 32 41
26 32 42
24 30 39
27 33 43
23 29 38
22 28 36
25 31 41
28 34 44
24 30 39
24 30 39
24 30 39
24 30 39
24 30 38
24 29 38
23 28 37
23 29 38
22 28 36
23 28 37
25 32 42
24 30 39
24 30 38
24 30 39
23 29 37
22 27 35
25 31 40
25 31 41
25 32 41
23 29 37
24 30 40
22 28 36
27 33 43
23 29 38
21 27 35
23 29 39
25 32 41
26 32 42
22 27 36
23 29 38
25 31 40
25 31 40
22 27 36
24 29 38
24 30 40
23 28 37
25 31 41
26 33 43
23 28 37
24 31 40
23 29 38
26 32 41
25 31 41
24 30 38
24 30 39
24 31 40
24 30 40
24 29 38
23 29 38
23 28 37
23 29 38
22 28 36
25 30 39
26 32 42
21 26 34
23 29 38
27 34 44
25 31 40
25 32 41
23 28 37
22 28 37
24 30 39
25 31 40
23 29 37
23 29 37
26 33 43
23 28 36
22 28 36
25 31 40
24 29 38
22 27 35
24 30 39
25 31 41
25 31 41
24 30 38
24 31 40
23 29 38
23 28 36
24 30 39
24 31 40
24 30 39
24 29 37
24 29 37
23 29 38
24 30 40
24 30 39
22 27 36
24 30 39
22 28 37
21 27 35
23 29 38
22 27 35
22 28 36
26 32 41
23 28 37
24 30 39
24 29 38
21 27 35
22 27 36
22 27 35
22 27 35
25 31 41
22 28 38
24 30 39
24 30 38
20 25 32
23 29 37
22 28 36
24 30 39
23 28 37
21 26 34
23 28 37
25 31 40
23 28 37
24 30 39
24 30 39
25 31 40
23 28 37
22 27 35
24 30 39
21 27 35
22 27 35
24 30 39
21 26 33
20 26 34
23 30 39
22 28 37
24 29 38
23 28 37
23 28 36
21 27 35
21 26 34
21 27 35
23 28 36
22 27 35
21 26 34
20 26 35
22 27 36
22 27 35
22 27 35
17 22 29
23 28 36
23 28 37
20 24 31
21 26 33
19 24 31
21 27 35
21 26 35
22 27 35
22 28 37
20 25 33
18 22 29
22 27 34
21 26 34
24 29 38
18 22 29
20 24 32
22 27 35
22 28 36
21 25 33
17 21 27
6 8 10
8 10 12
10 12 15
10 13 16
8 10 13
10 12 15
11 13 17
9 11 14
8 10 13
8 9 11
10 12 15
11 14 17
8 10 13
11 14 17
6 7 9
11 13 17
9 12 15
9 11 14
9 11 14
9 12 15
9 11 14
10 12 15
12 14 18
11 13 17
9 12 15
11 14 18
11 13 17
10 13 16
9 11 14
9 11 14
9 11 14
8 10 13
8 9 12
9 11 14
10 13 16
11 14 17
7 9 11
12 15 19
11 14 17
12 14 18
13 15 20
11 14 17
9 11 14
11 14 17
8 9 12
9 11 14
9 11 14
12 14 18
9 11 14
11 14 17
8 10 13
6 8 11
10 12 16
9 12 15
11 13 17
8 9 12
10 12 15
12 14 18
10 12 15
11 13 16
11 14 18
9 11 15
12 14 17
8 10 13
9 12 15
9 10 13
10 12 16
11 13 16
8 10 12
9 11 14
9 10 13
10 12 15
10 12 15
10 12 15
10 12 15
11 13 17
8 9 12
11 13 17
7 9 12
9 11 14
9 11 14
8 10 13
10 12 16
10 12 16
8 10 13
10 12 15
10 13 16
10 12 15
7 9 11
10 13 16
10 12 15
10 13 16
9 10 13
9 11 14
8 10 13
11 13 17
9 11 14
8 10 12
14 17 22
20 25 32
20 25 32
24 29 38
19 24 31
21 26 33
20 25 32
21 26 34
20 25 33
18 22 29
21 26 34
20 25 32
21 27 35
23 29 37
22 26 34
23 28 36
23 29 38
22 28 37
21 26 34
20 25 32
21 27 34
20 25 33
23 29 38
24 30 39
20 25 33
25 31 40
23 29 37
22 28 36
20 24 32
21 26 34
22 27 36
20 25 32
21 26 34
20 25 32
23 29 38
22 28 36
23 29 37
22 28 36
23 29 38
21 26 34
18 23 30
23 29 38
24 30 39
21 26 34
21 26 33
25 31 40
21 26 34
25 31 40
24 29 38
25 30 39
25 31 40
24 30 39
24 30 39
24 29 38
21 27 35
20 26 33
25 31 41
25 31 40
27 33 43
24 30 39
23 29 38
23 28 36
20 25 33
25 32 42
24 30 39
25 32 41
25 31 40
26 33 42
21 26 34
22 28 36
25 31 41
21 27 35
23 28 37
22 28 36
19 24 32
22 28 36
24 30 39
24 30 39
23 29 37
24 30 39
22 28 36
23 29 38
25 31 41
24 30 39
26 32 41
24 30 39
25 31 40
23 28 36
26 33 42
22 28 36
26 32 42
26 32 41
24 29 38
25 31 40
25 31 40
23 29 38
24 30 40
24 30 39
26 32 41
23 28 37
22 28 37
23 29 38
24 30 38
24 30 38
25 31 40
27 33 43
23 29 38
22 27 36
25 31 40
20 25 32
22 28 36
25 31 40
23 29 38
21 27 35
24 30 39
25 31 40
26 32 41
23 29 38
24 30 39
25 31 41
24 30 39
24 29 38
25 31 41
23 28 37
24 30 39
25 31 41
24 30 38
24 30 39
25 31 41
23 28 37
26 32 42
22 27 35
23 29 38
24 30 40
23 28 37
26 32 42
24 30 39
25 31 40
23 29 38
25 32 42
24 29 38
24 30 39
24 30 40
24 30 38
24 30 39
25 31 41
24 30 39
25 32 41
22 27 34
23 29 37
25 31 40
23 29 38
25 31 41
24 30 39
25 31 40
23 29 38
23 29 37
24 29 38
24 30 39
23 28 36
26 33 43
24 30 39
25 31 40
25 31 40
23 29 37
25 31 41
24 30 40
24 30 39
24 30 39
22 28 37
24 30 40
26 32 41
25 31 40
25 31 41
23 29 37
23 29 37
24 30 39
25 31 41
25 31 41
25 31 41
25 32 41
23 29 38
24 30 40
23 29 38
23 29 38
24 30 39
26 32 41
24 30 39
26 32 42
23 29 39
23 29 37
22 27 35
25 31 40
25 31 41
25 31 40
23 29 37
23 28 36
24 30 39
25 31 40
24 31 40
22 28 36
22 28 37
24 30 39
22 28 37
21 26 33
23 28 36
22 28 36
20 26 34
26 32 42
23 28 37
22 28 36
25 31 40
24 30 39
22 28 37
21 27 35
24 30 39
22 28 36
23 29 38
23 29 37
25 31 40
27 33 43
21 26 34
24 30 39
25 32 41
23 29 38
23 28 37
25 31 40
22 28 37
24 29 38
24 30 39
23 28 37
23 29 38
21 27 36
23 29 37
25 31 41
22 28 36
23 28 37
25 31 40
24 30 39
23 29 38
22 27 35
21 26 34
23 29 38
23 29 39
20 25 33
23 28 36
24 29 38
24 31 40
25 31 41
24 30 39
24 30 39
25 30 39
24 30 39
24 29 38
23 28 37
24 30 39
21 27 35
25 31 40
22 28 36
24 30 40
22 27 35
22 28 36
21 26 34
20 25 33
22 27 35
21 27 35
20 26 34
23 29 38
21 27 34
24 29 37
24 29 38
21 27 35
22 27 35
22 28 37
22 28 36
22 27 35
21 26 34
20 26 34
20 25 33
24 30 38
20 26 33
24 30 39
20 26 34
20 25 33
24 30 39
19 24 31
20 26 33
20 25 32
23 28 37
21 25 33
20 25 32
16 21 27
20 25 32
23 29 38
20 25 32
20 24 32
22 27 35
19 23 30
22 27 35
21 27 34
22 27 35
19 23 30
13 16 20
8 10 13
8 10 13
10 13 16
7 9 12
7 9 12
7 9 12
9 10 13
8 10 12
6 8 10
7 8 10
6 7 10
7 9 11
7 9 11
9 11 14
11 13 16
9 11 14
11 13 17
10 12 15
10 13 16
12 15 19
12 14 18
9 11 14
9 11 14
13 15 19
11 13 17
8 10 13
11 13 17
10 13 16
10 12 15
9 11 13
9 12 15
9 11 13
8 10 12
7 8 10
9 11 13
11 13 17
10 12 16
8 9 12
7 9 11
12 15 18
12 14 17
10 12 15
10 13 16
8 10 13
11 13 16
10 13 16
10 13 16
10 12 15
9 11 14
8 10 12
10 13 16
10 12 15
10 12 15
9 10 13
7 9 12
10 13 16
11 14 17
8 10 12
9 11 14
12 15 19
11 13 16
8 10 13
8 10 13
8 9 12
10 12 15
10 12 15
8 10 13
9 11 14
6 8 10
8 9 12
9 12 15
8 10 13
8 10 13
11 13 17
8 10 13
11 13 17
12 15 18
9 11 13
10 12 15
10 12 15
10 13 16
10 12 15
10 12 15
11 13 17
11 13 16
10 12 16
8 10 12
11 13 17
10 13 16
10 13 16
12 14 18
7 8 10
8 10 12
11 14 17
8 9 12
9 10 13
11 14 18
20 25 32
19 23 30
21 26 34
18 22 29
21 26 34
19 24 31
23 29 37
21 26 34
21 26 34
22 27 35
23 28 36
20 24 31
20 25 32
20 25 32
21 26 34
19 23 30
19 23 30
24 29 38
23 29 38
22 27 36
19 23 30
21 26 35
25 31 40
21 26 33
21 26 34
21 26 34
22 27 36
22 28 36
23 28 37
22 27 35
23 29 38
23 29 38
25 31 41
24 30 39
24 30 39
21 25 32
23 29 38
21 26 34
23 28 37
23 29 38
21 26 34
23 28 37
23 29 37
19 24 32
22 28 36
23 28 36
24 30 39
20 25 32
24 31 40
23 28 36
23 29 37
23 28 36
22 27 36
24 30 39
21 26 35
23 29 38
24 30 38
25 31 39
24 29 38
25 31 41
22 27 35
25 31 40
23 29 37
23 29 37
22 27 36
23 29 37
23 28 37
23 29 38
23 28 37
24 30 39
25 31 41
23 29 38
22 27 36
24 29 38
24 30 40
22 28 36
22 27 36
23 29 37
24 31 40
24 30 39
22 28 36
23 29 38
27 34 44
25 30 39
24 30 39
23 29 37
23 28 37
27 33 43
27 33 43
25 31 40
24 30 38
24 31 40
25 32 41
24 30 39
24 30 40
25 32 42
21 26 34
26 33 42
23 29 38
22 27 36
23 29 38
27 34 44
23 28 37
24 31 40
25 31 41
25 31 41
22 28 36
23 28 37
23 29 38
24 30 39
24 30 39
22 28 37
25 31 40
23 28 37
25 31 39
24 30 39
24 30 39
24 30 39
24 31 40
23 29 37
23 29 37
23 29 38
24 30 39
24 29 38
25 31 40
24 30 39
26 33 42
25 31 40
25 31 41
24 30 40
23 29 38
26 31 40
23 29 38
24 29 38
25 31 41
26 32 42
24 30 39
23 29 38
25 32 41
25 31 40
26 33 42
24 30 39
22 28 36
23 28 37
26 33 43
24 30 39
23 28 37
21 27 35
24 30 39
22 28 37
25 31 40
23 29 37
25 31 41
23 29 39
24 31 40
26 33 43
23 28 36
24 29 38
24 30 40
27 34 44
23 29 37
23 29 38
25 31 40
24 30 39
23 28 37
24 30 39
24 30 38
20 25 32
25 32 41
26 32 42
22 27 35
24 30 39
26 32 41
26 33 43
26 33 43
22 28 37
24 30 39
24 29 38
24 30 40
24 29 38
25 31 40
24 30 40
23 28 37
27 33 43
25 31 40
23 28 37
22 28 37
23 28 37
22 27 35
22 28 37
23 29 38
24 30 39
24 30 38
24 30 40
24 30 40
24 29 38
26 33 43
23 28 36
26 32 42
22 28 37
21 27 35
23 29 38
24 30 39
24 30 39
22 27 35
24 30 39
23 29 37
21 27 35
25 30 39
25 31 41
23 29 38
24 30 39
23 28 37
24 29 38
24 30 39
25 31 39
24 31 40
23 28 37
22 28 37
25 32 41
24 30 39
25 31 41
24 30 39
22 28 36
25 30 39
22 27 35
24 31 40
24 30 39
24 30 39
24 29 38
22 28 37
22 28 37
25 31 40
24 30 39
25 31 40
24 30 39
25 31 40
23 28 37
21 26 33
22 28 36
24 30 40
21 27 36
25 32 41
21 26 34
24 30 38
22 28 36
22 27 35
22 27 35
25 32 41
23 29 38
24 29 38
23 29 38
22 28 36
24 29 38
21 26 34
24 30 38
20 25 32
22 27 36
21 27 35
21 27 36
23 28 37
20 25 32
23 28 37
19 24 31
21 27 35
19 24 31
27 33 43
21 26 34
21 27 35
22 28 36
20 25 32
24 30 39
22 27 35
23 28 36
19 24 30
22 27 36
19 23 31
20 25 33
23 29 37
24 30 39
21 26 33
20 25 32
18 22 29
21 26 33
22 27 35
19 24 31
20 25 32
21 26 34
21 26 34
19 24 32
22 27 36
20 25 33
19 24 31
22 27 35
18 23 29
18 23 30
17 22 28
21 26 34
17 21 28
20 25 32
20 25 32
20 25 32
18 22 28
12 14 18
10 13 16
10 12 15
9 11 14
10 12 15
10 12 15
10 12 15
9 12 15
10 13 16
8 10 13
10 12 15
9 12 15
9 11 14
11 13 17
11 14 17
7 8 11
7 8 10
9 11 14
13 15 19
10 12 15
11 14 17
11 14 18
11 13 16
9 12 15
9 11 14
9 11 14
11 13 16
9 11 14
10 12 16
8 10 12
9 10 13
9 12 15
7 8 10
10 12 15
10 12 15
10 12 15
9 11 13
11 13 17
11 13 17
11 13 17
9 11 14
10 12 15
11 14 18
7 8 11
10 13 16
10 12 15
10 13 16
11 13 17
8 10 13
11 13 17
9 11 13
6 7 9
7 9 11
10 13 16
10 12 15
8 10 13
8 10 13
9 11 14
11 14 18
7 9 11
10 13 16
8 10 13
10 12 16
9 11 14
9 11 14
9 12 15
11 14 18
9 11 14
10 12 15
10 13 16
12 15 19
11 13 17
9 11 14
9 10 13
8 10 12
8 10 13
10 12 15
9 11 13
9 11 14
10 13 16
10 12 15
7 9 12
11 13 16
9 11 14
12 15 19
7 9 11
9 10 13
10 12 15
9 11 14
9 11 14
10 13 16
9 11 14
8 9 11
8 10 12
8 9 12
10 13 16
18 23 30
21 26 34
18 23 30
20 24 31
22 27 35
18 23 29
19 24 31
23 28 37
23 28 37
18 23 29
22 27 35
20 24 32
23 28 36
19 23 30
22 28 36
22 28 36
20 24 32
19 24 30
19 24 32
22 27 35
23 28 36
21 27 35
20 24 32
21 26 35
21 26 34
22 28 36
21 27 35
24 30 39
23 28 37
19 23 30
21 27 35
19 24 32
22 28 36
25 31 41
24 31 40
21 27 35
20 24 32
21 26 34
24 30 39
23 28 36
22 27 35
22 28 36
23 28 36
23 29 38
24 29 38
23 28 37
21 26 35
24 30 39
22 28 36
24 30 39
21 26 35
22 28 36
25 31 40
25 30 39
22 27 35
22 27 36
21 27 35
24 30 38
25 31 41
23 29 38
27 33 43
22 27 35
24 30 39
24 30 38
23 28 36
24 30 39
21 27 35
23 29 38
22 28 36
24 30 40
25 31 40
23 29 37
23 28 36
22 27 36
22 27 35
25 31 41
26 33 42
26 33 42
23 29 37
26 33 43
24 30 40
24 30 39
23 29 37
24 30 40
25 31 41
24 30 39
25 31 41
23 29 39
26 33 43
23 28 37
22 28 37
22 28 36
23 28 37
23 29 37
23 29 37
25 31 41
24 30 39
24 30 40
24 30 39
23 29 37
25 31 40
23 29 38
25 31 40
23 29 38
24 30 39
23 28 37
24 30 40
27 33 43
22 27 35
26 32 41
26 33 43
23 29 37
22 27 35
24 30 38
23 29 38
22 28 37
24 30 39
24 30 39
25 31 40
23 28 37
24 30 40
25 30 39
25 31 40
22 27 35
24 30 39
24 30 38
23 29 38
23 29 38
24 30 39
25 31 41
24 29 38
22 28 37
26 32 42
27 33 43
23 29 38
27 33 43
25 31 41
25 31 40
25 31 40
25 31 40
23 29 38
23 29 37
21 27 36
23 29 38
24 30 39
26 33 42
24 30 40
23 28 37
26 32 41
24 30 40
25 32 42
22 28 36
23 28 37
23 29 39
25 31 41
27 34 44
23 28 37
23 29 38
26 32 42
22 28 37
23 29 38
24 31 40
24 29 38
23 29 38
24 29 37
24 30 39
25 31 40
24 30 39
23 29 37
24 30 38
25 31 40
25 32 41
24 30 39
25 31 41
22 28 35
25 31 41
22 27 36
23 28 37
24 31 41
23 28 37
24 30 39
25 31 40
24 30 39
23 28 37
25 31 41
22 28 37
25 31 40
23 29 38
24 30 39
23 29 37
25 31 40
22 28 36
23 29 37
23 29 37
23 29 38
26 32 42
25 31 40
21 27 35
22 27 35
25 31 40
24 30 39
25 32 41
20 25 32
24 30 39
22 28 36
22 27 35
26 32 41
21 27 35
25 31 40
25 32 41
23 28 37
24 30 39
23 29 37
25 31 40
21 27 35
21 26 34
22 28 36
23 28 37
24 29 38
23 29 38
23 29 38
25 31 40
23 29 37
19 24 31
24 30 39
24 30 39
23 29 37
24 30 39
22 27 35
22 28 37
22 28 36
23 29 39
23 29 39
23 29 38
23 28 37
23 29 36
22 27 36
23 29 38
26 32 41
21 26 34
23 29 38
22 27 35
22 27 35
25 31 41
25 31 41
20 26 34
22 28 36
24 30 39
23 28 37
22 27 35
20 26 33
26 32 41
23 28 37
21 27 35
22 27 35
25 31 40
23 28 36
22 27 35
24 30 39
23 29 37
21 26 35
22 28 36
21 27 35
23 29 37
23 28 37
21 26 34
22 27 36
24 30 39
23 29 38
23 28 36
21 26 35
24 30 39
24 30 38
22 27 34
21 26 34
23 29 38
18 23 31
20 26 33
20 25 33
20 25 33
22 28 36
21 27 35
22 28 36
24 30 39
20 25 33
22 27 36
22 27 36
18 23 30
23 28 37
20 24 31
21 27 35
23 28 37
21 26 33
22 28 36
20 25 33
18 22 29
22 27 35
22 28 36
18 22 29
17 21 27
19 24 31
20 25 33
19 23 29
18 22 29
20 25 32
16 19 24
8 10 13
8 10 13
9 11 13
9 11 14
10 12 15
9 11 14
11 13 17
7 9 12
10 12 16
12 14 18
9 11 14
8 10 13
11 13 17
10 12 15
8 9 12
11 14 17
10 13 16
11 13 17
10 12 15
9 11 14
9 11 14
9 11 13
9 11 13
9 11 14
12 14 18
7 9 11
7 9 11
10 12 16
10 12 16
6 8 10
13 16 20
8 10 13
10 12 14
10 12 16
9 11 14
9 10 13
6 7 10
12 14 18
10 13 16
9 11 13
9 11 14
7 8 11
8 9 12
11 13 16
10 12 16
7 9 12
12 14 18
10 12 15
10 13 16
10 12 15
10 12 15
12 15 19
10 12 15
11 14 18
10 13 16
9 11 14
11 14 17
8 9 12
8 10 12
9 11 13
8 10 13
8 9 12
8 10 13
8 9 12
10 12 15
13 16 20
10 12 16
14 17 21
11 13 17
9 11 14
12 15 19
9 11 15
9 11 14
11 13 17
10 12 16
10 13 16
7 8 10
10 12 15
8 10 13
10 12 16
9 11 14
7 9 12
9 11 14
9 10 13
8 10 12
10 13 16
10 13 16
7 9 11
8 10 12
11 14 17
8 9 12
6 7 9
11 14 18
17 21 27
17 22 28
18 22 28
21 26 33
19 24 31
19 24 31
21 26 35
20 25 32
21 27 35
19 24 32
23 28 36
18 22 29
20 25 32
22 27 35
20 25 33
20 25 32
24 30 39
20 25 32
20 25 33
21 26 34
21 26 34
24 30 39
19 24 31
19 24 32
21 26 33
20 24 32
20 25 32
22 27 34
19 24 32
24 30 39
19 23 30
18 22 29
23 28 37
20 25 33
23 29 37
25 30 39
21 26 34
20 26 34
20 25 33
22 28 36
21 26 34
20 25 32
21 27 35
21 26 34
22 27 35
22 28 36
23 30 39
22 27 36
24 29 38
17 22 29
23 29 38
22 27 35
22 28 36
25 31 40
23 28 36
20 25 33
21 27 35
28 34 44
22 27 36
26 33 43
22 28 36
22 27 35
22 28 36
24 30 38
26 31 40
22 27 35
22 27 35
23 28 36
23 29 38
22 27 35
22 27 35
23 30 39
26 32 41
23 28 37
22 28 36
23 29 38
22 27 35
23 28 36
25 31 41
23 29 37
22 28 37
21 26 34
24 30 39
24 30 39
23 29 38
24 30 40
21 26 35
24 30 39
23 28 37
25 32 41
22 27 36
23 29 38
24 30 39
23 29 38
23 29 38
26 32 42
25 31 40
23 28 37
23 28 36
24 30 40
25 31 40
23 29 38
23 29 37
23 29 38
24 31 41
22 28 36
23 29 38
26 32 42
24 29 38
23 29 38
23 29 37
22 28 36
24 30 39
23 29 37
24 30 40
23 29 38
25 31 40
24 30 39
24 30 39
26 32 42
26 32 42
23 29 39
23 28 37
23 29 38
24 31 40
23 28 36
23 29 38
23 29 38
24 30 39
21 27 35
22 27 35
24 30 39
22 28 36
23 29 39
24 30 39
25 31 40
24 30 38
24 30 39
22 28 37
24 30 39
24 30 39
25 30 39
24 30 39
25 31 41
25 31 40
23 29 38
26 33 43
24 30 39
26 32 41
25 31 41
25 31 40
26 32 42
24 30 39
23 29 37
22 27 36
22 28 37
24 30 39
27 34 43
25 31 40
26 33 42
25 31 40
23 29 38
25 32 41
25 31 41
23 28 37
24 29 38
24 29 38
24 30 38
26 32 41
23 28 36
23 29 39
24 30 39
22 27 35
25 31 41
26 32 42
24 31 40
25 31 40
26 32 41
26 33 42
21 26 34
24 29 38
23 29 37
26 32 41
23 28 36
22 27 35
24 30 39
22 27 36
25 32 42
25 31 41
23 29 38
23 28 37
24 30 39
24 30 39
27 33 42
23 29 38
22 28 36
25 31 40
20 25 32
24 30 39
25 32 41
22 28 36
25 31 40
24 30 39
24 30 38
23 28 36
22 27 36
23 29 37
21 26 34
24 29 38
25 32 42
23 28 37
24 30 39
22 27 36
23 29 37
23 29 37
23 29 38
22 27 35
23 29 37
26 32 42
23 29 37
23 29 37
24 30 39
26 32 42
24 30 38
23 29 38
22 27 35
22 28 36
21 26 34
24 30 39
24 30 39
25 31 40
24 30 39
23 29 37
25 31 40
20 26 34
24 31 40
23 28 37
20 25 33
22 28 36
22 28 36
26 32 42
22 28 36
24 31 40
19 24 32
24 29 38
22 28 36
23 28 36
24 30 40
24 30 40
23 29 38
24 30 39
22 28 37
22 28 36
22 28 36
25 30 39
22 27 35
23 29 37
23 29 38
24 30 38
22 28 37
22 28 36
24 30 39
20 25 33
22 28 36
22 27 35
25 31 40
23 29 37
25 31 40
22 27 36
21 26 34
23 29 37
23 29 38
24 30 39
20 26 34
22 27 35
22 27 35
20 26 34
22 28 36
22 27 35
20 25 33
19 24 31
21 27 34
20 24 32
19 23 30
21 26 34
24 30 39
22 27 34
22 28 36
23 28 36
22 27 35
20 25 32
19 24 31
20 25 32
18 23 30
20 25 33
19 24 31
22 28 35
19 24 31
20 25 33
22 27 35
23 29 37
22 27 35
17 21 27
20 24 31
21 26 34
19 24 30
17 21 27
12 15 19
10 12 15
8 9 12
11 14 17
11 13 17
7 9 11
10 13 16
9 11 14
7 9 11
10 12 15
8 10 13
11 13 16
8 10 12
8 10 12
10 13 16
10 13 16
9 12 15
9 11 14
9 11 14
12 15 19
9 11 14
11 13 17
8 10 13
9 10 13
9 10 13
8 10 13
8 10 12
7 9 12
9 11 14
7 9 12
10 12 16
9 11 14
7 9 11
10 12 15
12 14 18
8 10 12
8 10 13
11 13 17
8 10 13
9 11 14
11 13 17
9 11 13
11 13 17
8 10 12
13 16 20
10 12 15
8 10 13
12 14 18
8 10 13
10 13 16
9 11 15
8 9 12
8 10 12
11 13 16
8 10 13
7 9 11
7 9 11
10 12 15
9 11 14
8 10 13
10 12 15
12 15 18
6 7 9
9 11 14
7 9 12
13 16 20
7 8 10
10 12 16
9 11 14
10 12 15
10 12 15
9 11 14
9 11 13
11 14 17
12 14 18
11 13 17
10 12 16
9 11 14
10 11 14
10 12 15
8 9 12
7 8 10
12 14 18
8 10 13
8 9 12
9 11 14
9 11 14
7 9 11
7 8 10
6 8 10
8 10 12
9 12 15
18 22 28
17 21 27
21 26 33
21 26 33
19 24 31
20 24 30
22 27 34
20 25 32
20 24 32
18 22 29
19 24 32
21 26 34
23 29 37
21 26 33
21 27 34
21 26 34
23 28 36
21 26 34
22 28 37
21 26 34
20 25 33
22 27 35
20 24 32
21 26 33
20 25 33
22 28 36
22 28 36
20 25 32
22 28 36
23 29 38
22 28 36
23 28 37
21 27 35
21 26 33
23 29 38
19 23 30
22 27 36
22 28 36
23 29 37
22 27 35
22 28 36
23 29 38
22 27 36
23 28 36
22 28 36
25 32 41
24 30 39
21 27 35
21 26 34
23 28 36
23 29 38
23 28 36
21 27 35
23 29 38
23 28 37
21 26 34
23 29 38
23 29 37
21 27 34
21 25 33
24 30 39
22 28 36
20 25 32
23 28 37
23 29 38
22 27 35
26 32 41
22 27 36
23 28 37
22 27 36
23 29 38
21 26 34
24 30 39
23 29 37
24 30 38
24 30 39
25 31 40
22 27 35
23 29 38
23 29 38
22 27 35
23 29 39
25 31 40
25 31 40
25 32 42
23 29 38
26 33 42
25 31 40
21 27 35
23 29 38
23 28 37
24 30 39
25 31 40
23 28 37
23 29 37
23 29 38
23 29 37
24 30 39
23 29 38
22 28 36
23 28 37
25 31 41
25 31 39
24 30 39
25 31 40
25 31 41
21 27 35
23 28 36
24 30 39
25 31 41
25 31 39
25 31 40
23 29 38
24 30 39
23 28 36
24 30 39
24 30 39
26 33 42
27 34 44
22 28 36
24 30 40
22 27 35
24 30 40
22 28 37
24 30 39
26 33 43
24 30 40
24 30 39
22 28 36
24 31 41
23 28 37
22 27 35
22 28 36
23 28 37
24 30 39
23 29 39
23 28 37
24 30 39
25 32 41
26 32 42
25 31 41
21 27 35
25 31 41
23 28 37
24 30 39
25 31 40
25 31 40
24 30 39
24 30 39
24 30 39
21 27 35
25 30 39
23 29 37
24 30 39
25 31 40
23 29 37
26 32 42
24 31 41
22 28 36
25 31 40
24 30 39
20 25 33
24 30 39
25 31 40
22 27 35
25 32 41
23 29 38
24 30 40
22 27 35
25 31 41
25 31 40
24 30 40
23 29 37
23 29 38
23 29 38
23 29 37
23 29 38
23 29 37
24 30 40
21 26 33
22 27 35
24 30 38
24 30 39
25 31 41
24 29 38
25 31 40
25 32 42
24 30 39
25 31 40
22 28 36
22 28 36
23 28 37
23 29 38
25 31 40
25 32 41
23 29 38
25 31 41
25 32 42
24 30 38
23 28 36
22 28 36
22 28 36
24 31 40
25 31 41
23 29 38
24 30 39
24 29 38
24 30 39
23 28 37
23 29 38
24 30 39
24 30 39
24 30 39
23 29 38
23 29 38
23 29 37
24 31 40
24 30 39
23 28 37
26 32 41
27 33 43
24 30 39
25 31 41
26 32 42
24 30 39
27 34 43
25 32 42
23 29 37
23 29 37
25 31 41
24 30 39
25 31 40
24 30 39
22 28 36
24 29 37
23 29 38
22 27 35
22 27 35
22 28 37
21 26 34
25 31 41
22 27 36
22 28 36
24 30 39
22 27 35
21 26 34
22 27 36
22 27 35
25 31 39
25 31 40
23 29 37
23 29 38
24 30 38
22 28 37
23 29 38
21 26 35
22 27 35
22 28 36
23 29 38
23 28 37
24 30 39
21 27 35
22 28 36
21 27 35
22 27 36
22 28 35
23 28 36
22 27 35
22 28 36
22 27 35
23 29 37
22 27 34
19 24 32
21 27 35
24 30 39
21 26 34
21 26 34
23 28 37
21 27 35
21 26 34
20 24 32
20 25 32
20 26 34
22 27 35
22 28 36
23 28 37
23 29 37
19 24 31
21 26 33
19 24 31
21 27 35
21 26 33
20 25 32
20 24 31
20 25 32
22 27 35
18 22 28
21 26 33
19 23 30
18 23 30
19 24 32
20 25 32
18 22 28
17 22 28
17 22 29
18 22 28
18 22 28
20 25 31
18 22 29
11 14 18
7 9 11
9 10 13
9 11 14
7 9 12
9 11 14
8 10 12
8 10 12
8 10 12
6 7 9
9 10 13
11 13 17
8 10 13
8 10 13
8 9 12
10 12 16
9 11 14
10 12 15
8 9 12
13 15 20
9 11 13
11 13 16
11 13 17
9 11 14
10 12 16
10 13 16
8 9 12
8 10 12
9 11 14
11 14 18
9 11 14
7 9 11
10 12 15
8 10 13
9 11 14
11 13 17
9 10 13
10 13 16
12 14 18
11 13 17
9 11 14
9 11 14
10 12 15
12 15 19
8 9 12
10 12 15
9 12 15
8 9 12
11 13 17
11 14 17
9 11 14
6 8 10
8 10 13
9 11 14
8 10 13
10 12 15
10 13 16
9 10 13
9 12 15
7 9 11
9 11 14
9 11 14
9 11 15
12 14 18
8 10 13
8 9 12
9 11 14
8 10 13
11 13 16
10 13 16
10 12 15
11 13 17
10 12 15
6 8 10
11 14 18
10 12 15
9 11 13
10 12 16
9 10 13
9 11 14
11 13 17
10 12 15
8 9 12
9 11 14
9 10 13
6 8 10
10 12 15
8 10 13
9 11 14
12 14 18
17 21 27
16 20 26
18 22 29
20 25 32
21 26 34
21 26 33
21 26 33
20 24 32
19 23 30
20 25 32
19 23 30
19 23 30
20 26 34
19 24 31
18 23 29
19 24 32
21 26 34
21 26 34
20 26 33
20 26 34
22 27 36
21 26 34
22 27 36
21 26 34
19 24 31
22 28 37
21 26 34
22 27 34
21 26 34
22 27 35
21 26 34
21 26 34
20 25 32
19 23 30
23 28 37
19 24 31
22 28 36
19 24 31
21 26 33
23 28 37
21 26 34
23 28 37
21 26 34
21 27 35
23 29 38
22 28 36
23 28 37
19 24 31
20 25 33
23 29 38
24 30 39
21 27 34
23 29 38
23 29 37
24 30 39
24 31 40
23 29 38
20 26 33
23 29 38
25 31 40
22 27 36
22 27 35
25 30 39
23 28 37
21 27 35
23 29 38
21 26 34
22 28 36
26 32 41
24 30 39
21 26 34
23 29 37
23 29 38
23 29 38
23 29 38
24 31 40
21 26 33
21 27 35
25 32 42
22 28 37
23 28 37
21 27 35
25 31 40
24 30 39
20 26 34
24 30 39
23 28 37
24 29 38
21 27 35
22 27 36
26 32 42
23 28 37
27 33 43
21 27 35
25 31 40
24 30 38
25 31 40
25 31 40
21 26 34
22 28 37
22 28 36
25 31 40
23 29 38
23 28 35
24 29 38
25 31 41
23 29 38
22 27 36
23 28 37
24 30 40
23 29 37
25 30 39
25 32 41
26 32 41
24 30 39
23 29 37
24 30 38
23 29 38
24 29 38
22 27 35
24 29 38
26 32 41
24 30 39
26 32 41
22 28 37
26 32 42
25 31 40
23 29 37
24 30 39
25 32 42
24 30 39
21 26 34
24 30 38
25 31 41
24 30 40
24 29 38
23 29 39
24 30 38
24 30 40
25 32 41
24 29 38
23 30 39
26 33 43
21 27 35
24 29 38
23 29 38
23 28 36
23 28 37
26 33 43
22 28 36
24 30 39
23 29 37
22 28 36
24 30 40
24 30 38
24 30 39
25 31 40
22 28 36
25 31 40
22 27 35
25 31 41
25 31 40
24 30 40
23 29 38
22 28 37
22 28 36
25 31 41
25 31 40
24 30 39
25 31 41
24 31 40
24 30 39
22 28 36
22 27 35
25 30 39
26 32 42
24 31 40
23 29 37
26 33 43
22 27 35
21 27 35
27 34 43
23 29 38
22 28 36
24 30 39
23 28 36
22 28 37
24 30 40
25 31 40
23 28 37
22 28 37
24 30 40
20 25 33
24 30 39
21 27 35
24 30 39
22 28 37
22 27 36
26 32 42
24 30 39
24 29 38
24 30 39
23 29 38
22 27 36
22 27 35
21 27 35
23 28 37
24 30 39
22 28 37
24 29 38
24 30 38
23 29 37
23 29 37
24 30 38
25 32 41
25 32 41
24 29 38
25 31 40
24 29 38
22 28 36
24 30 40
23 29 37
24 29 38
23 29 38
25 32 42
25 31 40
22 28 37
24 30 39
21 27 35
22 27 35
23 29 37
24 30 39
22 28 36
24 30 39
23 28 36
21 26 35
22 27 36
24 31 40
23 29 38
24 30 39
21 26 34
24 29 38
21 26 34
25 32 41
24 30 38
21 27 36
24 29 37
25 31 40
23 28 36
24 30 38
20 25 33
24 30 39
24 29 37
22 27 34
23 29 38
22 27 35
23 28 36
21 26 34
24 30 39
24 30 40
24 30 39
22 27 35
25 31 40
23 29 38
21 27 35
23 29 37
22 27 35
22 27 36
22 28 36
18 23 30
21 26 34
20 25 33
22 27 35
23 29 37
20 25 33
21 26 34
24 29 38
20 25 32
20 25 33
23 29 38
19 23 30
21 26 33
21 26 34
21 26 34
21 26 34
22 27 35
20 26 33
17 21 27
21 26 34
20 25 32
21 26 34
20 25 32
20 25 33
20 25 32
21 26 34
22 27 34
21 26 33
17 22 28
21 26 34
21 26 34
21 26 33
19 23 30
17 21 27
20 25 32
19 23 29
22 27 36
19 24 30
18 22 28
17 21 27
20 25 32
16 20 25
10 12 16
7 8 10
8 9 12
8 10 12
9 11 13
9 11 14
12 14 18
9 11 13
9 11 14
8 9 12
7 8 10
7 9 12
7 8 11
9 10 13
8 9 12
10 12 16
10 12 15
10 12 15
11 13 16
12 14 17
9 11 14
8 10 13
9 11 14
7 8 10
8 10 13
10 13 16
11 13 16
9 11 13
11 13 16
10 12 15
10 13 16
10 12 15
9 12 15
9 11 14
7 9 11
6 7 9
10 13 16
10 12 15
11 13 17
9 11 14
7 9 12
8 10 14
10 12 15
8 9 11
10 12 15
8 10 13
11 13 16
10 12 15
8 10 12
8 10 13
11 13 16
7 9 11
7 9 11
8 10 13
8 10 13
11 13 16
10 12 15
9 11 14
10 11 14
11 13 17
7 9 11
8 10 13
10 12 15
13 16 20
9 12 15
8 10 13
12 14 18
9 11 14
7 8 11
9 11 14
10 12 16
8 10 12
9 11 15
8 10 13
12 15 18
9 11 14
10 11 14
8 10 13
9 11 13
10 13 16
9 11 14
11 13 16
8 10 13
7 9 12
10 12 16
7 8 11
10 12 14
10 13 16
19 23 30
17 21 27
20 24 31
21 26 33
21 26 33
18 22 29
19 23 30
18 22 29
18 23 29
17 21 28
20 25 32
19 23 30
21 26 33
18 22 29
18 23 30
19 24 31
20 25 32
21 27 35
23 28 37
18 22 29
20 25 32
21 26 34
19 23 30
18 22 29
21 27 35
20 25 33
21 26 34
22 27 35
20 25 33
22 28 36
18 23 30
21 26 34
22 27 35
22 27 36
21 27 35
22 28 36
21 26 34
22 28 36
22 27 36
22 27 36
20 25 33
22 28 37
24 29 38
25 31 41
20 25 33
21 26 34
20 24 32
20 25 33
23 29 37
21 26 33
23 29 37
24 30 39
20 25 32
22 27 35
22 28 36
22 27 35
22 28 36
22 28 36
24 30 40
24 29 38
23 28 37
23 29 38
22 28 37
23 29 38
21 26 34
23 28 36
21 27 35
21 26 33
20 26 34
24 30 39
25 31 41
22 28 36
21 27 35
21 27 35
22 28 36
24 30 39
22 28 37
22 28 37
24 30 39
24 31 40
24 30 40
25 31 41
21 27 35
23 29 38
24 30 39
24 30 39
19 24 31
24 29 38
21 27 35
19 24 31
25 30 39
25 31 41
24 30 39
22 28 37
25 31 40
24 30 38
23 28 37
23 29 37
23 28 37
23 28 36
22 28 36
25 31 41
26 32 42
26 33 42
22 27 35
23 29 37
24 30 39
23 28 37
22 28 37
23 28 37
25 31 40
23 29 38
23 29 37
23 29 38
27 33 43
25 31 40
27 33 44
22 27 36
25 31 41
24 30 39
24 29 38
25 32 42
24 30 38
23 28 37
25 32 41
22 28 37
25 31 41
23 29 38
24 30 39
24 30 39
25 31 41
25 30 39
24 30 39
24 30 39
24 30 40
21 26 34
23 29 38
24 30 38
24 30 39
24 30 39
24 30 39
25 31 40
26 32 41
23 29 37
24 30 39
23 28 37
24 30 39
23 29 38
23 29 38
24 30 39
23 29 37
23 29 38
22 28 37
23 29 37
24 31 40
23 28 36
24 30 40
25 31 39
24 29 38
23 29 37
25 31 40
24 29 38
22 28 36
25 32 42
23 28 36
25 32 42
25 32 41
24 29 38
23 29 38
23 28 37
22 27 36
26 32 42
24 30 39
25 31 40
24 31 40
24 30 39
23 29 37
23 29 38
24 30 39
23 29 38
23 29 37
23 28 36
20 26 33
23 28 37
25 30 39
24 30 40
23 29 37
20 25 33
24 29 38
23 28 37
23 29 38
23 29 38
25 31 41
23 29 38
25 31 41
23 29 37
24 30 40
22 28 36
22 27 36
26 32 41
23 29 39
24 30 38
27 33 42
24 30 38
21 26 34
23 29 37
26 32 42
24 29 38
22 27 35
23 28 37
24 30 39
25 31 41
25 31 40
26 32 42
22 27 36
24 30 40
24 30 39
24 30 39
22 27 35
21 26 34
23 29 38
25 32 41
23 29 38
21 27 35
25 31 41
24 30 39
24 30 40
23 29 38
22 27 34
22 28 36
24 31 40
21 26 35
24 30 39
21 26 34
23 29 37
24 31 40
25 31 40
23 28 37
21 26 35
23 29 38
21 27 35
23 29 37
23 29 38
24 30 39
24 30 39
23 29 39
24 30 39
23 29 37
21 26 34
24 30 39
23 28 36
23 29 38
21 26 34
22 28 36
22 27 35
23 29 37
23 28 37
21 26 35
22 28 35
23 29 37
23 29 37
22 28 37
21 26 34
23 29 38
18 22 29
22 27 36
22 28 36
22 28 37
19 24 31
22 27 35
22 27 35
21 26 33
23 29 38
20 25 32
22 28 36
22 27 34
21 27 35
21 27 34
20 25 32
24 30 39
20 25 32
19 24 32
21 26 34
25 31 40
20 25 33
22 28 37
23 28 36
22 27 35
21 26 34
21 26 34
20 25 32
19 24 31
20 25 32
22 28 36
18 22 29
21 26 34
22 28 36
19 24 31
19 24 31
19 24 31
20 24 31
19 23 30
18 23 29
17 21 28
20 25 32
21 25 33
18 22 27
16 20 26
17 21 27
19 24 31
16 20 26
18 22 29
16 19 25
11 13 17
6 7 9
7 9 11
7 9 11
8 10 12
7 9 11
11 13 17
8 10 13
10 12 16
10 12 14
10 12 15
8 10 13
10 12 16
10 12 15
9 11 14
11 13 17
8 10 13
10 13 16
10 12 15
13 15 19
8 10 12
8 9 12
9 11 14
9 11 14
8 10 13
7 8 11
11 14 18
9 11 14
9 11 15
8 10 12
9 11 13
9 11 14
11 13 16
7 9 12
10 13 16
8 10 13
8 10 13
8 10 13
9 11 14
8 10 13
10 12 15
7 9 11
9 10 13
10 12 14
8 9 12
11 13 16
7 8 10
9 11 13
10 13 16
7 8 10
10 12 15
10 13 16
9 11 14
9 11 14
9 11 14
10 12 16
11 13 17
12 14 17
10 12 15
7 8 11
9 11 14
10 12 16
10 12 14
8 10 12
9 11 14
10 13 16
8 10 13
10 12 15
9 11 14
8 10 13
7 8 10
10 12 15
9 11 13
11 14 17
11 13 16
8 10 12
7 9 11
9 11 14
8 10 13
8 9 12
8 10 12
7 8 11
8 10 12
6 7 9
9 10 13
11 13 17
18 22 28
18 22 28
20 24 31
20 24 31
20 25 33
20 25 31
17 21 26
19 23 29
19 23 30
20 25 32
22 27 35
18 23 30
17 21 27
16 20 26
24 30 38
21 26 34
19 24 31
20 25 32
20 25 32
19 23 29
17 22 29
20 25 32
21 27 35
21 25 31
20 24 31
19 24 31
22 27 35
21 26 34
22 27 36
18 22 29
22 27 35
21 26 34
19 24 32
21 27 35
21 25 33
24 30 39
23 28 36
21 27 35
26 32 42
20 25 32
23 28 37
22 28 36
21 27 35
20 25 33
22 28 36
20 25 33
24 30 39
19 24 31
20 25 33
24 30 39
22 28 36
19 23 30
22 27 36
21 26 34
20 25 33
20 25 33
19 24 31
23 29 38
21 27 35
22 28 37
20 26 33
23 28 37
23 29 38
21 26 34
22 28 36
21 27 35
20 24 32
22 27 35
21 26 34
21 27 35
22 28 36
22 28 36
25 31 40
22 28 36
22 27 36
22 27 35
21 26 34
25 31 40
24 29 38
23 28 37
24 29 38
24 30 39
23 28 37
23 29 39
26 32 41
22 28 36
23 28 37
25 32 41
25 32 42
24 30 38
24 30 39
22 28 37
22 27 35
24 30 38
24 30 38
23 29 37
22 28 36
24 30 39
20 26 34
22 27 35
21 27 35
22 27 36
22 28 37
23 29 38
24 30 39
24 30 39
22 27 35
21 26 34
24 29 38
26 33 42
23 28 37
25 31 41
26 32 42
26 32 41
23 29 38
24 30 39
23 29 38
22 28 36
25 31 41
26 33 42
23 30 39
23 28 37
23 29 37
22 27 36
24 31 40
26 32 41
24 30 39
21 27 35
24 30 39
22 28 37
23 28 36
25 31 39
23 29 37
24 30 39
24 30 39
22 27 35
26 32 42
24 30 39
24 30 39
26 32 42
23 28 36
25 32 41
22 27 35
22 28 36
24 30 39
24 30 39
25 31 40
22 27 36
25 32 41
22 28 36
22 28 36
24 30 39
25 32 42
25 31 41
26 32 42
23 28 37
25 31 41
23 29 37
25 30 39
22 28 36
24 30 38
23 28 37
24 30 39
24 30 39
25 31 40
24 30 40
21 27 34
25 31 40
24 31 40
22 28 36
21 26 34
23 29 38
24 31 40
20 25 33
26 32 42
23 29 38
23 29 38
22 28 36
23 29 37
24 30 39
23 29 37
22 28 36
22 27 35
25 30 39
23 29 37
26 32 42
26 32 42
24 30 38
24 30 40
25 31 41
23 29 38
24 30 40
23 29 38
24 30 39
24 30 38
25 31 39
25 31 40
23 29 37
23 29 38
22 28 37
22 28 36
22 27 36
25 32 41
26 32 42
24 30 39
23 29 38
22 27 35
24 30 39
23 29 38
21 26 34
25 31 41
20 26 33
22 28 36
26 32 42
26 33 43
21 26 34
22 28 36
23 28 37
24 30 40
20 26 33
22 28 36
26 32 41
24 30 39
21 26 34
24 30 39
24 29 38
22 27 36
24 29 38
23 29 37
25 31 40
21 27 35
25 31 41
22 27 36
24 30 39
23 29 37
22 27 35
22 27 36
24 29 38
23 28 37
24 30 39
24 30 39
20 25 33
24 30 38
23 28 36
25 31 40
22 28 36
25 31 40
24 30 40
24 29 38
25 31 40
23 29 37
23 29 37
22 27 36
22 27 36
24 30 40
20 25 32
21 26 34
22 28 36
21 26 34
20 25 33
25 31 40
20 26 34
23 29 38
23 29 38
23 29 38
24 30 39
20 25 33
22 27 35
21 27 34
22 28 37
20 25 32
21 26 34
23 28 37
19 24 31
19 24 31
23 29 37
24 30 39
24 30 38
22 27 36
19 24 32
20 26 34
19 24 32
22 28 36
21 26 34
20 25 32
19 24 31
20 25 32
18 23 30
22 27 35
19 24 32
20 25 32
18 22 28
19 23 30
24 30 39
19 23 31
22 27 35
18 22 28
22 27 35
21 26 33
20 24 31
17 21 27
20 24 31
20 25 32
23 28 35
15 18 23
18 22 29
18 22 29
18 22 29
18 23 29
19 24 30
17 21 28
20 25 31
20 25 31
17 21 28
19 23 30
12 15 19
9 11 13
7 8 11
10 12 15
12 15 18
12 14 17
7 9 12
9 12 15
9 11 14
9 10 13
9 11 14
7 9 11
6 8 10
9 11 14
10 12 15
11 14 17
10 12 15
9 10 13
11 13 17
9 11 14
10 12 16
12 14 18
9 10 13
11 13 17
8 10 13
7 9 11
12 14 18
9 11 15
9 11 14
8 10 13
10 12 15
10 12 15
9 11 14
7 9 11
8 10 13
8 10 13
10 12 15
8 9 12
8 10 13
13 16 20
9 11 14
12 14 18
9 11 13
8 10 13
10 12 15
9 11 14
9 12 15
9 11 14
11 14 17
8 10 12
9 11 14
11 13 16
10 13 16
11 13 16
10 12 15
9 11 14
10 12 15
10 12 15
12 14 18
10 11 14
8 10 12
10 12 15
9 11 13
9 11 14
10 12 15
12 15 19
10 12 16
8 10 12
10 12 15
8 10 13
10 12 15
10 12 14
6 7 9
11 13 17
12 14 18
10 12 15
11 13 16
10 12 15
9 11 13
8 10 12
7 8 10
10 12 15
7 8 11
9 11 15
17 21 27
16 20 25
17 21 27
16 20 26
20 24 32
21 26 33
16 20 25
21 26 33
19 24 31
16 20 26
19 23 29
19 23 29
16 21 27
18 22 28
19 23 30
16 20 26
19 23 30
21 26 34
20 25 32
19 24 31
22 27 34
22 27 35
23 29 38
18 23 30
21 26 33
20 25 32
20 25 33
20 25 32
22 27 35
21 25 32
19 24 31
22 27 36
22 27 34
21 26 33
21 26 34
19 24 31
21 26 34
20 25 33
19 24 31
24 30 39
24 29 38
22 27 35
19 24 31
22 28 36
21 26 34
22 27 36
21 27 34
20 25 32
23 28 37
21 26 34
22 27 36
20 25 33
22 27 35
22 27 35
22 28 37
20 25 32
21 26 34
24 30 39
21 27 35
20 25 32
23 28 37
22 28 36
23 29 37
25 31 40
23 28 37
22 28 37
24 30 39
20 25 32
20 25 33
23 28 37
22 27 34
23 29 37
24 31 40
20 25 33
20 26 33
22 27 35
25 30 39
23 29 38
25 32 41
24 30 39
22 28 36
26 32 42
24 30 39
25 31 39
21 26 34
24 30 39
24 30 39
22 27 35
21 27 35
22 27 35
25 31 40
22 27 36
21 27 35
22 28 37
22 28 37
21 27 34
24 30 39
21 27 34
23 29 37
25 31 40
25 30 39
25 31 40
25 32 42
22 28 37
22 27 35
21 26 33
24 29 38
25 31 40
24 30 39
24 29 38
22 27 36
20 25 32
24 30 40
24 30 39
26 32 42
23 28 36
25 31 40
28 35 45
25 31 40
21 26 34
23 29 38
23 29 38
25 31 40
23 29 38
24 30 39
25 31 41
25 31 40
24 29 38
24 30 39
23 29 37
24 30 39
24 30 39
22 27 34
25 31 41
24 29 37
26 32 42
25 31 40
25 32 41
25 31 41
24 30 39
23 29 38
22 28 37
23 29 39
24 29 38
25 31 40
22 28 36
24 30 40
24 29 38
24 30 40
26 31 40
24 30 39
25 31 40
24 30 39
24 30 38
24 30 39
25 32 41
23 29 38
24 29 38
25 31 40
23 29 38
24 30 39
24 30 38
24 30 39
24 30 40
24 30 39
23 28 36
25 32 42
25 31 40
24 30 38
23 29 38
24 30 39
23 29 38
24 30 38
22 28 36
26 32 42
25 31 41
22 27 35
21 26 33
24 30 38
23 29 37
23 28 36
21 26 34
24 31 40
23 29 37
22 28 36
23 29 37
24 30 38
25 31 40
24 30 39
24 30 39
24 29 38
24 30 39
23 28 36
24 30 39
25 31 40
24 31 40
23 29 38
21 27 35
22 28 37
23 29 38
24 29 38
23 29 38
22 28 36
26 32 42
25 31 41
24 30 39
24 29 38
25 31 41
24 30 39
22 28 36
23 28 37
25 32 41
23 29 38
23 29 39
22 27 35
24 31 40
21 26 34
25 31 41
25 31 41
25 31 40
22 28 36
23 29 37
25 32 42
21 26 35
22 27 36
20 25 33
22 28 36
26 33 43
24 30 39
24 30 39
22 28 36
20 25 33
21 26 34
21 26 34
23 28 36
25 31 40
24 30 40
21 27 35
23 29 37
23 29 37
23 29 38
24 30 39
22 27 35
22 28 36
22 28 36
20 25 33
24 30 38
22 27 36
22 27 35
23 29 37
23 29 37
21 26 35
22 28 37
23 28 36
22 28 35
21 27 35
20 26 34
24 29 38
25 31 40
19 24 31
19 24 31
21 26 35
21 26 34
21 26 34
24 29 38
22 28 36
22 27 35
19 24 32
19 23 31
22 27 35
20 25 33
21 26 34
21 26 34
22 27 35
19 24 31
23 29 38
21 26 34
21 26 34
22 27 35
19 24 31
22 28 37
19 24 31
21 26 35
21 26 33
23 28 35
24 29 37
21 27 35
21 26 33
19 24 31
19 24 31
21 25 33
22 27 35
22 27 35
20 25 33
18 23 30
19 24 30
19 24 32
19 24 30
17 21 27
20 24 31
20 25 32
16 20 26
19 23 30
18 22 28
19 23 30
19 24 31
22 27 35
17 21 27
19 24 31
17 21 27
18 22 29
18 22 28
19 23 30
16 20 26
19 23 29
18 23 29
16 20 25
14 17 21
9 10 13
9 11 14
7 9 12
9 11 14
9 11 13
10 12 16
9 11 13
8 9 12
7 9 12
7 9 11
10 12 15
10 12 15
10 12 15
8 10 12
9 11 14
9 11 14
7 9 11
6 8 10
8 10 12
7 9 11
10 12 16
10 12 15
9 11 14
9 11 14
10 12 15
10 13 16
9 11 14
9 10 13
10 12 15
10 12 15
11 13 17
8 10 13
12 14 18
10 13 16
9 11 14
12 14 18
11 14 17
10 12 16
11 13 17
9 10 13
9 11 15
9 11 13
7 9 12
9 12 15
7 8 11
7 8 11
9 11 14
9 11 14
10 12 15
11 13 16
10 12 15
8 10 13
11 13 16
8 10 13
11 13 16
9 11 14
8 10 13
12 14 18
9 11 14
7 9 11
9 11 14
10 12 15
6 7 9
9 11 13
8 9 12
9 11 14
9 11 15
11 13 17
9 11 14
8 9 12
8 10 13
8 9 12
8 9 12
9 11 13
7 8 10
10 12 15
7 8 10
10 12 15
10 12 15
9 11 14
14 17 21
17 21 27
18 23 30
17 21 26
20 24 30
16 20 25
18 22 28
18 22 28
16 20 26
14 18 23
21 25 32
22 27 35
21 26 33
18 23 29
18 22 29
19 23 31
18 22 28
20 24 31
18 22 28
19 24 31
20 24 32
19 23 30
22 27 35
18 22 29
21 25 33
20 24 31
20 25 32
23 28 37
20 25 33
19 23 29
20 25 32
19 24 31
20 25 33
20 25 32
21 27 35
20 25 32
23 28 36
19 24 32
20 25 33
22 28 36
22 28 36
19 24 31
23 28 37
21 26 34
20 26 33
24 29 38
22 28 36
22 28 37
22 27 35
22 28 36
22 28 36
22 27 35
23 29 37
19 24 31
21 26 34
21 26 34
20 25 33
24 30 39
23 29 37
21 27 34
24 30 39
21 26 34
22 28 36
20 25 33
22 28 36
24 30 38
23 29 37
19 24 31
23 28 37
20 25 33
22 28 37
23 28 37
20 25 33
20 25 32
21 27 35
23 29 37
23 29 37
23 30 39
21 27 35
23 29 37
22 27 35
19 23 30
24 29 38
24 29 38
22 27 35
26 32 42
23 29 37
22 27 35
23 28 37
23 28 36
22 27 36
23 29 37
22 28 37
24 30 38
22 28 36
22 27 36
22 27 36
21 26 34
22 28 37
22 28 37
23 29 37
23 29 38
20 25 33
23 29 38
24 30 39
22 28 36
23 28 37
22 27 35
23 29 37
25 31 40
24 30 40
25 31 40
21 27 35
26 33 42
24 31 40
22 28 37
22 28 37
23 29 37
20 26 34
23 29 38
22 27 34
24 30 39
24 30 40
24 30 39
25 31 40
25 31 41
23 28 36
25 31 40
21 26 34
23 29 37
23 29 38
24 30 39
22 27 35
24 30 39
23 29 38
23 28 37
24 30 39
24 30 39
24 30 39
24 30 39
27 34 43
24 31 40
26 33 43
25 30 39
23 28 37
23 28 37
25 31 40
22 27 35
21 27 35
26 32 41
23 29 38
23 29 37
24 30 40
24 30 38
23 29 38
26 33 42
20 24 32
21 27 35
22 28 37
24 30 39
24 30 40
25 31 41
23 29 37
23 28 37
23 28 37
24 30 39
23 28 37
23 29 38
24 30 40
26 32 41
24 30 38
22 28 37
25 31 41
24 30 39
24 30 39
25 31 40
26 32 42
22 28 37
22 28 36
27 33 44
23 29 37
24 30 39
24 30 40
24 30 39
24 29 38
24 30 38
22 28 35
26 33 43
24 30 39
20 25 33
24 30 39
25 31 41
24 30 39
24 31 40
24 29 38
25 31 40
24 30 39
24 30 39
24 31 40
24 30 39
22 27 36
22 27 35
25 32 41
23 29 38
26 32 41
24 30 38
25 31 40
24 30 40
23 29 39
23 29 39
23 29 37
21 26 35
26 32 41
21 27 35
24 30 39
24 30 39
24 30 39
23 29 39
25 31 40
25 31 41
22 28 36
22 27 36
24 30 39
22 28 36
23 28 37
22 28 36
24 30 39
26 32 41
22 28 36
23 29 38
20 26 33
22 28 36
25 31 40
24 30 39
24 29 38
22 28 37
23 29 38
21 26 35
23 29 37
25 31 40
22 28 36
22 27 35
22 27 36
25 31 41
21 26 34
24 30 39
23 28 36
24 30 38
21 26 34
23 29 38
25 31 40
21 26 34
21 26 33
23 28 37
22 28 36
22 28 36
22 27 35
20 25 33
24 29 37
22 27 34
22 28 36
22 27 36
23 29 37
20 25 32
23 29 38
21 26 33
23 28 36
19 24 31
23 28 36
22 27 35
23 28 37
21 26 34
23 28 37
19 24 32
23 28 37
22 27 36
23 28 37
19 24 31
21 26 34
20 24 31
23 29 37
20 25 33
21 27 35
23 29 37
20 25 32
21 26 34
19 24 32
23 28 35
22 27 35
20 24 31
20 25 33
23 28 36
21 27 35
19 24 30
20 25 32
19 24 31
19 24 31
16 20 27
19 23 29
22 27 35
20 25 32
18 23 29
18 23 29
16 20 26
19 23 30
19 24 31
18 23 30
20 25 32
17 21 27
19 24 31
21 26 33
18 22 28
18 22 28
17 21 27
22 27 35
16 20 26
17 21 27
15 19 25
13 17 22
18 22 28
15 18 22
10 13 16
9 10 13
7 9 11
11 14 17
7 8 11
8 10 12
8 10 13
11 13 16
10 12 15
9 11 15
9 11 14
6 8 9
5 6 8
9 11 14
6 8 10
9 10 13
10 12 16
9 11 13
7 9 11
9 11 14
7 9 11
10 12 15
11 13 16
7 8 10
8 10 12
11 13 16
12 14 18
10 12 15
8 10 12
7 9 11
9 11 14
11 13 17
10 12 16
11 13 17
9 11 14
12 15 19
7 9 11
9 11 13
9 11 14
12 14 18
8 10 13
8 10 13
9 11 14
8 10 13
11 13 17
7 9 11
8 9 12
12 14 18
9 11 14
10 12 15
7 8 10
8 9 12
11 13 17
8 10 13
10 12 15
9 11 14
6 7 9
9 10 13
9 11 14
6 7 9
9 11 14
11 14 17
10 12 15
11 13 16
10 12 16
8 9 12
9 11 14
10 12 15
8 9 12
9 11 14
7 9 11
9 11 13
7 9 11
8 10 12
9 11 14
9 11 13
7 8 10
11 14 17
15 18 23
16 19 24
17 21 27
17 21 27
17 21 27
15 18 23
20 24 30
17 20 26
17 22 28
15 19 24
17 21 27
17 21 28
19 23 30
20 24 31
18 22 29
20 25 32
19 24 31
15 19 24
18 23 29
21 26 33
18 23 29
17 21 27
20 25 32
18 22 28
18 23 29
24 30 38
21 27 35
22 27 35
19 23 30
22 27 35
22 27 35
20 25 33
19 24 31
23 28 36
20 26 33
20 25 32
21 27 35
21 27 35
21 26 34
17 22 29
20 25 32
23 28 37
19 23 30
22 27 34
22 27 35
22 27 35
21 26 33
21 26 35
22 27 34
19 24 31
21 26 34
22 28 36
25 31 40
24 29 38
24 30 39
24 30 39
21 27 35
22 28 36
20 26 34
23 29 38
22 27 35
21 26 34
24 30 38
22 28 36
21 27 35
19 24 32
24 30 39
22 27 35
23 29 38
20 25 33
23 29 37
23 29 38
23 28 36
22 28 36
22 27 35
22 28 36
24 30 39
24 30 39
24 30 40
24 30 39
21 26 34
22 28 37
24 30 39
22 27 36
24 30 40
23 29 38
21 26 34
23 29 38
22 28 37
23 29 38
21 27 34
22 27 35
21 27 34
21 27 35
21 26 34
22 27 35
24 30 39
23 29 38
24 30 39
24 31 40
22 27 35
26 32 41
22 28 36
23 28 37
24 30 39
22 28 36
24 30 39
24 30 39
26 32 42
22 28 36
25 32 41
25 32 41
22 28 37
23 29 38
24 30 39
21 27 35
22 28 36
23 30 39
25 31 41
24 30 39
24 30 40
24 30 38
22 28 36
24 30 39
21 26 34
25 31 41
21 27 35
22 28 36
25 31 40
23 30 39
24 30 39
25 31 40
25 31 41
23 29 38
24 30 39
25 31 40
22 27 35
24 30 39
24 30 40
24 30 39
22 28 37
25 32 41
24 30 39
23 29 38
24 29 38
23 29 37
25 31 40
21 26 33
24 30 39
23 29 38
24 29 38
24 29 38
26 32 42
25 31 40
24 30 39
26 32 42
24 30 39
23 29 37
24 30 40
22 27 36
26 32 41
23 29 38
24 30 39
25 31 40
25 31 40
22 27 35
25 32 41
25 31 41
23 29 37
25 31 40
26 33 42
25 32 41
23 29 38
25 31 40
24 30 40
25 32 42
24 30 39
26 32 41
23 29 38
22 28 36
24 30 39
23 28 37
23 29 38
26 32 42
24 31 40
24 30 40
24 30 40
24 30 39
22 28 37
24 30 39
23 29 38
24 30 39
23 29 38
24 30 39
22 28 36
23 28 36
23 29 37
23 29 37
24 30 39
23 29 38
22 27 36
22 28 36
23 28 36
24 30 39
23 28 35
24 30 39
25 32 41
20 25 33
25 31 41
23 29 37
24 30 38
23 29 38
21 26 33
22 28 36
26 32 41
25 31 41
23 29 38
22 28 36
25 32 41
20 25 32
20 25 33
21 27 35
24 30 39
23 29 38
22 28 36
22 27 35
21 27 34
23 28 37
24 30 38
23 28 37
24 30 40
22 27 35
24 30 39
22 27 36
25 30 39
21 27 35
24 29 38
21 27 35
23 29 38
21 27 35
23 28 37
22 28 36
23 29 38
23 29 38
22 28 36
21 27 35
23 29 37
22 27 36
21 27 35
22 28 36
22 27 36
23 28 37
21 26 33
22 27 36
23 29 38
22 28 37
21 27 34
22 27 35
24 30 38
24 29 37
20 26 34
24 30 39
23 29 38
19 24 32
21 26 34
23 28 36
20 25 33
20 24 31
24 30 39
21 27 34
21 27 35
22 27 35
20 25 32
20 25 32
22 27 36
18 23 29
23 29 37
23 28 36
21 27 35
20 25 32
23 29 37
19 24 31
21 26 33
21 26 33
20 25 32
20 25 32
17 21 27
21 26 35
22 27 35
17 22 28
18 23 30
20 25 32
20 24 31
21 26 33
20 25 32
18 23 29
18 22 29
22 27 35
18 22 28
18 22 28
19 23 30
18 22 29
20 25 33
18 22 28
20 24 31
18 22 29
19 24 31
19 24 31
16 20 25
17 20 26
17 21 27
16 20 25
17 21 27
16 20 26
18 22 29
21 26 33
16 20 25
17 21 27
17 21 27
18 22 28
15 19 24
15 19 25
15 19 24
11 13 16
6 8 10
7 9 11
12 14 18
8 10 13
9 11 14
10 12 14
8 10 12
7 9 11
6 7 9
7 9 11
8 10 13
7 8 11
11 13 17
10 13 16
8 10 12
9 11 13
8 10 13
11 13 16
9 11 14
8 10 12
11 13 17
11 14 17
10 12 15
11 14 17
10 12 15
8 9 12
9 11 14
9 12 15
8 10 13
9 11 14
12 14 18
9 11 14
8 9 12
10 12 15
7 9 11
8 10 13
9 11 15
11 13 17
9 11 14
7 9 11
7 9 12
7 8 10
9 10 13
8 10 13
11 13 16
10 13 16
10 12 15
10 12 15
8 10 13
10 12 15
11 13 16
11 13 16
8 10 13
8 10 13
8 9 12
12 15 18
10 12 15
12 14 18
9 11 13
8 10 12
9 11 15
9 10 13
9 11 13
8 10 12
8 10 12
8 10 13
8 10 12
8 10 12
9 11 13
9 10 13
10 12 15
7 9 11
7 9 11
7 8 11
12 15 19
14 18 23
15 18 24
15 18 24
14 18 23
16 20 25
13 17 21
17 21 26
19 23 30
17 21 26
17 21 27
19 23 30
18 21 27
18 22 29
15 19 24
20 25 33
19 24 30
16 20 26
19 24 30
20 25 32
21 26 33
22 27 35
22 27 35
15 19 24
19 24 31
20 25 32
20 25 32
21 26 33
21 26 33
19 23 30
19 23 30
20 26 33
18 22 29
20 25 32
19 23 30
20 25 33
20 25 32
22 27 35
19 23 30
20 25 32
22 27 35
18 22 27
19 24 31
22 27 35
20 24 32
21 26 34
21 26 33
21 26 34
21 26 33
21 26 34
20 25 32
22 28 36
22 28 36
21 26 34
20 25 33
23 28 37
22 27 35
23 29 37
24 30 39
20 25 32
21 26 34
23 28 36
22 27 36
25 31 40
24 30 39
24 29 38
23 28 37
24 30 40
20 25 33
21 27 35
23 29 37
24 29 38
22 28 36
21 27 35
22 28 37
20 24 32
23 29 37
20 26 34
22 28 37
23 29 39
23 29 38
22 27 35
22 28 37
24 29 38
22 28 37
20 25 33
25 31 40
23 29 38
21 27 35
22 28 37
21 27 36
22 28 36
23 28 37
24 29 38
25 31 40
23 29 37
25 31 40
24 29 38
27 33 41
23 29 38
24 30 39
21 27 36
23 28 36
21 26 34
23 29 38
22 28 37
23 29 38
24 30 39
25 31 40
24 29 37
26 32 41
22 28 37
21 27 36
24 30 39
25 31 41
22 27 36
23 29 38
24 30 39
22 27 35
23 29 38
23 28 37
23 29 37
25 30 39
22 28 36
24 29 38
23 29 38
23 29 38
23 29 38
23 29 39
21 27 35
26 32 42
23 29 37
24 30 39
24 30 40
25 31 41
24 30 39
22 28 36
26 32 41
26 32 41
22 28 36
23 29 38
24 30 40
22 27 35
24 30 38
22 27 35
22 27 34
24 29 38
20 25 33
24 30 39
24 30 39
22 28 36
25 31 41
25 32 41
24 30 40
25 31 40
26 32 41
22 28 37
23 28 37
24 30 39
21 26 34
26 33 42
23 29 37
25 31 40
24 31 40
23 29 38
25 31 40
25 31 39
23 29 37
23 29 37
22 28 37
24 30 39
24 30 39
23 28 36
23 29 38
23 28 36
23 28 37
21 27 35
23 29 37
24 30 38
23 29 38
22 27 36
24 30 39
24 30 39
24 30 39
24 30 39
23 29 38
21 26 34
21 27 35
21 26 35
23 28 37
22 28 36
24 30 40
28 34 44
24 30 39
22 28 36
25 30 39
23 28 37
24 30 39
22 28 36
23 29 38
24 30 39
24 30 38
24 30 39
23 29 38
22 28 36
25 31 41
20 25 34
23 29 37
22 28 36
22 28 36
22 28 37
25 31 40
26 33 43
23 29 38
24 29 38
23 29 38
23 29 38
20 25 33
22 28 36
25 31 41
23 28 37
25 32 41
21 26 35
23 29 38
25 30 39
22 28 36
23 29 38
24 30 39
21 26 35
22 28 36
22 27 34
21 26 34
25 31 40
26 33 43
22 27 35
20 25 32
25 31 41
23 29 37
22 28 36
25 31 41
23 29 37
25 31 39
22 28 36
22 28 36
20 25 33
22 27 35
21 26 34
21 26 34
21 26 34
23 28 37
20 26 33
22 28 37
21 26 33
23 29 38
23 28 36
24 30 39
23 30 39
24 30 39
22 27 35
23 28 36
23 29 38
23 28 36
21 26 33
23 29 37
22 27 35
21 27 35
21 26 34
22 28 37
22 28 36
24 30 39
24 30 39
21 27 35
19 24 32
22 27 35
21 26 34
21 26 33
21 26 34
19 24 31
18 22 29
19 24 31
23 29 38
22 27 35
21 27 34
22 27 36
20 25 32
17 21 27
19 24 30
22 28 36
20 25 32
21 25 33
19 24 31
19 23 31
22 28 36
21 26 34
19 24 30
20 24 31
22 27 35
19 24 31
20 25 32
20 25 33
22 27 35
20 24 32
18 22 28
17 20 26
20 24 32
18 22 28
16 20 26
18 22 29
20 24 31
21 26 33
20 25 32
16 20 25
15 19 24
20 24 31
16 20 26
19 23 30
16 20 26
15 18 23
15 18 23
16 19 25
17 21 27
18 22 28
16 19 24
14 17 21
13 17 22
14 17 21
13 16 20
7 8 11
7 8 11
7 9 11
7 9 11
6 7 9
9 11 14
8 10 12
9 10 13
8 10 13
7 8 11
6 7 9
7 8 11
9 11 14
10 13 16
8 10 13
8 10 13
9 11 14
11 13 16
10 12 15
8 10 12
10 13 16
8 10 13
9 11 14
8 10 13
11 13 16
9 11 14
7 8 10
7 9 11
9 11 14
7 9 12
12 14 18
9 11 14
7 9 11
7 8 10
7 8 10
9 11 14
8 10 12
9 12 15
8 9 12
9 11 14
6 7 9
7 9 11
11 13 16
11 13 17
7 9 12
8 10 13
8 9 12
8 10 13
9 11 15
7 9 11
8 10 12
8 9 12
6 7 9
7 9 11
7 9 11
8 10 13
7 8 11
10 12 15
9 11 14
11 13 16
7 8 10
8 10 12
9 11 14
8 9 12
8 9 11
7 9 11
9 11 13
7 9 12
9 11 14
7 9 11
9 11 14
8 10 12
15 19 23
11 13 17
13 16 20
18 22 27
14 17 22
14 16 21
15 18 23
16 20 25
17 20 26
15 18 23
16 20 25
17 20 26
17 21 27
17 20 26
19 23 30
19 23 30
18 23 29
16 20 26
17 20 26
20 25 32
17 22 28
19 23 29
21 26 34
18 22 29
21 26 33
20 25 33
17 21 28
20 24 31
19 24 31
20 24 32
19 24 30
20 25 32
19 24 31
20 25 33
21 26 33
20 25 33
21 27 35
19 24 32
22 28 36
20 25 32
24 30 38
19 23 31
21 27 34
24 30 39
19 24 31
22 27 34
21 27 35
22 28 36
21 26 34
21 26 34
19 24 31
19 24 32
21 26 34
22 28 36
22 28 37
21 26 33
24 30 39
23 28 37
22 28 37
20 25 33
21 26 33
22 27 35
21 26 33
21 27 35
19 23 30
20 25 32
24 30 40
19 24 31
22 28 37
22 27 36
22 28 36
23 29 38
22 27 35
21 27 35
21 27 35
25 31 40
23 29 38
23 29 38
22 28 36
24 29 38
20 25 33
23 28 36
22 28 36
24 30 38
20 25 32
23 29 37
22 28 36
22 27 35
23 28 37
23 28 37
24 29 38
21 27 34
20 25 32
25 31 40
24 29 38
23 29 37
23 29 38
22 27 35
25 31 40
21 26 34
23 29 37
23 29 38
23 28 36
22 28 36
21 26 35
25 31 40
23 29 37
24 30 39
25 31 41
24 30 39
23 29 38
24 30 40
22 27 36
25 31 40
25 31 41
22 27 35
23 29 38
22 27 36
24 30 39
22 28 36
23 28 37
22 28 37
25 31 41
23 29 37
24 31 40
24 30 38
23 29 39
23 29 37
25 31 41
22 28 37
23 29 38
21 27 35
23 28 37
26 32 42
24 30 39
24 30 39
20 24 31
25 31 40
23 28 37
23 29 38
26 33 43
24 30 40
23 29 38
24 31 40
24 30 40
25 31 40
24 30 39
22 28 36
23 29 37
23 29 37
20 25 33
25 31 40
25 32 41
22 28 37
23 29 38
23 29 37
23 28 37
22 27 35
26 33 43
26 33 43
23 28 37
23 30 39
23 29 37
24 30 39
23 29 38
23 28 37
24 30 39
23 29 38
26 33 43
22 28 37
26 32 42
24 30 39
23 29 37
23 29 38
21 27 36
25 32 41
22 27 35
24 30 39
23 29 37
22 27 35
24 30 38
24 31 40
22 27 35
25 31 41
23 28 37
23 29 37
24 29 37
25 31 40
22 27 36
24 30 40
23 29 38
22 28 37
24 30 39
22 27 35
24 30 38
23 28 37
22 27 36
26 32 42
24 29 38
24 30 39
22 27 35
23 29 38
24 29 38
22 27 35
25 31 39
24 30 39
23 29 37
24 30 39
21 26 34
22 28 36
24 29 38
23 30 39
23 29 38
23 28 36
25 31 41
25 31 40
22 27 36
21 26 34
23 30 39
23 29 39
23 29 38
24 29 38
23 29 38
23 29 37
21 26 33
23 28 36
25 31 40
24 30 39
23 29 37
20 25 34
24 30 38
23 29 37
23 28 36
21 26 34
22 27 36
24 30 38
22 27 35
19 24 31
23 29 38
22 27 36
25 31 40
21 26 34
23 29 37
21 26 34
24 30 38
21 26 34
24 29 38
20 25 33
23 29 37
20 25 32
23 29 38
23 28 37
23 29 38
19 24 32
23 29 38
19 24 32
20 25 33
22 27 35
22 27 35
24 30 39
23 28 36
19 24 32
21 27 35
23 28 37
21 26 33
20 25 33
21 27 35
22 28 36
21 26 34
18 23 29
22 27 36
23 28 36
22 27 35
22 27 35
22 27 35
22 28 36
20 25 33
23 29 37
22 28 37
21 27 35
22 27 34
23 28 37
22 28 36
20 25 33
20 25 32
21 26 34
20 25 33
19 24 31
23 28 36
20 25 33
20 25 32
19 24 31
20 25 33
20 24 31
22 27 35
20 25 33
21 27 35
18 23 30
19 23 30
21 25 33
20 24 31
17 21 28
19 23 30
18 23 30
21 25 32
21 26 33
18 22 29
20 25 32
16 20 25
18 22 29
14 17 22
18 22 28
16 20 25
17 21 26
17 21 27
14 17 22
20 25 31
16 20 25
16 20 26
15 18 23
17 20 26
18 22 28
16 20 25
15 19 24
15 19 23
16 19 24
14 18 23
15 18 24
15 19 23
8 10 13
10 12 15
10 12 14
9 11 14
9 11 14
9 11 14
7 8 11
7 9 11
8 10 12
7 9 11
9 11 14
7 9 11
7 9 12
9 11 14
8 10 13
8 10 13
6 8 10
9 11 14
6 8 10
8 10 12
8 10 12
6 8 10
10 12 16
10 12 16
9 11 14
8 10 13
8 9 11
9 11 13
10 12 15
8 9 12
10 12 15
8 9 12
8 9 12
10 12 15
8 9 12
8 9 12
7 9 11
9 11 14
9 11 14
8 9 12
7 9 11
7 9 11
9 11 14
10 12 15
10 12 16
7 9 11
8 9 12
9 11 14
9 11 14
7 8 10
10 12 15
7 8 10
10 11 14
6 7 9
10 12 15
10 12 15
9 11 14
9 11 13
5 7 9
5 6 8
9 11 13
10 12 15
8 10 13
8 10 13
7 8 11
8 10 13
7 8 10
9 11 14
8 9 12
9 11 15
15 18 23
15 18 23
14 17 22
15 18 22
18 22 28
19 23 30
15 18 22
18 22 29
17 21 27
14 17 22
13 16 21
18 23 29
14 17 22
15 18 23
17 21 28
15 18 23
16 20 25
20 25 32
20 25 32
18 23 29
20 24 31
18 22 28
18 23 29
17 21 27
19 24 31
20 24 31
19 24 31
18 23 30
16 20 26
19 24 31
17 21 28
17 21 27
19 24 31
21 26 34
19 24 31
22 27 35
19 24 31
20 24 32
18 22 29
19 24 30
20 25 32
18 23 30
17 21 27
22 28 37
21 26 33
21 26 34
22 27 35
23 29 38
24 30 38
22 27 35
20 25 33
20 25 32
23 29 38
17 21 28
18 22 28
21 26 35
22 27 35
24 29 38
21 26 33
23 28 36
22 28 36
22 27 36
23 29 38
21 26 34
22 28 36
20 25 33
23 28 37
21 27 35
22 28 37
24 29 38
24 30 39
20 26 34
22 28 37
24 29 38
23 29 37
21 26 34
23 29 37
24 30 40
23 29 37
20 25 32
21 26 33
25 31 41
22 27 35
26 32 41
24 30 39
23 29 38
23 28 37
22 27 35
25 30 39
23 28 37
24 30 39
22 28 36
23 29 38
24 31 40
22 28 36
23 30 39
22 27 36
21 26 34
22 27 35
22 27 35
23 29 38
24 29 38
21 26 34
24 31 40
21 27 36
23 29 38
26 32 41
24 30 40
24 30 39
25 31 41
26 32 41
25 31 40
24 29 38
23 29 38
23 28 37
25 31 41
23 29 38
23 29 38
23 28 37
26 32 42
24 30 38
23 28 37
23 28 37
23 29 38
21 27 35
24 30 39
23 29 37
21 26 34
24 31 40
24 30 39
24 30 38
23 29 38
24 29 38
23 29 38
23 29 38
24 29 38
25 31 40
25 31 40
24 30 40
25 31 40
23 29 38
25 31 40
24 29 38
23 29 38
20 25 33
22 27 35
24 29 38
24 30 39
24 30 39
23 28 37
22 27 36
21 26 33
23 29 37
23 29 37
23 29 38
24 30 38
25 31 41
26 33 43
24 30 39
23 29 39
25 31 41
24 30 39
22 28 37
23 28 37
25 31 40
24 30 38
25 32 41
25 31 39
25 32 41
24 30 39
25 31 41
26 32 42
26 32 41
25 32 42
25 31 40
21 26 34
22 27 35
24 30 40
23 29 38
23 28 36
24 30 39
24 30 39
20 26 33
22 28 36
23 29 38
22 27 35
23 29 38
24 30 38
25 31 40
24 29 38
22 28 36
24 30 39
23 29 38
23 30 39
22 28 36
24 30 39
23 29 38
22 28 35
22 29 38
24 29 38
26 32 42
21 26 34
24 30 39
23 29 37
26 32 42
23 28 37
24 31 41
21 27 35
22 27 36
22 27 36
22 28 36
21 26 34
25 31 40
23 30 39
21 26 35
19 23 30
22 27 36
23 29 37
24 30 40
23 28 36
22 28 36
23 29 38
25 31 40
23 29 38
24 30 38
24 30 40
22 28 36
19 24 31
23 29 37
25 31 40
22 28 36
23 28 37
22 28 37
22 28 36
24 30 38
25 31 41
23 29 38
22 27 36
24 30 39
24 30 38
24 30 39
22 28 35
23 29 38
25 31 40
23 29 37
22 28 36
23 29 37
22 27 35
24 30 39
23 28 37
20 26 34
23 29 38
21 26 33
22 27 35
23 29 38
24 30 39
22 27 35
22 27 34
22 28 37
23 29 37
23 28 37
24 29 38
22 28 36
24 30 40
22 28 37
21 26 33
22 27 35
23 29 38
23 29 38
22 28 36
21 26 34
21 27 34
21 27 35
21 27 34
23 28 37
20 25 32
24 30 39
21 27 35
18 23 30
22 27 35
21 26 34
22 27 35
23 28 36
22 27 35
22 28 36
19 23 30
17 21 27
16 20 27
20 25 33
23 28 36
20 24 31
20 24 31
19 24 30
18 23 29
21 26 34
21 26 34
17 21 27
21 26 34
22 28 37
18 22 28
21 26 34
16 19 25
19 24 32
18 22 29
16 20 26
19 23 29
19 24 30
21 26 34
18 22 28
18 22 29
19 24 32
20 24 31
19 24 30
18 22 29
16 20 25
19 23 30
13 16 21
15 18 23
14 17 21
17 21 27
16 20 26
14 18 22
15 18 24
14 17 22
17 21 26
14 17 21
17 21 27
13 16 20
14 17 22
13 16 20
15 18 22
11 14 17
10 12 15
8 10 12
7 9 11
8 9 12
7 9 11
8 9 11
7 9 11
6 8 10
8 10 13
8 9 12
7 8 11
10 12 16
8 10 13
8 10 12
9 11 13
8 9 12
9 11 13
8 9 12
9 11 14
8 10 12
11 13 17
10 12 15
8 10 13
9 10 13
9 11 14
9 11 14
7 9 11
10 12 16
10 12 16
8 10 13
7 9 11
9 12 15
11 13 16
12 15 19
10 12 15
10 12 14
8 10 12
9 11 13
10 13 16
8 9 12
10 12 15
10 12 15
7 9 11
9 11 13
9 11 14
11 13 16
12 14 17
6 7 9
6 8 10
6 8 9
12 14 18
9 11 13
9 11 14
8 9 12
9 11 13
11 13 17
7 8 11
9 11 14
9 10 13
6 7 9
6 7 9
7 8 10
6 8 10
6 8 10
7 9 11
7 9 11
11 13 17
14 17 21
13 16 20
14 17 21
13 16 21
18 22 28
15 19 24
13 16 20
19 23 29
12 14 19
14 18 23
16 20 25
15 18 23
14 17 21
16 19 25
17 21 26
16 19 25
14 18 23
19 23 29
16 20 25
20 24 31
18 22 29
18 22 28
17 22 28
18 23 29
21 26 33
17 21 26
19 23 30
20 25 32
18 23 29
18 23 29
19 24 31
23 29 38
22 27 34
17 22 28
18 22 28
20 24 31
19 24 30
18 23 29
19 23 30
20 26 33
20 25 32
19 24 30
22 27 34
19 23 30
20 25 32
21 26 34
19 24 32
19 24 32
21 27 34
22 27 35
20 24 31
24 30 39
20 25 33
21 26 34
19 24 31
23 29 37
24 30 39
23 28 36
19 24 31
22 27 35
22 28 36
21 26 35
21 26 34
21 26 33
24 30 39
22 27 36
23 29 38
23 28 37
23 29 37
22 27 36
23 29 37
20 25 33
23 29 37
17 21 28
25 31 41
21 26 33
22 27 36
24 30 39
21 26 35
24 30 38
24 30 38
23 29 37
23 29 37
24 30 39
21 26 35
24 30 39
20 25 33
22 28 36
25 30 39
21 26 34
26 32 41
21 26 34
22 28 37
22 27 35
23 29 38
23 29 38
22 27 35
24 29 38
23 28 37
23 28 37
23 29 38
25 30 39
23 29 37
22 28 37
21 26 34
22 27 35
26 32 41
23 28 37
25 32 41
22 27 35
25 31 41
25 31 40
23 29 38
23 29 38
20 26 34
19 24 32
23 28 37
23 29 38
22 28 37
23 29 38
23 29 37
23 28 37
23 29 37
21 27 35
22 27 35
22 28 37
22 27 35
21 26 34
25 31 40
24 30 39
26 32 42
25 31 40
23 29 37
25 32 41
21 27 35
22 28 37
24 30 39
25 32 42
26 32 42
25 31 40
23 29 38
24 30 39
25 31 40
25 31 40
24 29 38
23 29 38
23 28 36
24 30 39
25 32 41
24 29 37
23 28 36
24 30 39
23 29 37
24 30 39
23 28 37
23 29 38
25 31 41
25 32 41
26 32 42
25 31 40
24 30 39
23 29 38
21 27 35
24 29 38
26 32 41
24 30 40
25 31 40
26 32 41
25 31 40
23 28 37
25 32 41
24 30 39
23 29 38
24 30 39
23 29 37
24 30 39
23 28 37
21 26 34
23 29 38
23 28 37
23 29 38
26 32 41
26 32 42
22 28 36
24 30 39
24 29 37
25 31 40
22 28 36
24 30 39
22 28 36
25 31 40
24 30 40
24 31 41
22 28 36
24 31 40
23 29 38
25 31 40
23 29 37
25 31 40
25 31 41
22 27 36
22 27 35
22 28 36
20 25 32
21 26 34
21 26 34
26 33 44
24 30 40
26 32 42
23 29 37
25 32 42
21 26 33
23 28 36
24 30 39
24 31 40
25 31 40
24 30 39
25 31 40
23 29 37
23 29 39
21 26 33
26 33 42
25 31 40
21 26 33
25 31 41
26 32 42
24 30 39
24 30 40
25 31 41
20 25 33
22 27 34
24 30 38
25 31 41
21 25 33
23 29 37
23 28 36
24 31 40
22 27 35
24 30 39
23 29 37
23 29 38
21 26 34
22 28 36
23 29 38
25 31 40
24 30 38
22 28 36
22 28 36
25 31 40
23 29 38
21 27 35
21 27 35
22 28 36
22 28 36
23 28 37
18 23 30
23 28 37
20 25 33
24 29 38
22 28 36
20 26 33
24 31 40
20 24 32
20 25 33
20 25 32
23 28 36
24 30 39
23 29 37
21 26 34
21 26 34
21 26 34
22 28 36
21 27 35
23 28 37
21 26 34
22 28 36
20 25 33
25 31 40
20 25 32
21 27 35
23 28 36
17 22 28
22 27 35
20 25 33
21 27 35
21 26 34
19 24 31
20 25 32
20 26 33
18 22 29
20 24 32
20 25 32
19 23 30
19 23 30
20 25 32
18 23 29
19 23 30
18 23 30
20 25 33
20 25 33
15 19 25
18 23 29
20 25 31
18 22 28
21 26 33
18 22 29
17 21 28
19 24 31
19 24 31
19 24 31
16 20 26
17 21 27
17 21 27
18 22 28
21 25 32
19 23 29
17 22 28
17 21 27
17 20 26
19 23 30
14 18 22
14 17 22
14 17 22
15 19 24
14 17 22
15 19 23
15 19 24
16 19 24
16 20 25
16 19 24
14 17 21
12 14 18
15 19 23
13 16 20
11 13 17
8 9 11
7 9 11
7 9 11
7 9 11
7 8 11
11 13 16
6 7 9
9 11 14
8 10 12
7 9 11
6 8 10
11 13 16
7 8 11
9 11 14
10 12 15
9 11 14
8 10 13
8 10 12
7 8 10
10 12 15
7 9 11
9 11 14
9 11 14
8 10 13
8 10 13
9 11 14
10 12 15
7 9 11
9 10 13
9 11 15
9 10 13
7 9 11
9 11 15
8 10 12
7 8 10
9 11 14
7 8 10
7 9 11
7 8 10
6 8 10
8 10 12
10 12 15
9 11 14
6 7 9
8 10 13
8 10 13
9 11 13
9 10 13
7 9 11
8 10 12
8 10 12
9 11 14
9 10 13
6 7 9
8 9 11
8 9 12
5 6 8
9 11 13
9 11 13
6 7 9
6 7 9
9 11 14
11 13 16
15 18 23
11 13 17
11 14 18
13 16 20
15 18 23
15 19 24
14 17 21
14 17 22
13 15 19
14 17 22
15 19 24
16 20 25
14 18 23
16 20 25
15 19 24
16 19 25
19 23 29
16 19 24
18 22 28
17 21 26
21 26 33
19 23 30
18 22 29
18 21 27
19 23 30
17 21 28
21 26 33
17 21 27
17 21 28
19 24 30
20 24 31
21 26 33
20 25 33
18 22 29
18 22 29
21 26 33
19 24 31
18 22 29
20 25 32
20 25 32
21 26 33
20 26 33
21 26 34
20 24 32
16 20 26
21 26 34
17 21 27
21 27 35
21 26 34
19 24 31
20 25 32
24 30 38
16 20 26
22 28 36
23 29 37
19 24 31
22 27 35
20 25 33
21 26 34
20 25 33
21 26 33
24 29 38
22 28 36
19 24 32
22 28 36
24 30 39
22 27 35
20 25 33
26 32 42
20 25 33
22 27 35
21 26 33
23 29 37
23 28 37
23 28 36
21 26 33
19 24 32
19 24 31
20 25 33
22 28 38
22 27 34
19 24 31
23 29 37
22 27 35
23 29 38
22 28 36
23 29 38
20 25 33
23 29 38
24 30 39
23 29 38
25 31 40
24 29 38
24 30 38
20 25 33
20 25 33
22 28 37
24 30 39
22 28 36
25 31 41
22 28 36
19 24 32
23 28 37
22 27 35
25 31 40
25 31 41
23 29 38
23 29 38
24 30 39
22 27 35
22 28 37
23 28 36
23 30 39
24 30 39
24 29 38
19 24 31
25 31 40
21 27 35
20 26 33
25 30 39
26 32 42
24 30 39
21 27 35
22 28 36
24 30 39
24 30 39
22 28 36
24 29 38
23 29 38
24 30 39
23 29 37
23 29 37
23 28 37
21 26 34
24 30 40
24 30 40
24 29 38
25 31 40
25 32 41
22 28 36
24 30 39
25 32 41
24 30 38
22 28 36
24 30 38
21 27 35
25 31 41
24 30 38
22 27 36
25 31 41
24 30 40
25 31 40
24 30 39
25 32 42
23 29 38
23 29 38
21 26 34
23 29 38
25 31 41
21 26 34
23 28 37
26 32 42
23 29 38
23 29 37
22 28 37
22 27 35
24 30 39
25 31 41
23 29 38
25 31 41
25 31 41
24 29 38
23 28 37
22 28 36
23 28 37
24 30 39
22 27 36
22 27 36
24 30 39
23 29 37
21 26 34
24 30 39
25 31 41
21 27 34
22 28 37
24 30 39
23 29 39
24 29 37
22 27 35
23 29 37
24 30 39
26 32 41
23 29 37
23 28 37
22 28 36
25 31 41
24 30 39
22 28 36
21 27 35
21 27 35
26 33 42
22 28 36
23 28 37
25 31 40
24 30 40
22 27 36
24 31 40
23 29 38
22 28 36
23 29 37
24 29 38
24 30 39
24 30 39
23 28 36
22 27 36
21 26 34
22 27 35
23 29 38
25 31 40
22 27 35
23 29 37
25 31 41
23 29 38
21 26 34
21 27 35
23 28 37
21 26 34
21 26 33
21 27 35
19 24 32
25 31 41
23 28 36
24 30 40
22 28 36
21 27 35
21 27 35
26 32 42
24 30 39
24 30 39
21 27 36
24 30 39
24 30 38
20 26 34
23 28 36
22 27 35
20 25 32
21 27 34
22 27 34
23 29 37
20 25 32
23 28 36
22 27 36
24 30 39
19 24 31
23 29 37
24 30 38
20 25 33
20 25 33
21 26 34
21 27 34
20 25 33
22 27 35
23 29 38
21 26 34
23 28 36
20 25 33
23 28 37
21 26 34
20 25 32
19 24 31
21 26 34
21 26 34
21 26 34
20 25 32
22 27 35
21 26 34
22 27 36
21 26 34
20 25 33
19 23 30
21 26 35
18 23 30
22 27 36
21 26 33
20 25 32
21 27 35
19 24 31
21 26 34
21 27 35
19 24 31
21 25 33
18 22 28
19 24 31
20 25 32
17 21 28
15 19 25
19 23 30
19 24 31
19 24 31
21 26 34
20 25 33
17 21 28
19 24 31
19 23 29
20 25 32
18 23 29
19 23 30
20 25 32
18 23 29
22 26 34
17 20 26
18 22 29
18 22 29
15 18 24
19 23 30
19 24 30
15 18 23
18 22 29
15 18 23
17 21 27
17 20 25
16 20 25
17 21 27
17 20 26
14 17 21
14 18 22
14 17 22
14 17 22
17 20 26
15 18 23
15 18 24
14 17 22
13 16 20
16 19 24
13 15 19
13 16 20
13 16 21
14 17 21
12 14 18
7 8 10
9 11 14
8 9 11
10 12 15
10 12 15
7 9 11
9 11 14
8 10 12
8 10 12
9 11 14
10 12 15
7 8 11
5 6 8
9 11 14
9 11 14
9 10 13
6 7 9
9 11 14
9 11 14
9 11 14
9 10 13
10 12 15
11 13 16
10 11 14
8 10 13
9 11 13
8 10 12
8 9 12
9 10 13
7 8 10
10 12 15
8 9 11
8 10 12
11 13 16
9 10 13
7 9 11
10 12 15
8 10 12
8 10 13
8 10 13
7 9 11
7 8 11
8 10 13
8 10 13
7 9 11
9 11 13
8 9 12
7 9 11
10 12 15
8 9 11
7 9 12
6 7 9
8 10 12
9 10 13
6 7 9
5 7 8
7 8 10
8 9 12
12 14 18
13 16 20
16 19 24
15 18 22
13 16 20
15 19 24
11 13 17
15 18 22
13 16 21
14 17 21
14 18 23
14 18 23
15 18 24
17 21 27
13 16 20
17 21 27
17 20 26
17 20 26
15 18 23
17 21 26
20 25 32
15 18 24
16 20 25
16 19 24
18 23 29
16 20 26
17 21 27
18 22 28
17 21 26
14 18 23
21 27 34
17 21 28
18 22 29
20 25 32
18 22 29
19 24 31
17 21 28
18 23 29
18 22 29
21 25 32
19 23 29
18 22 28
22 27 35
19 24 31
19 23 30
21 27 35
20 25 33
18 22 29
19 24 32
20 24 31
20 25 33
21 26 33
20 25 32
19 24 31
19 23 30
17 22 29
20 25 33
20 24 32
22 27 35
20 25 32
22 28 36
21 26 34
19 23 31
22 28 36
24 29 38
21 26 34
23 28 37
20 25 32
22 27 35
19 24 31
22 28 36
21 25 33
21 26 34
23 28 36
21 25 33
22 27 36
21 26 34
22 27 34
20 25 32
24 29 38
24 29 38
22 27 35
20 25 33
23 29 38
22 27 36
22 28 36
24 30 39
22 27 34
22 27 36
23 29 38
22 28 36
19 24 32
22 27 35
23 28 37
21 27 34
23 29 38
22 28 36
24 30 39
22 27 36
21 27 35
21 26 33
21 27 35
22 27 35
22 28 36
23 30 39
22 28 36
26 32 41
25 31 40
24 30 39
24 30 39
20 25 32
24 29 38
22 27 36
21 26 34
22 28 36
25 32 41
21 26 34
24 30 39
24 29 38
22 27 36
24 30 39
24 30 39
22 28 37
20 25 33
26 32 42
25 31 41
23 29 37
23 29 38
22 27 36
25 31 40
23 29 38
25 31 40
23 29 38
22 27 36
24 30 40
24 31 40
25 31 40
24 30 39
22 28 37
24 30 39
22 28 36
25 31 41
23 29 37
24 30 38
22 28 37
24 30 39
22 27 35
24 30 38
22 28 36
24 31 40
25 31 40
22 27 36
24 30 40
22 28 36
25 31 40
26 32 42
23 29 38
24 30 39
21 27 35
23 28 37
21 26 33
24 30 38
22 27 35
23 29 38
24 29 38
26 33 42
24 30 39
27 33 43
25 31 40
24 30 39
25 32 41
26 32 41
23 28 37
24 30 38
21 26 34
22 28 36
24 30 39
23 28 37
25 31 40
24 30 39
24 30 39
22 28 37
22 28 37
22 28 36
22 28 36
24 30 40
24 29 38
23 29 37
24 31 40
23 29 38
23 29 37
24 30 38
25 32 41
23 29 37
25 30 39
24 29 38
25 31 40
24 30 39
23 29 38
21 26 34
24 30 40
21 27 36
25 31 40
23 29 38
22 27 36
25 31 40
25 31 40
25 31 41
22 28 37
24 30 39
24 29 38
24 30 39
26 33 43
20 25 33
22 27 35
22 28 36
25 31 40
23 28 37
22 28 36
23 28 37
22 27 35
20 25 32
24 30 38
23 29 37
22 27 36
25 31 41
21 27 35
21 26 34
22 27 35
23 29 37
22 28 36
26 32 40
22 28 36
23 28 36
23 29 38
22 27 35
23 29 38
22 28 36
25 31 40
21 26 34
22 28 37
23 28 37
22 28 36
23 29 38
22 28 37
21 27 35
21 27 35
25 30 39
22 27 35
21 27 35
23 28 36
24 30 38
21 27 35
21 27 35
23 29 39
23 29 37
25 31 40
23 29 38
20 25 33
22 27 36
19 23 30
24 30 38
20 25 33
19 24 31
23 29 38
23 29 37
26 32 41
22 28 36
24 30 39
20 26 33
21 26 34
22 27 36
24 29 37
20 25 33
23 29 38
21 26 35
23 29 38
21 26 34
24 29 37
23 29 37
20 25 32
19 24 31
24 29 38
21 27 35
22 28 37
21 26 34
23 28 36
20 25 33
20 26 33
20 25 33
20 25 33
20 25 33
19 24 32
20 24 31
19 24 31
19 23 30
20 25 32
16 21 27
18 22 29
18 23 30
22 27 35
18 22 29
19 24 31
18 22 29
21 26 33
17 21 27
19 24 31
17 20 26
20 25 32
16 19 25
17 21 27
18 22 29
17 21 27
21 27 34
18 23 29
18 22 28
16 20 26
19 23 29
16 20 25
16 20 27
15 19 25
18 22 28
18 22 29
16 19 25
14 17 22
14 18 22
18 22 28
15 18 23
16 20 25
14 17 22
14 17 21
13 16 21
15 18 23
17 20 25
15 18 23
16 19 24
13 16 20
13 16 20
15 18 23
14 16 20
9 11 15
12 15 18
12 14 17
11 13 16
9 11 13
8 10 12
5 6 7
9 11 13
8 10 12
7 8 10
9 11 14
7 9 11
8 9 12
9 11 14
8 10 13
10 11 14
8 9 12
8 10 13
8 10 13
8 9 11
8 10 12
6 7 9
6 8 10
7 9 11
7 8 11
8 9 12
7 8 10
11 13 17
9 11 13
8 9 12
10 12 15
7 9 11
7 8 10
8 9 12
9 11 14
9 10 13
8 10 12
9 11 13
9 11 14
10 12 16
9 11 14
8 9 12
9 11 14
7 8 11
7 8 11
6 8 10
6 7 9
7 9 11
10 12 16
6 8 10
8 10 13
8 9 12
6 7 9
6 8 10
7 9 11
7 8 11
9 11 13
6 7 10
10 12 15
12 15 19
13 15 19
11 14 18
10 13 16
14 17 21
12 15 19
16 19 24
13 16 20
17 20 26
15 18 23
19 22 28
18 22 28
17 21 27
18 21 27
16 19 25
16 19 25
16 20 25
12 15 19
16 19 24
16 20 26
16 20 26
16 20 26
17 21 27
19 23 30
19 23 30
19 23 30
17 21 27
17 21 27
16 20 26
18 22 28
17 21 27
18 23 29
15 19 24
18 22 28
17 21 27
18 23 29
19 23 29
17 21 27
19 24 31
21 25 32
22 27 35
22 27 35
19 24 31
20 24 32
17 21 27
19 23 31
22 28 36
21 26 33
19 24 32
19 24 31
22 27 35
21 26 34
20 25 32
21 26 34
20 25 32
17 21 28
21 26 33
23 29 37
20 25 33
22 28 35
20 25 33
22 28 36
21 26 34
23 28 37
21 26 33
25 31 40
20 26 34
22 27 34
19 23 30
21 26 34
19 24 31
21 27 35
22 27 35
25 32 41
20 25 33
20 25 33
18 23 31
24 30 39
21 27 36
19 23 29
23 29 38
25 31 40
20 26 34
21 27 34
22 27 35
24 29 37
24 30 38
22 27 35
21 26 34
22 27 35
23 29 38
22 27 35
23 29 37
23 29 38
22 27 36
22 27 35
22 28 37
22 28 36
23 29 38
23 28 37
20 26 33
22 28 36
24 30 39
22 27 35
22 27 36
24 30 39
22 28 35
21 27 36
21 26 34
25 31 40
21 27 35
25 31 40
23 29 37
23 28 37
25 31 39
22 27 36
21 26 33
23 29 38
23 28 36
23 29 38
23 28 37
22 27 35
20 25 32
24 30 39
21 27 34
23 28 36
21 27 35
25 31 41
24 31 40
23 29 37
23 29 37
24 30 39
23 29 37
22 28 36
22 28 38
24 29 38
25 31 41
24 30 40
23 29 37
24 30 39
22 28 37
22 28 37
23 29 38
24 30 39
24 29 38
25 32 42
22 28 36
25 31 40
23 29 38
25 31 41
24 30 39
24 30 38
25 31 41
24 30 39
24 30 39
25 31 41
20 26 34
24 30 39
25 31 40
24 30 39
22 28 36
26 32 41
25 31 40
23 29 38
23 29 37
24 30 39
25 32 41
24 30 39
23 29 38
24 30 39
22 28 36
26 33 43
24 30 38
23 29 37
24 30 39
23 29 38
26 33 42
24 30 39
23 29 38
25 31 40
21 26 34
23 29 38
25 31 40
21 26 34
22 28 37
24 29 38
21 27 35
24 30 38
23 29 37
23 30 39
24 30 39
23 29 38
21 26 34
22 28 35
27 33 43
21 27 35
22 28 36
23 28 37
23 29 38
22 28 36
23 29 38
21 26 34
24 30 40
25 31 39
24 30 39
26 33 42
23 29 37
21 27 35
25 32 41
23 29 38
24 30 39
23 29 38
20 25 33
26 32 41
21 26 35
22 28 36
23 29 37
22 27 36
23 29 37
23 29 38
21 27 35
24 29 38
20 26 33
21 26 34
23 29 38
23 29 38
22 28 36
20 25 33
24 30 39
22 28 36
22 27 35
24 30 38
23 28 36
22 27 35
24 29 38
23 29 37
21 26 34
22 27 35
21 26 34
22 27 35
22 27 35
22 27 35
22 28 36
23 29 38
22 27 35
23 28 37
22 28 37
21 27 34
23 28 37
21 27 35
20 25 33
22 28 37
23 29 38
23 29 37
22 27 36
24 30 40
22 27 35
23 28 37
22 27 35
23 29 37
20 26 33
19 24 32
21 26 33
20 24 31
24 29 38
19 24 31
22 27 36
20 26 34
22 28 36
20 25 32
19 24 32
22 28 36
23 28 37
20 25 32
22 27 35
20 26 33
21 26 33
20 25 32
24 29 38
19 24 31
23 29 38
22 27 35
21 27 35
23 28 37
21 26 34
20 25 32
20 25 32
20 25 33
19 24 31
20 24 32
21 26 34
20 25 33
21 26 33
16 20 27
21 26 34
21 26 34
20 25 32
20 25 32
21 27 35
20 24 31
20 24 32
17 21 27
17 22 28
17 21 27
18 23 30
19 23 30
18 22 28
18 22 29
17 21 27
19 24 31
17 21 27
19 24 30
18 23 29
16 20 26
19 24 30
18 22 28
16 19 25
19 23 29
16 20 25
18 22 28
12 15 19
15 19 24
19 23 30
13 16 20
15 19 25
14 17 21
13 16 21
17 21 26
15 18 23
10 13 16
15 19 23
14 17 21
12 15 19
13 16 20
13 16 20
13 16 20
10 13 16
14 16 21
12 14 18
11 13 17
11 13 16
12 14 18
9 11 14
12 15 19
16 19 23
11 13 16
9 10 13
10 12 15
5 7 8
5 6 8
4 5 7
7 8 10
7 8 10
4 5 7
7 9 11
8 10 12
8 9 12
9 10 13
7 9 11
8 10 12
7 8 10
5 6 7
9 11 14
7 8 10
9 11 13
7 9 11
8 10 12
6 8 10
5 6 8
7 8 10
8 10 12
6 7 9
7 8 10
7 8 10
7 9 11
8 9 12
5 6 8
9 11 13
8 9 11
9 11 13
8 10 13
6 8 10
9 11 13
7 8 10
7 8 10
5 6 7
7 8 10
9 11 14
9 11 13
8 10 12
8 9 12
7 9 11
7 9 11
5 7 8
7 8 10
9 11 13
9 10 13
12 14 18
11 14 17
12 14 18
14 17 21
14 16 20
12 15 18
13 15 19
12 15 19
16 19 24
13 16 21
17 20 26
15 18 23
15 18 23
14 17 21
13 16 21
15 18 23
12 15 19
15 18 22
13 16 20
17 21 27
16 19 25
15 18 23
15 19 24
19 24 31
17 20 26
17 21 27
16 20 26
18 23 29
17 22 28
16 19 24
17 21 27
23 28 35
19 24 30
20 25 32
16 19 25
19 23 30
18 22 28
19 23 30
19 24 31
20 24 31
19 23 30
16 20 27
23 28 36
22 27 35
18 22 29
19 24 30
21 26 33
20 25 32
20 25 32
20 25 33
19 24 32
20 24 32
21 27 35
21 26 34
20 24 31
21 26 34
21 26 35
19 24 31
21 26 33
19 24 32
23 29 38
18 23 30
22 27 35
19 24 31
21 25 33
20 25 32
19 24 32
22 28 36
19 24 32
22 27 35
22 27 36
22 28 36
22 27 35
23 28 36
19 23 29
22 27 35
19 23 31
22 28 36
22 27 35
23 29 37
20 25 33
23 29 37
18 22 29
22 27 35
20 26 34
21 26 34
21 27 36
22 27 35
24 30 39
23 29 38
23 28 37
24 30 40
20 25 33
20 26 34
25 31 40
24 29 38
21 27 35
22 27 35
20 26 33
25 31 40
21 26 33
21 27 36
21 27 36
22 28 36
24 30 39
25 32 41
23 29 38
22 27 36
24 30 39
23 29 37
21 26 33
23 29 38
24 30 39
22 28 36
23 29 38
21 26 35
21 26 34
23 29 37
21 26 34
22 27 35
22 28 36
22 27 35
22 28 36
23 29 38
24 30 39
20 25 32
22 28 37
23 29 38
23 28 37
25 31 40
24 30 39
23 29 37
24 30 40
23 29 38
22 27 35
21 27 35
23 29 38
25 31 40
21 26 33
24 30 39
22 27 36
22 27 36
24 30 38
23 29 38
23 29 37
24 30 40
23 28 37
22 27 36
24 29 38
25 31 40
24 30 39
23 29 38
24 30 39
22 28 37
23 29 37
23 29 39
22 28 36
27 33 43
23 29 37
22 27 36
22 28 36
25 32 41
20 26 34
23 29 37
25 31 40
23 29 37
23 28 36
22 27 35
24 30 40
26 32 41
23 29 39
22 27 36
25 31 41
24 29 38
22 28 36
22 27 35
23 28 36
25 31 41
22 27 35
21 26 33
23 29 38
24 29 38
25 31 40
24 29 38
22 27 35
23 29 37
26 32 42
23 29 38
24 30 39
23 28 37
24 30 39
21 26 34
25 32 42
23 28 37
26 32 42
24 30 40
24 30 39
22 28 36
24 30 39
26 32 41
24 30 39
23 28 36
25 31 39
23 29 38
25 31 40
22 28 36
24 30 39
25 32 41
22 28 37
22 28 37
21 27 34
26 32 42
24 30 39
23 29 38
25 30 39
22 28 36
25 31 40
22 28 36
23 28 36
25 31 40
24 30 39
22 28 36
24 29 38
23 29 38
24 30 39
21 26 34
22 28 37
25 31 41
25 31 40
21 26 34
25 32 41
18 23 30
26 33 42
23 29 37
23 29 37
22 28 36
22 27 35
22 27 34
20 25 33
24 29 38
22 28 36
25 31 40
23 29 37
23 28 36
21 27 35
23 29 38
20 26 33
22 27 36
24 29 38
22 27 35
22 27 36
23 29 37
21 26 34
22 27 35
21 26 34
24 30 39
19 24 31
19 25 32
21 27 35
20 25 33
21 26 35
23 29 39
21 26 34
19 24 31
22 28 37
21 26 34
20 25 33
21 27 35
21 26 34
20 25 33
23 28 36
21 27 35
21 26 33
25 31 39
23 28 36
22 28 36
18 23 30
21 25 33
23 29 37
23 29 37
21 27 36
21 26 33
22 27 35
22 27 35
22 28 36
21 26 34
18 23 30
21 26 34
22 27 35
18 23 29
20 25 33
21 26 34
24 30 38
22 28 36
24 30 38
21 27 35
21 26 34
20 24 31
21 26 33
20 25 33
16 20 26
19 24 31
18 23 29
22 27 35
19 24 31
19 24 31
16 20 26
19 23 30
19 23 30
17 21 27
16 20 26
19 23 29
18 22 28
19 24 30
17 21 27
18 22 28
18 22 29
18 22 29
15 18 24
18 22 29
19 24 31
17 22 28
18 22 27
17 21 27
18 22 28
19 23 30
15 18 24
13 16 20
18 21 27
18 22 28
18 22 28
15 18 23
15 18 23
16 20 25
15 18 23
15 18 23
18 22 28
15 18 23
13 16 20
16 19 24
12 15 19
13 16 20
13 16 20
12 14 18
14 16 21
12 15 19
12 15 19
13 16 20
11 13 16
13 15 19
8 10 12
11 14 17
8 10 13
8 9 12
7 9 11
7 9 11
6 8 10
6 8 10
6 7 9
8 10 12
9 11 14
7 8 10
8 10 12
9 11 13
5 6 8
6 7 9
8 9 12
8 9 12
9 11 14
5 7 8
7 9 11
5 7 8
7 8 10
10 12 15
4 5 7
8 9 12
8 10 13
7 9 11
7 9 11
8 10 13
6 8 10
7 9 11
7 9 11
6 8 10
6 7 9
10 12 15
9 11 14
7 8 10
8 9 11
8 10 12
9 11 14
5 6 7
5 6 8
7 9 11
8 9 12
7 9 11
7 9 11
6 8 10
6 7 9
10 12 16
13 15 19
8 10 12
8 10 12
12 15 18
16 20 25
12 14 18
12 14 18
16 20 25
14 17 21
13 15 19
16 19 24
15 18 24
15 18 23
11 14 18
14 17 21
16 19 24
14 17 21
15 18 23
17 21 26
15 19 24
19 23 30
16 20 26
12 15 19
15 19 24
19 23 30
17 21 26
16 20 25
17 21 27
17 22 28
15 19 25
17 21 27
18 22 28
16 20 25
17 21 27
17 22 28
19 23 30
16 20 25
15 19 24
18 22 29
17 21 27
17 22 29
22 27 35
19 24 31
18 23 30
19 23 30
20 24 31
20 25 33
17 21 27
18 23 30
21 26 33
16 20 27
21 26 34
19 24 30
22 27 35
25 31 40
23 28 36
21 26 34
22 28 36
21 26 34
20 25 33
19 23 30
20 25 32
23 28 36
20 25 33
21 26 34
19 23 30
22 28 36
21 27 35
21 27 35
20 25 32
21 26 33
23 28 37
19 23 30
22 28 36
22 28 36
23 29 37
20 25 32
23 29 37
22 28 36
23 29 37
22 27 34
21 26 34
23 29 37
24 30 39
24 30 39
25 31 40
22 27 36
24 30 39
21 27 35
22 28 37
19 24 32
21 26 34
21 26 35
22 27 36
24 30 39
23 28 37
23 29 38
23 28 36
24 29 38
23 29 38
24 30 39
24 30 39
22 27 34
21 27 34
21 26 34
23 28 36
22 28 37
24 29 38
22 27 36
24 31 40
23 29 38
26 32 42
22 28 36
23 29 38
22 28 37
25 31 40
25 31 41
25 31 40
19 25 33
22 28 36
23 29 38
25 31 40
20 26 34
24 30 40
20 25 33
23 28 36
24 30 39
24 30 39
23 29 37
23 29 38
23 28 37
21 26 35
25 31 40
25 31 41
25 31 40
23 29 37
23 30 39
24 30 39
25 31 40
22 28 37
23 28 37
24 30 39
25 31 41
24 30 40
23 29 39
24 30 39
23 30 39
22 27 36
21 26 34
24 31 40
22 28 37
22 28 37
22 28 36
23 28 37
24 29 38
24 30 39
26 32 42
24 30 38
24 29 38
24 30 39
22 27 35
25 31 40
24 31 40
25 32 43
23 29 38
23 29 38
24 29 38
24 30 38
23 30 39
24 29 38
23 29 37
24 30 38
23 29 38
24 30 38
24 30 39
22 28 36
22 27 35
23 28 37
21 27 35
24 30 38
21 26 33
26 33 43
24 30 39
23 28 36
26 32 42
23 28 36
24 30 40
24 29 38
23 29 37
22 28 36
22 28 36
24 29 37
23 29 37
25 31 41
24 30 39
24 29 38
22 28 37
21 26 34
21 27 35
24 30 39
23 29 38
24 30 39
23 29 38
22 27 35
23 29 37
23 29 38
24 30 40
24 30 39
24 30 40
23 29 37
24 30 38
24 30 39
23 28 37
24 30 39
22 27 36
26 32 41
24 31 40
23 28 37
23 29 37
23 28 37
22 27 36
23 28 37
23 29 39
23 29 37
23 29 37
23 28 36
23 29 37
23 30 39
26 32 42
19 24 31
24 30 38
23 29 37
22 27 36
25 31 40
25 31 40
21 26 34
23 29 38
23 28 37
23 29 37
22 28 36
23 29 37
22 27 35
21 26 34
24 30 39
22 27 35
22 27 35
24 30 39
21 26 33
24 30 40
23 29 37
24 30 39
23 29 37
20 25 33
23 28 37
21 27 34
23 29 37
21 26 33
23 30 39
20 25 32
21 26 34
21 27 35
22 27 35
22 27 35
20 25 32
22 27 35
23 28 37
23 29 38
23 28 36
22 27 36
20 25 32
24 29 38
21 26 33
19 23 30
20 25 32
21 27 35
20 25 32
23 28 36
21 27 34
23 29 37
21 26 34
22 27 35
21 26 34
23 28 36
23 28 37
21 26 34
17 22 28
20 25 32
21 26 33
18 22 29
21 26 34
20 25 32
23 29 37
22 27 35
19 24 31
21 26 34
20 24 31
18 23 30
22 27 35
22 27 34
19 24 31
19 24 31
20 26 34
20 24 32
21 26 33
20 24 32
20 25 32
17 21 28
19 24 31
19 24 31
19 23 30
17 22 28
19 23 30
19 23 30
18 22 29
19 24 31
15 19 25
21 25 32
18 22 28
17 21 27
18 22 28
19 24 30
18 22 29
16 20 25
18 22 28
18 22 27
17 21 27
16 19 24
14 17 22
20 25 32
14 17 21
17 20 26
16 19 25
19 23 29
17 20 26
13 16 20
15 18 23
13 16 20
15 19 24
12 15 18
14 18 22
13 16 20
12 15 18
13 15 19
13 16 20
13 15 19
10 12 14
13 15 19
11 13 16
12 14 17
10 12 14
12 14 18
8 9 11
10 12 15
11 13 16
11 13 16
7 8 10
7 8 11
5 7 8
6 8 10
4 5 6
5 6 8
6 8 10
9 11 13
6 8 10
8 9 12
8 9 12
4 5 7
6 7 9
7 9 11
9 10 13
7 9 11
5 6 8
10 12 15
6 7 9
9 11 14
8 10 12
9 10 13
7 8 10
6 7 9
8 9 12
8 10 12
7 8 10
7 8 11
6 7 9
6 8 10
6 7 9
7 8 10
6 7 9
8 9 11
6 7 9
7 8 10
8 9 12
6 7 9
10 11 14
8 9 11
11 13 16
8 10 12
10 12 15
12 14 18
11 13 16
11 13 16
12 15 19
15 18 23
11 13 17
14 17 21
11 14 17
13 15 19
13 16 20
13 16 20
10 12 16
11 13 16
9 11 14
15 18 23
15 18 23
15 18 23
13 16 20
15 18 23
15 18 23
14 18 23
15 18 23
18 22 29
15 19 24
15 19 24
17 21 27
16 19 25
17 20 26
18 23 29
16 20 26
16 20 25
19 23 30
15 18 24
18 22 28
17 21 27
19 23 30
17 22 28
17 21 27
18 22 29
21 26 33
21 26 34
18 22 28
17 22 28
19 23 30
21 26 34
20 25 33
19 24 30
19 23 30
18 23 30
21 26 33
22 27 34
17 22 29
17 21 26
21 26 33
16 21 27
19 24 31
21 26 34
22 27 34
23 29 38
20 25 33
19 23 30
22 27 35
19 23 30
22 28 36
17 21 28
18 23 29
21 27 36
21 26 34
22 27 35
19 24 31
21 26 33
19 23 30
19 24 31
21 26 34
23 29 38
22 27 35
22 27 35
21 26 33
22 27 35
20 26 34
19 24 32
23 29 37
21 26 33
25 31 40
21 26 33
22 28 36
22 27 35
20 25 33
21 26 34
21 27 35
22 27 35
24 30 39
22 27 35
20 26 33
25 31 39
21 26 34
22 27 35
21 26 34
22 28 36
23 29 37
22 27 35
24 30 39
24 30 38
24 30 40
23 28 37
23 29 37
24 30 39
23 29 39
19 24 31
23 29 38
22 28 36
23 29 37
22 28 36
24 30 39
24 30 40
23 29 38
22 27 35
25 31 40
21 26 34
22 27 35
23 28 37
19 24 31
23 29 38
21 27 35
21 26 34
23 28 37
26 32 42
21 26 34
21 26 34
23 29 37
25 31 39
23 29 38
23 29 38
21 26 34
22 28 36
25 31 40
22 27 34
25 31 40
21 27 34
25 31 40
24 30 39
23 28 37
25 31 41
23 29 38
26 32 42
25 31 40
23 29 38
27 34 44
24 29 38
21 26 33
25 31 40
23 28 37
24 29 38
22 27 36
23 28 37
25 31 40
23 29 38
24 30 39
26 32 41
23 29 39
23 29 37
23 28 37
23 28 37
20 25 33
23 28 36
24 30 39
25 31 40
24 30 39
22 28 36
23 29 38
24 30 39
25 31 40
23 29 38
25 31 40
23 29 38
23 28 37
24 30 40
25 31 40
24 29 38
23 29 38
23 28 36
25 31 39
23 29 37
24 30 39
23 29 38
24 30 39
23 29 37
24 30 39
23 28 36
26 32 41
24 30 39
21 26 34
25 31 41
24 30 39
25 31 40
24 31 40
23 29 38
25 31 39
23 29 38
26 33 42
23 29 38
23 28 36
23 29 38
22 28 37
24 29 38
22 28 36
23 28 37
22 28 37
23 29 37
24 30 39
25 31 41
25 32 41
23 29 37
24 30 39
19 24 31
24 30 40
24 30 39
26 33 43
24 30 38
23 28 36
23 28 37
23 29 37
22 27 36
24 31 40
22 28 36
21 26 34
21 26 34
19 24 31
24 30 39
24 30 39
22 28 36
22 28 36
24 29 38
25 31 40
25 32 42
19 24 32
23 29 38
20 25 32
22 27 36
23 28 37
21 26 34
21 27 34
23 29 38
22 28 36
22 28 36
23 29 38
19 24 31
25 31 41
23 29 37
22 28 35
23 29 38
21 26 34
22 27 35
23 28 37
22 27 35
24 30 39
24 30 39
20 25 33
25 30 39
23 28 37
22 28 36
22 28 37
22 27 36
20 25 33
22 27 35
21 26 34
22 27 35
20 26 34
24 30 39
21 26 35
21 27 35
23 28 37
20 25 32
23 29 37
20 24 32
21 27 35
19 23 30
20 25 33
23 29 37
22 28 36
19 24 31
21 27 35
20 25 33
22 27 34
19 24 30
20 26 33
24 30 38
18 23 30
21 26 34
18 23 29
21 27 35
23 29 38
24 29 38
20 24 31
20 24 32
21 25 32
19 24 30
20 25 33
19 24 31
23 28 37
19 23 30
22 27 34
19 23 30
19 23 30
19 24 31
19 23 30
20 25 33
19 23 30
19 23 30
17 21 27
19 24 31
19 23 30
18 22 28
18 22 28
16 20 27
16 20 26
16 19 25
19 23 29
16 20 26
17 21 28
15 19 24
18 22 28
16 20 25
18 22 28
18 23 29
17 21 27
14 18 23
14 17 22
17 20 26
15 19 24
17 21 27
15 18 23
16 20 25
16 20 25
16 19 25
12 14 18
13 16 21
15 18 23
13 16 21
13 16 20
12 14 18
13 16 20
15 18 23
14 17 22
10 12 15
10 12 15
13 15 20
12 15 18
12 15 19
12 14 18
10 13 16
8 9 12
13 15 19
11 13 16
14 17 21
10 12 16
9 11 13
11 13 17
12 15 18
9 11 13
7 8 10
7 8 10
7 8 11
6 8 10
8 9 12
6 7 9
7 8 10
7 8 10
7 9 11
5 6 8
7 9 11
7 8 10
4 5 7
6 7 9
5 7 9
7 8 10
8 10 12
5 6 8
8 10 12
9 11 14
6 7 9
7 8 11
9 10 13
6 7 9
8 10 12
6 7 9
7 9 11
7 8 10
7 8 10
8 9 12
7 8 10
7 8 10
7 8 10
8 9 12
11 13 16
11 13 16
7 9 11
10 12 15
11 13 16
12 15 18
10 12 15
12 14 18
12 14 18
11 13 17
13 16 20
12 15 19
14 17 21
12 15 18
12 15 19
13 16 20
14 16 21
12 15 19
13 16 20
13 16 20
15 18 22
14 17 21
13 16 20
13 16 21
16 20 25
16 20 25
17 20 25
16 19 25
17 20 26
17 20 25
14 17 22
18 22 27
17 21 27
15 19 24
12 15 20
19 23 30
18 22 28
18 22 28
17 21 27
12 15 20
17 21 27
16 19 25
17 22 28
18 23 29
14 18 23
19 23 29
19 23 30
21 26 33
20 24 31
19 24 31
18 22 29
16 20 26
20 25 32
18 22 28
20 25 32
21 26 33
21 26 33
21 26 34
18 22 29
20 24 31
20 25 32
21 26 34
22 27 36
19 23 30
21 25 32
23 28 35
22 27 35
17 22 28
22 27 35
19 23 29
21 26 34
20 24 31
20 25 32
21 27 35
22 27 35
20 25 32
19 24 31
20 24 31
21 26 34
20 24 30
21 26 34
23 28 37
24 30 39
22 27 35
23 28 36
21 26 34
22 27 36
21 26 34
20 25 33
23 28 37
24 31 40
22 27 35
22 28 37
23 28 36
22 28 36
21 26 34
20 25 33
22 28 36
22 28 36
24 30 39
20 26 33
24 29 37
21 26 33
23 29 37
23 29 38
20 26 33
21 26 34
22 27 35
22 28 36
23 28 37
22 28 37
23 28 37
23 29 38
24 31 40
22 28 36
23 29 38
21 27 35
24 29 38
21 26 34
24 30 39
21 26 35
21 26 34
23 29 38
21 27 35
23 28 37
24 30 40
23 29 38
22 27 34
22 28 37
23 29 37
22 28 37
23 29 38
24 30 39
19 24 31
24 30 38
24 30 39
21 27 35
24 30 39
24 29 38
23 29 38
24 30 39
22 28 37
24 29 38
23 29 38
23 29 37
20 26 34
22 27 35
24 30 38
22 27 35
20 25 32
22 28 36
23 29 38
23 29 38
23 29 37
22 28 37
25 32 41
24 30 40
24 30 39
26 33 43
23 29 39
23 29 38
24 30 39
24 30 40
22 27 35
22 27 35
23 29 38
25 30 39
25 31 41
24 29 38
21 26 34
23 29 38
22 28 36
26 33 43
24 30 39
22 28 37
25 31 40
23 29 38
23 29 38
24 30 39
26 32 41
24 29 38
23 29 37
23 29 37
24 30 39
24 30 39
20 25 33
24 30 39
25 31 40
21 27 35
24 31 40
25 31 40
23 29 38
25 32 41
24 30 39
24 30 39
23 28 37
24 29 38
24 30 39
23 29 38
23 29 37
23 29 37
25 31 40
25 31 40
23 29 37
25 32 42
21 26 34
23 28 36
25 31 41
22 28 36
24 30 39
22 27 35
24 30 39
22 27 35
22 28 36
24 30 38
22 28 37
22 27 35
23 29 38
24 30 38
24 30 38
22 28 36
25 31 41
23 28 37
24 30 40
23 29 38
24 30 39
22 27 36
21 26 34
25 31 40
21 26 34
23 28 37
21 26 34
24 30 38
23 28 37
23 28 37
23 29 38
22 28 36
20 26 34
20 26 34
23 29 37
21 26 33
20 26 34
21 26 33
20 24 32
24 29 38
21 27 35
24 30 38
19 24 31
20 26 34
22 27 35
22 28 37
23 29 38
25 31 41
23 28 37
22 27 35
24 30 38
21 26 34
24 29 38
23 28 37
21 26 34
20 24 32
23 29 37
22 28 36
22 27 35
23 28 36
23 29 37
22 27 35
20 25 32
23 29 37
21 26 33
20 24 31
22 27 35
19 24 31
23 28 37
23 28 37
21 26 34
21 26 34
22 28 36
21 26 34
20 26 33
20 25 33
19 24 31
21 26 34
23 28 37
20 25 32
18 23 30
22 27 35
22 27 35
22 27 35
18 23 30
23 29 37
20 25 32
22 27 35
22 27 34
17 22 28
21 26 34
20 25 32
22 28 36
21 26 33
18 23 30
21 26 34
19 24 32
17 22 28
22 27 35
18 22 28
17 21 27
19 24 31
18 22 28
19 24 31
22 27 34
21 26 33
17 21 27
17 21 27
18 22 28
18 22 28
19 23 29
15 19 25
18 22 29
19 23 30
17 21 27
20 25 32
17 21 27
17 21 27
16 20 27
17 21 27
16 20 26
16 20 26
16 20 25
15 19 24
18 22 28
18 22 28
16 20 26
16 20 25
16 20 25
14 17 21
14 18 23
17 21 28
18 22 28
14 18 23
15 18 23
17 20 26
17 21 26
12 15 20
14 17 21
17 20 25
16 20 25
14 17 21
14 17 22
16 19 24
13 15 19
15 19 24
14 17 21
12 15 18
12 14 18
14 16 21
14 17 22
9 11 14
11 14 17
15 18 22
11 13 17
12 14 17
13 15 18
12 14 17
10 12 14
9 11 14
11 14 17
10 12 15
9 11 14
7 9 11
9 11 13
7 8 10
6 7 8
6 7 9
6 7 8
6 7 9
4 5 6
9 10 13
6 8 9
6 8 10
6 8 10
8 9 12
7 8 10
6 8 10
7 8 10
6 7 9
8 10 13
7 8 10
5 6 8
6 7 9
5 7 8
6 8 9
6 7 9
9 11 14
7 8 11
8 9 11
5 6 8
6 7 9
9 11 13
7 9 11
10 12 14
10 12 15
10 12 15
8 9 12
11 13 16
12 14 18
12 14 18
11 14 17
10 12 14
13 16 20
9 11 14
12 14 17
14 17 22
13 16 20
11 13 16
13 16 21
13 16 20
12 14 18
10 13 16
15 19 24
15 19 24
14 16 21
13 15 19
15 18 23
13 15 19
17 21 27
15 18 23
13 16 21
18 21 27
15 18 24
19 23 30
16 20 25
14 18 23
16 20 25
17 20 25
17 20 26
18 22 29
19 24 30
16 19 25
18 22 27
18 22 29
20 24 31
16 19 25
18 22 28
18 22 28
19 23 30
20 25 33
20 25 33
18 22 28
17 21 28
19 23 30
20 25 32
20 24 31
20 25 33
19 23 30
18 22 28
18 22 29
17 22 28
20 25 32
19 23 30
17 21 28
18 22 29
19 24 31
20 25 32
21 26 33
20 25 32
20 25 32
19 24 31
18 23 31
20 26 33
20 24 32
22 28 35
22 28 37
20 24 32
23 28 35
22 28 36
21 26 33
21 26 34
22 27 35
20 26 34
21 27 34
18 23 30
20 25 32
19 23 30
22 28 36
21 26 34
22 27 35
23 29 37
23 28 36
20 25 33
22 28 36
22 27 35
20 25 32
21 26 34
23 29 37
21 26 34
22 27 36
21 27 35
24 30 40
22 28 36
21 26 34
22 27 35
19 24 31
22 27 34
22 28 36
23 29 37
20 25 33
23 29 38
24 30 39
21 26 34
24 30 39
23 29 38
22 27 35
22 27 35
19 24 31
21 26 34
22 27 36
22 27 35
22 27 35
21 26 34
23 28 37
25 31 40
22 27 35
20 25 33
24 30 38
24 29 38
24 30 38
20 25 32
24 30 38
23 28 37
24 29 38
23 28 37
25 31 40
22 28 37
24 30 39
23 29 38
24 30 39
24 29 38
24 30 38
25 31 41
21 26 34
24 30 38
22 28 37
22 28 37
21 26 34
21 26 34
20 25 33
23 29 37
24 30 39
24 29 38
23 28 37
25 31 41
23 28 37
24 30 39
24 31 40
24 30 39
24 30 39
23 29 37
22 28 36
23 29 38
23 29 37
25 32 41
22 28 37
23 29 37
24 30 40
23 28 36
25 31 41
24 29 38
24 29 38
22 27 36
21 26 35
25 31 40
23 29 38
25 31 40
22 28 36
22 28 36
20 25 33
25 32 41
24 30 39
23 29 37
24 30 39
21 27 35
21 26 34
22 27 35
23 28 37
24 30 38
23 29 37
25 32 41
20 25 33
23 29 37
24 30 39
22 27 36
24 30 40
24 30 39
21 27 35
22 28 37
26 33 42
22 28 36
26 32 41
22 28 37
23 29 38
25 30 39
25 31 41
23 29 37
24 30 38
21 26 34
24 29 38
23 29 38
21 27 35
25 31 39
23 29 37
23 29 37
24 30 39
24 29 38
24 30 39
21 26 34
24 30 39
25 31 40
25 31 41
24 30 38
22 27 35
25 32 41
23 29 37
19 24 32
22 27 36
24 30 39
23 28 36
22 28 36
26 32 41
24 30 39
21 26 34
23 28 37
25 31 41
20 25 33
21 27 35
22 28 36
25 30 39
24 29 38
22 28 36
24 30 39
22 28 36
20 25 33
23 29 37
26 32 41
24 30 39
21 27 35
23 28 36
24 30 39
23 28 37
24 30 39
23 29 38
24 30 39
20 25 33
22 27 35
20 25 33
24 30 39
21 27 34
24 30 39
20 26 34
21 27 35
24 30 39
22 27 36
24 30 39
20 25 32
21 26 33
22 27 35
21 26 34
21 27 35
22 27 35
25 31 40
22 27 36
24 29 38
22 28 36
22 27 35
21 26 33
18 22 29
20 26 33
21 27 35
22 27 35
20 24 31
21 26 34
20 25 33
22 28 36
22 27 34
20 25 32
21 26 34
22 27 35
22 27 35
21 26 33
19 24 31
19 23 30
23 29 37
19 24 31
21 25 32
20 25 32
21 26 33
20 25 32
22 27 35
20 25 33
21 26 33
19 23 30
21 25 33
19 24 31
18 23 30
20 25 32
18 23 29
20 26 34
19 24 31
18 23 30
22 27 35
22 27 35
17 22 28
21 25 33
18 23 29
15 19 24
19 24 31
16 19 25
18 22 29
19 23 30
15 19 24
16 20 26
21 26 33
17 20 26
17 21 27
19 24 31
21 26 33
18 23 29
16 20 25
18 22 28
20 24 31
18 22 28
14 17 22
19 23 29
20 24 31
18 23 29
16 19 25
14 17 22
17 21 27
17 21 27
16 19 24
15 18 23
13 16 20
14 17 22
14 18 22
14 17 21
14 17 21
16 19 24
12 15 19
13 16 21
12 15 19
15 19 24
12 15 19
12 15 18
11 13 17
10 12 15
12 15 18
14 17 21
13 16 19
12 14 18
11 13 17
10 12 14
9 11 14
12 14 17
10 12 15
10 12 15
11 13 16
10 11 14
10 13 16
9 10 13
9 10 13
8 9 12
8 10 12
7 8 10
8 9 12
7 8 10
12 14 17
7 8 10
9 10 13
8 9 11
8 10 12
9 10 13
4 5 6
6 8 9
10 12 14
5 6 8
9 10 13
5 6 7
6 7 9
7 9 11
8 9 12
7 9 11
7 8 9
8 10 12
8 10 12
8 10 12
8 9 11
10 11 14
10 12 15
12 14 17
12 14 17
6 7 9
9 11 13
11 14 17
8 10 12
10 12 15
9 11 14
8 9 12
9 11 14
12 15 18
11 14 17
11 14 17
12 15 19
12 15 19
14 16 21
11 14 17
16 19 24
13 15 19
12 15 19
15 18 23
14 17 21
16 19 24
13 16 21
15 18 22
12 15 18
14 18 22
15 18 23
17 21 26
15 18 23
14 17 21
18 22 28
14 17 22
13 16 20
12 15 19
17 21 26
16 19 25
15 19 24
16 19 24
18 21 27
15 19 25
16 20 26
17 21 26
17 21 26
19 23 30
17 21 27
18 22 28
14 18 23
16 20 26
19 23 30
21 25 32
19 23 31
20 24 31
18 22 28
18 22 29
19 23 30
19 24 30
19 24 30
19 24 31
19 24 31
19 24 31
20 25 32
15 19 25
20 25 33
20 25 31
16 20 26
18 22 29
22 27 35
21 27 34
19 24 31
22 27 34
18 23 30
19 23 30
20 25 32
22 28 36
20 25 32
23 28 36
19 23 30
22 27 35
20 25 33
24 30 39
19 23 30
19 24 31
19 23 30
22 27 35
21 26 33
20 25 33
20 24 31
21 26 34
20 25 33
22 27 36
20 25 33
22 28 36
18 23 30
19 24 32
19 24 31
22 27 36
21 26 34
23 28 36
23 28 36
26 33 43
23 28 36
19 24 31
25 31 40
21 26 34
21 26 34
22 28 37
23 29 39
23 29 37
22 27 35
21 26 33
22 27 36
21 26 34
20 25 33
22 27 35
21 26 34
21 26 34
25 31 41
24 30 38
21 26 34
24 30 38
22 27 35
22 27 36
25 31 41
20 25 32
23 28 37
22 28 36
18 23 30
21 26 34
21 26 34
24 30 39
22 27 36
22 28 36
22 27 35
24 30 38
23 28 37
22 28 36
23 28 37
22 28 36
22 27 36
22 28 37
21 26 34
24 31 40
23 29 37
23 29 37
20 26 33
23 28 36
22 27 35
22 28 36
20 26 34
23 28 37
26 33 42
25 31 41
23 28 37
25 32 41
23 29 38
20 25 33
25 31 41
23 28 37
24 29 37
22 27 35
27 34 44
26 32 42
25 31 40
24 30 39
22 27 36
23 29 37
23 28 37
24 30 39
23 29 37
23 29 37
25 31 41
24 30 38
22 27 35
24 30 38
25 31 40
24 30 38
25 31 41
25 31 40
22 28 36
22 28 37
25 31 40
23 29 37
21 26 34
23 29 37
24 30 39
25 31 41
25 31 40
23 29 37
23 29 38
22 28 36
21 26 34
23 29 38
25 31 40
25 32 41
24 30 39
22 28 37
20 26 34
21 26 34
26 32 41
22 28 37
27 33 43
21 27 35
24 29 38
20 25 33
23 28 37
25 31 40
25 30 39
25 31 40
22 27 36
21 27 35
22 28 37
23 29 38
23 28 37
24 31 40
22 28 37
23 28 37
23 29 37
23 29 37
23 29 38
24 30 39
21 26 35
24 31 40
21 27 35
24 30 40
24 30 40
20 25 33
24 30 39
25 31 40
21 26 33
21 26 34
25 32 41
23 29 38
23 29 37
26 33 43
22 28 36
24 30 39
21 26 34
20 26 34
21 26 34
24 30 39
24 30 39
25 31 41
23 28 37
21 27 35
20 25 33
24 30 39
22 28 36
22 28 37
22 27 35
23 29 38
22 28 36
23 28 37
23 28 37
22 28 37
22 27 35
22 27 36
22 27 35
20 25 33
21 26 34
23 29 38
21 26 34
20 25 33
23 28 37
22 27 35
22 27 35
23 29 38
23 29 38
21 26 33
19 24 31
23 28 37
23 28 37
21 26 34
22 27 35
22 28 36
21 26 34
22 28 37
20 25 33
22 27 35
19 23 30
22 27 35
23 29 38
20 25 33
21 26 34
19 24 31
20 25 33
22 27 36
22 28 36
22 28 36
20 25 32
21 26 34
22 28 36
20 25 32
18 23 30
20 25 33
20 25 33
22 27 35
22 28 35
18 22 28
22 27 36
19 24 30
20 25 33
17 22 28
20 25 33
15 19 24
16 20 26
22 27 35
20 25 33
19 23 29
23 28 35
21 26 33
20 24 31
19 23 30
22 27 35
16 20 26
20 25 32
21 25 33
18 22 29
14 18 23
21 25 32
17 22 28
19 24 30
17 21 27
19 23 30
21 26 33
15 18 24
19 24 30
17 21 27
15 18 24
19 23 29
19 23 29
17 21 27
15 19 24
16 19 24
17 21 27
14 18 23
14 17 22
15 19 24
14 17 22
15 19 24
19 23 29
15 18 23
13 15 19
14 17 22
16 19 24
17 20 26
14 17 22
15 18 23
13 15 19
12 14 18
13 16 20
12 14 18
16 19 23
13 16 20
14 17 21
12 14 18
11 13 17
11 13 16
10 13 16
10 12 15
13 15 19
13 15 19
11 13 17
12 14 18
10 12 15
12 14 18
11 13 17
12 14 17
14 17 21
11 14 17
8 10 12
7 8 11
8 10 12
8 10 12
7 8 10
7 8 10
10 11 14
11 13 16
7 8 11
8 9 11
10 12 14
8 10 12
8 9 11
8 9 12
8 9 11
6 7 9
6 7 9
7 9 11
9 10 13
8 9 11
7 8 10
9 10 13
9 11 13
7 9 11
8 9 11
9 11 14
10 12 14
8 9 11
11 12 15
10 12 14
9 11 14
8 10 12
8 10 13
13 16 20
11 13 16
11 14 17
11 13 16
8 9 12
12 15 18
10 12 15
11 14 17
8 9 12
13 15 19
11 13 16
14 16 21
12 15 19
11 13 16
12 15 19
12 15 19
10 12 16
12 15 19
14 17 22
17 20 26
13 16 20
13 16 20
16 19 24
12 14 18
15 18 23
13 17 21
14 17 21
17 21 26
14 17 22
11 14 18
20 24 31
20 24 31
18 22 29
17 21 27
19 23 29
18 23 29
18 22 28
17 21 27
16 20 26
18 22 28
17 21 27
19 23 29
20 24 31
18 22 29
16 20 26
16 20 25
18 22 28
14 18 23
18 22 29
19 23 30
22 27 34
18 23 30
18 22 29
19 24 31
18 22 29
21 26 34
21 26 34
17 21 28
22 27 35
18 22 29
19 24 31
21 26 33
19 23 30
18 23 30
20 25 32
19 24 31
18 22 29
19 24 31
17 21 27
23 28 36
21 26 34
16 21 27
20 25 33
20 25 32
21 26 34
20 25 33
21 26 33
23 29 37
23 28 36
22 27 35
19 24 31
21 27 34
21 26 34
20 24 32
22 28 36
24 29 38
22 28 36
23 29 37
21 26 34
19 23 30
24 30 39
20 25 33
21 27 34
21 26 34
21 26 33
23 29 37
22 28 36
22 27 35
22 27 35
21 27 35
19 23 30
21 26 33
22 28 36
25 31 41
23 29 38
21 26 33
23 29 37
22 28 36
23 28 37
22 28 37
23 29 37
22 27 34
22 28 36
23 28 37
23 29 37
22 28 37
23 29 37
21 26 33
22 28 36
22 28 37
24 30 38
21 27 35
18 23 30
24 30 38
24 30 39
25 31 41
23 29 37
25 30 39
22 28 36
22 28 36
20 25 33
21 26 34
24 30 39
23 28 36
23 29 37
22 28 36
22 28 36
22 28 37
22 28 36
23 28 37
21 26 34
22 28 36
22 28 37
23 28 37
22 27 36
24 31 40
23 28 36
24 30 39
23 28 36
25 31 40
23 29 37
21 27 35
22 27 36
22 28 37
23 29 38
21 27 35
23 29 38
22 28 36
22 27 34
21 26 34
23 28 36
22 28 37
23 28 37
24 30 39
22 28 37
23 29 39
22 27 35
24 30 39
22 27 35
25 31 39
22 27 35
22 28 37
22 27 35
25 31 40
21 27 35
25 31 40
24 30 40
24 30 40
26 33 43
20 26 34
25 31 39
23 30 39
22 28 35
25 31 41
23 29 38
24 30 40
25 31 40
26 32 42
22 27 35
23 29 38
23 29 37
24 30 39
25 31 40
26 32 42
26 33 43
25 31 40
23 28 37
25 31 41
24 31 40
23 29 37
21 27 35
23 28 37
20 25 33
24 30 39
23 29 38
22 27 34
22 27 36
24 30 39
22 27 35
25 31 41
22 28 36
25 32 42
24 30 39
26 33 42
23 29 37
24 30 39
21 27 35
24 30 39
22 28 36
23 29 39
23 28 37
25 31 41
23 28 37
23 29 38
22 27 35
25 31 40
22 27 35
22 28 37
24 31 40
21 27 35
22 27 36
21 26 34
24 30 40
23 29 37
23 29 38
24 29 37
23 28 37
24 30 39
24 30 39
23 29 38
22 27 35
24 30 39
23 29 38
24 29 38
25 31 40
21 27 35
25 31 39
22 28 36
23 28 37
23 29 39
20 25 32
23 28 37
21 27 35
24 29 38
25 30 39
23 28 36
21 25 33
22 27 35
18 23 30
22 28 36
20 25 33
22 28 36
22 27 35
22 28 36
23 28 36
22 28 36
23 28 37
23 29 38
23 28 37
22 27 35
23 29 37
23 29 37
18 23 30
22 27 36
19 24 31
24 30 39
21 27 35
23 28 37
22 27 35
22 28 36
20 25 32
20 25 32
22 28 36
18 22 29
18 22 29
20 24 32
21 26 34
19 24 31
21 27 34
17 22 28
22 27 35
19 23 30
23 28 37
18 22 29
20 25 32
21 26 33
20 25 32
20 25 31
19 23 30
20 24 32
18 22 29
21 26 34
21 26 34
18 22 29
21 26 34
18 22 29
17 21 27
20 25 32
22 27 34
20 25 32
18 23 29
21 25 32
17 22 28
18 22 28
17 22 28
17 21 27
18 22 28
19 23 30
18 23 29
18 22 29
16 20 26
16 19 25
18 22 28
19 23 30
19 24 30
19 24 32
18 22 28
16 20 26
15 18 24
16 19 25
19 23 30
16 19 25
19 23 29
13 16 21
14 18 22
17 21 26
16 19 25
17 20 26
16 20 25
17 21 27
14 18 22
14 17 22
13 16 20
17 21 26
15 18 23
15 18 23
17 21 26
16 19 24
15 18 23
14 17 22
13 16 21
15 18 22
14 17 22
15 18 23
12 15 18
10 12 16
12 15 19
12 14 18
10 12 15
15 18 22
13 16 20
10 12 15
10 12 15
9 11 14
14 16 20
9 11 13
9 11 13
11 13 16
10 12 15
10 12 14
10 11 14
9 11 14
10 12 15
11 14 17
10 11 14
9 11 13
8 9 11
8 10 12
11 13 16
8 10 13
9 10 13
8 9 11
6 7 9
9 11 14
6 8 9
8 9 11
7 9 11
8 10 12
8 9 12
10 12 15
10 12 14
6 7 9
8 10 12
9 11 14
10 12 14
10 12 15
9 11 14
11 13 16
10 12 16
12 14 18
13 15 18
8 10 12
11 14 17
11 13 16
11 13 16
9 11 14
13 16 20
12 15 18
9 11 14
10 12 15
15 18 23
12 14 17
15 18 22
10 12 15
16 19 24
12 15 19
14 17 22
13 16 20
15 18 23
11 13 17
14 16 21
17 20 26
14 17 21
14 17 22
11 14 18
16 20 26
14 18 22
17 21 26
16 20 25
16 20 26
17 21 26
17 20 26
14 17 22
19 23 29
15 18 23
20 25 32
18 22 28
16 20 25
18 22 28
18 23 29
18 22 28
19 24 30
19 24 31
16 20 26
17 21 28
18 22 29
18 22 29
16 21 27
18 22 29
20 25 32
17 21 27
18 22 29
18 23 29
19 23 30
21 26 33
19 24 30
18 22 29
21 26 34
22 28 36
20 25 32
18 23 29
20 25 32
18 22 28
20 25 32
21 26 33
20 24 31
18 22 29
20 25 32
20 25 33
21 25 33
18 22 29
19 24 31
22 27 35
23 28 37
23 28 37
21 26 34
21 27 35
21 27 35
22 27 36
26 32 41
22 28 37
22 28 35
20 25 32
21 27 35
21 26 34
19 23 31
21 27 35
21 27 35
21 27 34
19 23 30
23 29 37
21 26 34
19 23 30
22 28 36
20 25 33
20 25 32
24 29 38
22 27 35
22 28 36
21 26 35
24 29 38
21 26 34
24 30 39
19 24 31
22 27 36
23 28 37
24 29 38
19 24 31
26 32 41
21 26 33
20 26 33
20 25 32
22 28 37
23 28 37
24 29 38
25 31 39
23 28 37
22 28 36
22 28 36
23 29 38
22 28 36
21 26 34
24 30 39
22 28 37
25 31 40
23 28 37
22 28 36
20 26 34
22 27 35
24 29 38
22 27 36
22 28 37
22 28 36
20 25 32
20 25 33
26 33 42
20 25 34
22 28 36
23 29 38
21 26 34
21 26 35
21 26 34
22 28 36
20 25 32
21 27 35
23 29 38
26 32 41
22 28 37
23 29 38
22 28 36
19 24 31
23 29 37
23 28 37
24 30 39
25 31 40
24 30 40
22 28 36
22 28 37
23 28 36
22 28 37
25 31 40
24 30 39
26 32 43
22 28 36
24 30 39
25 31 41
25 31 40
25 31 40
22 28 36
25 31 40
22 28 36
22 27 35
25 32 41
23 28 37
22 27 36
25 31 40
22 27 36
25 31 40
21 26 34
26 32 42
23 28 36
20 26 34
24 29 38
23 29 37
24 30 38
23 29 38
24 30 39
24 30 39
24 29 38
24 30 39
23 28 36
23 29 37
22 27 35
24 30 39
22 28 36
21 27 35
25 31 40
24 30 39
27 33 43
22 28 38
23 28 37
23 29 37
24 30 39
26 32 41
24 30 39
24 30 40
24 30 39
22 27 36
24 30 39
21 26 35
23 29 37
24 30 39
23 29 37
23 29 37
22 27 35
26 33 43
22 27 36
23 29 39
22 27 34
22 28 37
23 28 37
24 30 40
21 27 35
25 31 40
23 29 37
25 31 40
24 29 38
25 31 41
21 26 33
22 27 35
23 29 38
22 27 35
23 29 38
23 29 38
25 31 40
24 30 39
23 28 35
23 28 37
21 26 34
25 30 39
23 29 37
24 29 38
19 24 31
23 28 36
18 22 29
23 29 38
22 28 36
21 26 33
23 29 37
23 29 37
22 28 36
23 30 39
20 25 33
22 27 35
22 28 36
23 29 38
26 32 42
22 27 35
20 26 34
20 25 32
22 27 36
22 28 36
23 29 37
24 30 38
23 29 37
20 25 33
23 29 37
22 27 35
21 26 34
24 30 39
19 24 30
21 27 35
18 22 29
23 28 36
22 27 35
20 25 32
23 29 38
21 26 34
21 26 34
21 26 34
24 30 39
20 25 32
19 24 32
21 26 34
19 24 31
20 26 34
21 25 32
21 26 34
22 27 34
20 25 33
21 26 34
24 30 38
19 24 32
18 22 29
19 23 30
21 26 34
18 23 30
19 24 32
20 24 32
22 27 34
18 22 29
19 23 30
18 22 29
19 23 30
19 24 31
17 21 28
18 22 29
18 22 29
19 24 31
19 24 31
20 24 31
15 19 25
18 22 29
20 25 31
17 21 27
19 24 30
15 18 24
21 26 34
19 23 29
16 19 25
17 21 27
17 21 27
17 21 26
18 22 28
18 22 29
17 22 28
19 23 29
19 23 29
17 21 27
16 19 24
17 21 26
17 20 26
14 18 23
17 21 26
17 20 26
21 26 33
14 17 22
15 18 23
14 17 22
18 22 27
16 19 24
16 20 25
12 15 20
17 20 26
14 17 21
13 15 19
14 16 20
14 17 21
16 19 24
13 16 20
14 17 21
14 17 21
12 15 19
10 12 15
9 11 13
12 15 19
12 15 19
9 11 14
13 15 19
10 12 15
14 16 21
9 11 13
9 10 13
10 12 15
13 16 20
10 12 15
11 13 16
9 11 14
12 14 17
13 15 19
10 12 15
9 11 13
7 9 11
9 11 14
7 8 10
10 12 15
11 13 16
9 10 13
10 12 15
7 8 10
11 13 15
10 12 14
10 12 15
11 13 16
9 10 13
7 9 11
8 10 12
9 11 13
9 11 13
8 9 11
9 11 13
9 11 14
9 11 14
9 10 13
11 13 16
10 11 14
10 12 15
9 11 13
8 10 13
11 13 16
10 12 15
8 9 12
11 14 17
11 13 17
11 13 16
13 15 19
12 15 18
13 15 20
11 13 17
12 15 19
14 17 21
12 15 19
14 17 21
13 16 20
17 20 25
12 14 18
13 16 20
13 16 20
13 16 20
17 20 26
15 18 23
15 18 23
15 18 23
14 17 22
19 23 29
16 20 26
16 20 25
13 16 21
18 22 28
14 17 23
15 19 24
16 19 25
17 20 26
15 18 23
18 22 28
15 19 24
16 20 25
17 21 26
14 17 22
20 24 31
17 20 26
16 19 25
19 23 29
18 23 29
18 22 29
17 21 27
17 21 28
15 18 24
16 20 25
20 25 32
17 21 27
19 23 30
19 23 30
17 21 27
18 22 29
18 22 28
15 19 26
18 22 28
20 25 33
16 20 25
19 24 31
21 26 34
20 25 33
19 24 31
22 27 36
21 26 34
21 25 33
20 25 32
20 25 32
20 25 32
20 25 33
22 28 36
18 23 30
20 25 32
22 27 35
19 24 32
18 22 28
21 26 34
21 27 35
22 28 36
20 24 32
19 24 31
19 24 31
19 24 31
21 26 34
21 26 34
19 24 31
21 26 33
19 24 31
22 27 35
21 26 34
22 28 36
22 28 36
23 29 37
20 25 33
20 25 33
20 25 32
23 29 37
21 26 33
21 26 34
22 28 36
23 29 37
21 26 33
23 29 37
18 22 29
22 28 36
20 25 33
22 28 36
21 26 35
23 29 37
23 28 37
26 32 41
22 28 36
19 24 31
23 29 37
21 26 34
23 29 37
22 28 37
23 28 37
22 27 34
24 30 39
21 27 35
23 28 37
23 29 38
22 28 36
24 30 39
25 32 41
23 29 38
26 31 40
22 28 36
20 25 33
20 25 32
22 27 36
23 29 38
26 33 42
23 28 37
22 27 35
23 29 37
23 29 38
23 28 37
24 30 38
22 28 36
25 31 41
22 27 35
21 27 35
24 30 38
23 28 37
21 26 34
24 30 39
21 27 35
23 29 37
21 26 34
24 30 39
23 28 37
23 29 37
22 27 35
24 29 38
23 29 38
22 28 36
21 27 35
20 24 31
25 31 41
25 31 39
24 30 40
23 29 38
22 27 35
24 31 41
22 28 36
23 29 37
24 30 39
24 30 39
24 30 39
24 30 38
22 28 36
24 30 38
22 28 36
22 28 37
24 30 39
23 28 37
24 29 37
23 29 38
23 28 37
22 28 37
21 26 35
25 32 41
25 31 40
25 31 41
22 28 36
20 25 33
22 28 37
22 27 36
23 28 36
23 29 37
22 28 36
24 30 39
25 31 40
23 29 38
23 29 37
23 29 38
23 29 37
22 28 36
24 30 38
22 28 37
22 28 37
24 29 38
23 29 38
22 27 36
22 28 36
23 30 39
21 27 35
26 32 41
25 31 41
25 31 40
23 29 38
22 28 36
23 29 38
22 28 37
23 28 37
22 28 37
22 28 37
23 28 36
25 31 40
23 28 37
21 26 34
18 23 30
22 27 35
24 30 38
23 29 38
23 29 38
22 27 35
25 31 40
23 28 37
24 30 39
23 29 38
22 28 36
23 29 37
23 28 36
24 29 38
19 24 32
24 30 38
20 26 34
21 26 34
24 30 38
22 28 37
22 27 36
25 31 40
20 25 33
24 30 39
20 25 32
22 27 35
23 29 38
21 26 35
22 28 36
22 27 36
22 28 36
21 27 36
23 29 38
22 28 36
24 29 38
24 30 39
21 27 35
23 29 38
19 23 30
22 27 35
22 28 36
20 25 33
22 28 37
22 28 36
22 27 35
24 30 39
24 30 39
23 28 36
23 29 38
20 24 31
19 24 30
22 28 36
22 28 35
18 22 29
21 26 34
23 29 38
18 23 30
21 26 34
21 26 34
21 26 33
19 24 31
20 25 33
20 25 33
19 24 30
19 23 30
19 23 30
18 23 30
20 25 32
20 25 32
21 26 33
21 27 34
21 26 34
19 23 30
21 26 34
22 27 35
20 24 32
19 24 31
20 24 31
19 23 29
18 23 29
18 23 30
18 23 29
20 25 32
20 25 33
20 25 32
19 24 30
22 27 34
16 20 26
18 22 28
20 25 32
21 26 34
19 23 30
20 25 32
18 22 28
20 25 32
16 20 26
17 21 27
17 21 27
18 22 28
15 19 24
19 22 28
16 20 26
16 19 24
20 24 31
21 26 33
17 21 28
15 19 24
16 20 26
17 21 27
12 15 20
14 17 22
21 25 32
17 21 27
16 20 25
18 22 28
18 21 27
16 19 24
16 20 25
14 18 22
17 20 26
14 16 21
13 16 20
14 17 21
13 16 20
14 18 22
14 17 22
10 12 15
9 11 14
13 15 19
13 16 19
14 18 23
13 15 19
13 15 19
13 15 19
14 17 21
12 14 17
9 11 14
10 11 14
10 12 15
11 13 16
12 15 18
12 15 18
12 15 19
12 14 18
8 9 12
10 12 14
9 11 14
9 11 14
9 11 14
9 11 14
9 10 13
9 10 13
13 15 19
8 9 11
11 14 17
8 10 12
10 12 15
10 11 14
9 10 13
6 8 9
10 12 15
9 10 13
11 12 15
10 13 16
11 13 16
7 9 11
11 13 16
10 12 15
9 11 13
10 12 15
10 12 14
10 12 16
10 12 15
8 10 13
12 14 18
11 13 16
8 10 12
11 13 16
12 14 17
11 13 16
15 18 23
13 16 20
11 14 17
10 13 16
10 12 15
12 15 19
13 16 19
11 14 17
16 19 24
14 17 22
14 17 22
12 15 19
12 15 19
14 16 21
15 18 23
13 16 20
14 17 22
17 20 25
18 22 28
17 20 25
14 17 22
17 20 26
15 18 24
16 20 26
16 20 26
16 20 26
14 17 22
16 19 24
17 22 28
14 18 22
17 21 27
15 18 23
15 19 24
18 23 29
17 22 28
18 22 29
17 21 27
18 22 28
19 24 31
21 26 33
19 23 30
18 21 27
17 21 27
14 18 23
19 23 29
18 22 29
15 19 24
22 27 35
17 22 28
20 24 31
19 24 31
17 21 27
16 20 26
19 24 31
20 24 32
18 22 29
18 23 30
19 24 31
18 23 29
21 26 33
21 26 33
19 23 30
21 26 33
19 24 31
18 22 28
22 27 35
18 23 30
22 26 34
21 26 33
21 26 33
20 25 32
20 25 33
19 24 31
21 26 34
22 27 35
16 20 26
22 27 35
20 25 32
21 26 33
19 24 31
21 26 33
17 21 28
20 24 31
23 28 35
22 28 36
18 22 29
24 30 38
21 26 35
23 28 36
19 24 32
22 27 35
21 26 34
19 24 31
21 26 34
21 26 33
20 25 32
23 28 37
22 27 35
23 28 36
20 25 32
21 27 35
22 27 35
22 28 37
20 25 33
20 25 33
23 29 37
26 33 42
19 24 31
23 28 36
21 27 34
25 31 40
21 27 35
22 27 36
22 27 35
25 31 41
25 31 40
23 29 38
23 29 38
25 31 41
22 27 34
25 31 40
22 27 36
21 27 35
25 32 42
22 28 36
22 27 35
22 28 36
23 28 37
23 28 36
24 30 38
23 29 37
23 28 37
24 30 39
19 24 32
24 30 39
24 30 39
22 28 36
21 27 34
23 28 37
23 29 38
24 30 39
24 30 39
21 26 33
23 28 37
23 29 37
23 28 37
24 30 40
21 26 35
25 31 40
24 30 39
24 30 40
22 27 35
21 27 35
23 29 37
22 27 35
21 27 35
23 29 38
22 28 37
25 31 41
24 29 38
23 29 38
21 27 35
25 31 40
23 29 37
25 31 41
23 29 38
24 30 38
22 28 36
23 29 38
23 29 37
23 29 38
24 29 38
24 30 38
22 28 36
22 27 36
21 26 34
25 31 41
24 30 39
24 29 38
21 27 35
23 29 39
22 27 35
23 28 36
24 30 38
26 32 41
23 29 37
24 29 38
22 28 37
26 32 41
23 29 37
24 30 38
25 31 40
20 25 32
22 28 36
23 29 38
23 29 38
23 28 37
23 28 37
25 31 41
23 29 38
22 28 36
22 28 36
23 29 38
21 26 34
24 30 38
25 31 40
23 28 37
26 32 41
24 29 38
21 27 35
22 28 37
23 28 37
20 25 33
21 26 33
22 27 35
21 27 35
25 31 40
24 31 41
23 30 39
23 29 37
23 29 38
22 27 36
23 29 37
25 31 40
21 27 35
22 27 36
20 25 33
23 29 38
23 29 38
17 22 28
24 30 39
21 26 33
23 29 38
21 26 34
23 29 38
21 26 34
23 29 38
24 30 38
22 28 36
20 25 33
21 27 34
21 27 35
21 26 35
21 27 35
20 25 32
21 26 34
22 27 36
21 26 34
25 31 40
20 25 32
21 26 34
21 26 34
20 25 32
23 29 37
20 25 32
22 28 36
23 29 38
21 26 34
20 25 32
19 24 31
22 27 35
21 26 34
23 29 37
21 27 34
20 25 33
22 28 36
20 25 32
24 29 38
22 27 35
20 26 33
20 26 33
20 25 33
23 30 39
21 25 32
19 25 32
21 26 34
22 28 37
22 28 36
19 24 31
21 26 34
20 26 34
20 25 33
19 23 30
21 26 33
23 29 37
21 26 34
20 25 33
16 20 27
21 26 34
20 25 33
17 21 28
19 23 30
21 27 34
19 24 32
19 23 30
19 24 31
21 26 33
18 22 29
21 26 34
19 23 30
19 24 32
20 24 31
18 22 28
14 18 23
21 26 34
16 20 26
20 25 32
18 22 29
18 22 30
18 22 28
18 22 29
19 23 30
17 22 28
15 19 25
16 20 26
18 22 28
18 23 29
18 21 27
17 20 26
16 19 25
16 20 26
18 22 28
15 18 24
18 22 28
15 18 23
15 19 24
17 20 26
13 16 21
14 17 22
15 18 23
16 20 26
16 20 25
15 19 24
17 21 27
16 20 26
18 22 28
10 13 16
15 19 24
16 19 24
15 18 23
15 18 23
14 17 22
13 16 20
9 11 14
15 18 23
16 19 24
13 16 21
15 18 23
13 16 20
11 14 17
11 13 17
12 14 18
16 19 24
13 15 19
14 17 22
13 15 19
10 12 16
9 10 13
10 13 16
12 14 17
11 13 16
14 16 21
9 11 13
9 11 13
12 14 18
10 12 14
12 14 18
9 11 14
13 15 19
12 14 18
8 10 13
11 13 16
11 13 16
10 12 15
8 10 12
10 12 15
15 17 21
8 10 12
7 8 11
12 14 18
10 12 15
14 16 20
10 12 15
13 15 18
10 12 15
11 14 17
11 13 16
10 12 16
10 12 15
9 11 13
9 11 13
10 12 15
11 14 17
10 12 16
9 10 13
9 11 14
16 19 24
7 9 11
13 15 19
13 16 20
11 13 16
14 16 21
11 13 16
12 15 19
13 15 19
9 11 13
14 18 22
14 17 21
11 14 17
13 16 20
13 16 20
14 17 21
17 21 27
13 16 21
14 17 21
14 17 22
15 18 23
14 17 21
16 19 24
14 17 22
14 17 22
17 20 26
16 19 25
17 20 26
14 17 22
16 19 24
17 21 26
14 17 22
16 19 24
16 19 25
18 22 28
16 20 25
17 21 26
17 21 26
18 22 28
16 20 25
18 22 28
15 18 23
17 21 27
20 24 30
18 22 29
14 17 22
16 19 25
17 21 27
18 22 28
17 21 28
16 20 26
19 23 29
20 25 32
16 21 27
20 25 32
18 22 29
19 23 30
19 24 31
19 24 31
18 23 30
19 24 30
20 25 33
19 24 31
18 23 29
19 23 30
19 24 30
19 24 31
21 26 33
20 25 33
18 23 30
20 24 31
21 26 34
20 24 32
20 24 31
18 23 30
20 25 33
20 24 32
21 26 33
22 28 36
21 27 35
19 24 31
24 30 38
20 25 32
22 27 35
19 23 30
19 24 31
23 29 37
20 25 33
18 22 29
21 27 35
19 24 31
25 31 40
18 22 29
21 27 35
22 27 35
21 26 34
24 30 38
23 28 37
22 28 36
21 27 35
21 27 35
22 28 36
22 27 35
19 24 31
22 28 36
21 27 35
24 30 39
23 29 37
23 29 37
22 27 35
20 25 33
23 29 38
22 27 35
22 27 35
21 26 33
21 27 34
21 26 35
22 28 36
20 25 32
23 29 37
24 30 39
20 24 31
24 29 38
22 27 35
21 26 33
25 31 40
24 30 39
22 28 36
20 25 33
20 26 33
21 26 34
20 24 32
23 29 38
20 25 33
23 29 37
23 28 37
23 28 37
24 30 40
22 28 36
21 27 35
23 29 37
21 26 34
23 28 37
22 28 36
21 27 35
21 26 34
22 28 36
24 29 38
21 26 34
20 25 33
22 28 36
20 25 32
24 29 37
22 28 36
22 28 36
24 31 40
23 29 39
22 28 36
23 29 37
22 27 35
23 29 38
24 30 39
25 31 40
21 27 35
24 30 39
24 29 38
24 30 39
23 29 37
24 31 41
22 28 36
24 29 37
24 30 39
24 29 38
23 28 36
23 29 38
21 26 34
19 24 32
23 28 37
21 26 35
23 29 37
19 24 31
21 26 34
21 26 33
22 27 36
22 27 36
23 29 37
23 28 37
23 29 38
22 27 35
23 28 36
22 28 36
25 31 40
23 29 38
23 30 39
23 29 38
27 33 42
22 28 37
22 28 36
24 30 39
24 29 38
27 34 44
21 26 34
23 29 37
24 30 39
24 29 38
22 27 36
24 29 38
23 29 37
24 30 39
25 32 41
24 30 39
24 30 38
25 31 40
20 25 33
22 27 35
25 31 40
22 27 35
24 30 39
24 30 39
20 25 33
22 28 36
25 31 41
22 28 36
22 27 36
24 30 39
22 28 36
22 28 36
26 32 42
26 32 42
21 26 33
22 28 36
22 28 36
25 31 40
22 27 35
24 30 39
21 27 35
22 28 36
21 27 35
23 29 38
22 28 36
21 25 33
21 26 34
24 31 40
20 25 32
19 24 32
19 24 31
22 28 36
24 30 39
20 24 31
23 29 38
22 28 36
20 25 32
22 28 36
21 27 34
22 28 37
22 27 35
20 25 32
23 28 36
22 27 35
20 25 32
22 27 35
22 27 35
22 28 36
21 26 34
21 27 34
23 29 37
22 27 35
22 27 35
20 25 32
20 24 32
22 28 36
21 26 34
20 25 32
23 29 37
22 28 35
20 25 33
22 28 36
19 24 31
24 30 40
20 25 32
20 25 32
21 26 34
22 28 36
19 24 31
20 25 33
19 24 32
19 24 31
20 25 32
20 25 33
21 27 35
19 25 32
18 23 29
21 26 33
21 25 33
20 25 33
19 24 32
18 23 29
20 25 32
20 24 31
22 27 35
19 24 31
20 25 33
19 23 30
17 21 27
20 25 32
18 23 29
16 20 26
19 24 31
19 23 30
20 25 32
17 21 27
18 22 29
19 24 31
19 23 30
17 21 27
16 20 25
18 23 29
18 23 30
16 20 26
18 22 28
19 24 31
18 22 28
18 22 28
18 23 29
17 21 27
18 22 28
15 19 24
17 21 27
17 21 26
16 19 24
18 21 27
19 24 31
14 17 22
16 19 24
13 16 21
14 18 22
16 20 25
16 19 24
17 20 26
15 18 23
18 21 27
15 19 24
15 18 23
12 15 19
12 15 19
12 15 19
12 15 19
13 15 20
13 16 21
15 18 23
11 13 17
13 16 21
12 15 19
13 15 19
16 19 24
14 17 21
14 17 21
14 16 21
13 16 20
11 13 16
12 14 18
11 13 17
12 15 19
12 14 18
10 11 14
8 10 13
10 12 15
11 14 17
9 11 14
10 12 15
11 13 16
14 16 20
12 14 17
11 13 16
11 14 17
11 13 16
10 11 14
8 10 12
11 13 17
10 12 15
11 13 16
12 15 18
12 15 18
11 13 16
11 14 17
10 12 14
12 14 18
11 14 17
9 11 14
9 11 14
12 14 17
10 11 14
12 14 17
9 11 13
12 14 18
9 11 13
13 15 19
12 14 18
13 16 20
10 12 16
12 14 18
11 14 17
12 15 18
13 15 19
13 16 20
11 13 17
13 16 20
14 17 21
13 15 19
10 12 15
10 12 15
11 14 18
12 15 18
12 15 19
16 20 25
14 17 22
14 17 22
16 19 25
12 15 18
12 15 19
16 19 24
15 18 23
11 14 18
19 23 29
18 22 28
14 18 23
16 20 25
15 19 24
17 21 26
17 21 26
17 21 27
15 19 24
18 21 27
15 19 24
12 15 20
12 15 20
16 20 25
17 20 26
16 20 26
14 18 23
19 23 29
16 20 26
19 23 30
18 22 28
18 22 28
19 23 30
18 22 28
17 20 26
18 23 29
21 26 34
19 23 30
18 23 29
19 24 31
18 23 29
17 21 27
19 23 30
20 25 32
16 20 25
17 21 27
20 24 31
21 26 33
20 24 32
20 24 31
18 23 29
19 24 30
20 25 33
20 24 31
20 25 32
20 26 34
21 25 33
19 23 30
19 24 31
21 26 34
21 27 35
21 27 34
19 24 32
21 25 33
19 24 30
21 26 34
20 25 33
18 22 29
19 23 31
22 27 36
20 25 32
24 30 38
18 22 29
20 25 33
21 26 34
19 24 31
21 26 34
19 23 31
21 26 34
21 26 34
22 28 36
22 27 35
23 29 37
20 25 33
19 24 31
21 26 34
21 27 35
22 27 36
25 31 40
20 25 32
20 25 32
21 26 33
21 27 34
22 27 35
19 24 32
20 25 33
20 25 33
23 29 38
21 27 35
21 27 34
21 26 34
19 24 32
21 27 35
22 27 36
23 28 37
19 24 32
23 28 36
22 28 36
22 28 36
21 26 34
25 31 40
20 25 33
22 28 37
22 28 36
20 24 32
21 26 34
24 29 38
22 28 37
24 30 39
19 24 31
25 31 40
22 27 36
24 30 39
24 30 39
23 28 37
23 29 37
23 29 38
23 28 37
22 27 35
23 29 37
21 26 34
22 28 36
23 29 38
24 30 39
23 28 37
23 28 37
25 31 40
23 29 37
22 27 36
25 31 40
22 27 36
23 29 37
23 28 37
24 30 38
22 27 36
24 30 39
22 28 37
23 28 37
25 31 39
24 30 38
23 29 38
24 30 40
24 30 39
23 28 37
26 32 42
25 31 40
24 30 39
22 28 36
22 27 35
22 27 35
21 26 35
23 29 37
20 26 34
22 28 36
23 28 37
21 27 35
22 28 36
22 27 35
24 30 39
24 30 39
25 31 41
23 29 38
22 27 35
25 31 40
25 31 41
25 31 40
22 28 37
25 31 40
24 30 39
24 30 38
23 29 37
24 30 39
22 28 35
22 27 36
24 30 39
24 30 39
23 29 37
24 30 39
24 30 39
25 31 40
23 29 37
24 30 39
20 24 32
21 26 34
25 31 40
25 31 40
24 30 39
25 31 41
24 30 38
23 29 37
23 29 37
24 30 38
23 29 37
23 29 37
23 28 36
22 28 36
21 26 34
22 27 35
23 29 37
24 30 39
24 30 39
23 29 38
23 30 39
23 28 36
24 29 38
21 26 34
23 28 37
24 30 38
21 27 35
23 28 37
22 28 37
21 27 35
23 28 36
19 24 31
21 26 34
21 26 34
23 29 37
21 26 34
22 28 37
24 30 39
20 26 34
23 29 38
21 26 34
23 29 38
22 27 35
20 24 31
22 27 35
24 30 40
22 27 35
22 27 36
23 29 37
23 29 37
19 23 30
20 25 32
22 28 36
18 23 29
20 26 33
22 28 37
23 29 37
21 27 35
22 27 35
19 24 32
21 26 34
23 28 37
20 24 31
22 27 36
20 25 33
18 23 29
24 30 39
19 24 31
23 28 37
21 26 34
22 28 36
22 28 36
21 26 33
23 29 37
19 24 31
20 25 32
22 28 36
22 28 36
22 27 35
19 24 30
18 23 29
19 23 30
20 25 33
17 21 28
22 27 36
20 24 32
22 27 35
22 27 35
21 25 33
20 25 33
21 26 34
23 28 35
20 25 32
18 22 29
21 26 34
19 24 31
22 27 36
20 25 32
19 24 32
18 22 29
18 22 28
20 25 32
21 26 33
19 23 30
16 20 26
19 23 30
19 23 30
17 21 27
16 20 26
20 25 31
19 24 31
18 23 29
16 20 26
21 26 32
19 23 30
14 17 22
20 24 31
18 22 28
19 23 30
16 20 26
16 20 25
19 23 30
15 18 23
17 21 27
16 20 27
14 17 22
18 22 28
18 23 30
19 23 29
18 22 27
17 21 27
14 17 22
16 20 25
17 20 26
14 17 22
15 19 24
15 19 24
16 19 24
15 19 24
12 15 19
15 18 23
13 16 20
13 16 20
14 17 22
13 16 20
15 18 23
14 17 22
13 15 20
13 16 20
14 17 21
13 16 20
15 18 22
15 18 24
7 9 11
11 13 17
12 15 19
10 11 14
13 16 20
12 14 18
9 11 14
11 14 17
13 16 21
11 14 17
12 14 18
13 16 20
11 13 16
12 14 17
10 12 15
12 14 18
7 9 11
12 14 18
10 12 15
11 14 17
9 10 13
8 10 13
12 14 18
10 12 15
13 15 19
10 13 16
11 13 17
11 13 16
14 16 20
10 13 16
11 13 17
11 14 17
11 13 17
12 14 18
12 14 17
10 12 15
6 8 10
14 16 21
13 16 20
10 13 16
11 14 17
16 19 23
12 14 18
12 14 18
11 14 17
14 16 21
13 16 20
13 15 19
15 18 22
14 16 20
14 17 21
14 17 21
12 14 18
13 15 19
14 17 22
16 19 23
15 18 23
13 16 20
11 13 17
15 18 23
13 16 20
12 15 18
13 16 20
15 18 23
14 17 22
17 21 26
16 20 25
16 19 25
15 18 23
17 20 26
17 21 26
14 18 22
16 19 24
15 19 24
19 23 29
16 19 24
15 18 23
16 19 24
18 23 29
15 19 24
18 22 28
15 18 24
18 22 29
18 22 29
15 18 24
16 19 24
21 26 33
19 24 31
16 19 25
21 25 32
13 17 22
18 22 29
18 22 29
16 19 24
19 23 29
18 22 29
20 25 32
17 21 27
20 25 32
19 24 31
20 25 32
21 26 34
17 21 28
20 25 32
20 24 31
16 20 26
21 26 33
20 25 33
20 25 33
18 23 30
21 26 33
20 24 31
20 25 33
21 26 34
21 26 34
19 24 30
21 26 33
20 25 33
20 25 32
23 29 37
21 27 35
19 23 30
19 24 31
19 24 31
21 27 34
21 26 34
19 24 32
20 26 34
21 26 34
20 25 33
22 27 35
22 27 35
19 24 31
23 28 37
23 29 37
23 29 37
22 28 36
19 24 30
23 28 37
22 27 35
21 26 34
22 27 35
20 26 34
23 29 38
21 25 33
21 26 34
20 25 32
20 25 32
23 28 37
20 25 33
25 31 40
22 27 35
25 32 41
24 29 38
22 28 36
21 26 34
23 28 36
22 28 36
23 29 38
23 28 37
24 30 40
24 29 38
22 28 36
23 29 38
23 28 37
23 29 37
21 27 35
23 29 38
22 28 36
23 29 38
22 27 36
22 27 36
21 26 33
21 26 35
25 31 40
24 30 39
22 27 34
24 30 40
25 31 40
21 26 34
20 25 32
25 32 42
22 28 37
22 28 36
24 29 38
22 28 37
21 26 34
24 29 38
22 27 36
22 28 36
24 30 39
21 26 33
21 26 34
20 25 33
23 29 38
25 31 40
25 31 40
25 31 41
24 30 39
22 28 37
23 29 37
23 29 38
24 30 39
23 29 38
23 28 36
23 28 37
24 30 39
22 27 35
23 29 37
21 27 36
24 30 40
25 31 40
24 29 38
21 27 35
21 27 35
21 26 34
25 31 40
25 31 41
20 25 32
23 28 37
22 28 36
24 30 39
23 29 37
23 29 38
24 30 39
22 27 35
22 27 36
26 32 42
23 29 38
22 27 36
22 28 37
24 30 39
24 30 39
23 28 37
22 27 36
24 30 39
26 32 41
25 31 41
21 26 33
25 31 40
23 29 36
22 28 36
21 27 35
22 28 36
23 29 38
22 28 36
22 28 37
22 28 37
27 34 44
24 30 38
23 29 37
22 27 35
20 25 33
22 27 35
24 30 39
22 28 36
25 31 41
23 28 37
21 26 34
21 27 35
24 30 39
21 26 34
21 26 34
24 30 39
21 27 35
22 28 37
24 30 39
20 25 33
21 26 33
23 29 37
22 28 36
22 28 36
21 27 35
23 29 38
22 28 37
22 28 36
24 30 38
21 26 33
22 27 36
24 30 40
23 29 38
20 25 33
22 27 35
22 27 35
19 23 31
23 28 37
21 26 34
20 25 33
23 28 37
20 25 33
20 25 32
20 25 33
22 27 35
21 26 33
22 27 36
22 27 35
20 25 32
22 28 37
22 27 36
22 28 37
21 27 35
21 26 34
18 22 30
21 26 35
23 28 36
20 25 33
23 28 36
21 26 34
22 27 35
21 26 34
24 30 39
23 29 38
22 27 35
21 26 33
21 26 34
17 22 29
18 22 29
21 27 35
19 24 31
22 27 35
24 30 39
20 25 32
20 24 31
19 24 31
19 24 31
20 26 34
20 25 32
19 24 32
21 26 34
19 24 30
19 24 31
19 23 29
20 25 32
20 25 32
18 22 28
19 24 30
18 22 29
22 27 35
21 26 34
18 22 29
20 24 32
19 23 29
18 23 29
17 21 27
18 22 29
20 24 31
18 22 29
19 24 32
19 23 30
20 24 31
19 24 32
20 24 31
22 27 34
19 24 31
16 20 25
16 20 26
18 23 30
17 21 27
18 22 28
21 26 33
17 21 27
19 23 30
16 20 26
18 23 29
20 24 30
18 23 30
16 20 25
16 19 24
17 21 27
17 21 27
17 21 27
17 21 27
15 18 24
16 19 25
16 19 25
18 22 28
14 17 22
15 19 24
14 17 22
15 19 24
14 18 23
13 16 20
14 17 22
13 16 20
16 20 25
15 18 23
19 24 30
14 18 22
15 19 24
13 16 21
12 14 18
16 20 25
16 19 24
16 19 25
16 20 25
14 16 21
13 16 20
11 13 17
16 19 24
13 16 20
13 15 19
11 13 16
14 17 21
13 16 21
12 14 18
10 12 15
12 14 18
13 15 19
13 16 20
12 14 18
8 10 13
11 13 16
13 15 19
12 14 18
14 17 21
10 13 16
9 11 13
10 12 15
10 12 15
8 10 12
12 15 19
11 13 17
13 16 20
14 17 21
14 17 22
10 12 15
14 17 21
12 14 18
13 15 19
10 13 16
12 14 17
12 14 18
10 12 15
12 14 18
12 15 18
15 18 23
13 16 20
12 14 17
12 14 18
12 14 17
11 13 17
12 15 19
14 16 20
10 12 15
15 18 22
12 15 18
14 17 21
13 15 19
12 15 19
11 13 17
13 16 20
14 17 21
14 17 21
14 18 22
13 15 20
14 17 21
14 17 22
17 20 25
10 13 16
16 19 24
17 20 26
12 15 19
15 18 23
15 18 22
14 16 21
17 21 27
15 18 24
12 15 19
16 19 24
17 21 26
15 18 22
13 16 20
17 21 27
14 17 21
16 20 25
16 20 26
14 17 22
15 18 23
15 19 24
18 22 27
17 21 27
20 24 31
17 22 28
16 19 25
17 20 26
20 24 31
18 22 28
18 22 29
19 24 31
16 19 25
20 25 33
16 20 26
15 19 25
17 21 27
18 22 29
18 22 29
20 24 31
20 24 31
20 24 31
17 21 27
21 26 33
20 24 32
19 23 31
20 24 31
18 22 28
21 25 33
18 22 29
18 23 29
20 25 32
23 29 37
18 23 30
19 24 31
19 24 31
21 26 33
20 25 32
17 21 27
21 26 33
18 22 29
19 24 31
21 27 34
21 26 34
20 25 33
20 25 32
21 26 34
19 24 31
21 26 34
22 28 36
23 28 36
19 23 30
23 29 37
20 25 33
18 23 30
22 27 35
23 29 38
20 25 32
21 26 34
23 28 36
22 28 37
25 31 39
20 25 33
24 30 39
19 24 31
22 27 35
19 24 32
20 26 33
24 30 38
20 26 34
23 28 37
21 27 35
20 26 33
25 30 39
19 24 31
24 30 39
22 27 35
20 25 33
18 22 29
24 30 39
23 29 37
23 28 37
21 25 32
23 29 37
21 26 34
21 26 34
23 29 37
22 27 35
22 28 36
21 26 34
23 28 36
22 27 35
24 29 38
24 30 39
20 26 34
22 28 37
21 27 35
21 27 35
20 25 32
20 25 32
21 26 34
22 28 36
22 27 35
22 27 35
25 30 39
25 31 40
24 31 40
27 33 42
24 30 39
25 31 40
21 26 34
23 28 37
22 28 36
22 27 35
24 30 39
21 26 34
27 33 42
21 27 35
24 30 39
23 28 36
23 29 38
26 33 42
20 25 32
26 32 42
24 31 40
22 28 37
22 28 36
25 31 41
25 31 41
25 31 41
24 30 39
24 29 38
24 30 38
25 31 41
22 28 36
24 30 39
22 27 36
23 29 37
23 29 38
24 30 39
23 29 38
23 29 38
24 30 38
21 26 34
24 29 38
25 31 41
24 31 40
22 27 35
21 27 35
25 31 41
24 31 40
22 27 34
21 27 35
24 30 39
24 29 38
23 29 37
23 29 38
22 28 37
25 31 41
23 29 38
26 32 41
23 29 38
23 28 37
20 24 31
24 29 38
23 28 37
20 25 32
23 28 37
24 31 40
24 31 40
22 27 35
23 29 39
22 27 35
22 27 36
22 27 36
24 30 39
23 29 37
22 27 36
22 27 36
25 32 41
22 27 35
23 28 36
24 30 39
19 24 32
24 30 39
24 30 39
21 26 34
23 29 37
21 26 33
23 29 38
23 29 37
22 27 35
22 28 37
23 29 37
23 28 37
21 26 34
24 30 39
20 25 33
21 27 35
22 28 36
21 27 35
24 30 40
23 28 37
22 27 35
20 24 31
20 25 33
24 30 39
23 28 37
20 26 33
23 28 36
22 27 35
21 27 35
22 27 35
22 27 35
21 26 33
26 32 41
22 27 35
20 25 32
23 29 37
21 26 34
22 27 35
23 29 37
22 27 36
21 27 34
21 26 34
22 27 35
20 25 33
22 27 35
22 28 36
21 26 34
23 29 38
20 26 34
22 28 37
23 29 37
20 25 33
20 25 33
19 24 32
19 23 30
22 27 35
22 28 37
22 27 36
22 28 37
20 24 32
20 25 32
20 24 31
24 30 39
21 27 34
18 22 29
21 26 34
21 26 34
20 25 33
20 25 33
22 27 35
20 24 31
18 23 30
21 26 33
18 23 29
18 22 29
19 23 30
20 25 33
19 24 31
20 25 33
21 26 34
18 23 30
16 20 26
19 23 30
21 26 33
19 23 29
19 23 30
20 25 33
18 22 28
16 21 27
19 24 31
19 24 31
16 20 26
16 20 25
18 23 30
17 21 27
19 23 30
17 21 27
16 20 26
17 21 27
17 21 27
16 20 26
18 22 29
16 20 25
15 19 24
17 21 27
17 21 27
17 21 26
18 22 28
18 22 28
16 19 25
17 20 26
17 21 26
17 21 26
14 17 22
14 17 22
21 25 32
15 18 23
15 18 23
19 23 29
15 18 23
15 19 24
18 22 28
16 19 24
13 15 19
15 18 23
15 18 23
16 19 24
15 18 23
12 15 19
15 18 23
15 19 24
13 16 20
15 18 23
13 16 21
16 19 24
13 16 21
12 15 19
12 15 19
12 15 19
13 16 20
16 19 24
12 15 19
11 13 17
16 20 25
11 13 16
11 13 16
13 15 19
13 16 20
8 10 13
11 13 17
12 14 18
12 14 18
10 12 15
12 15 18
13 16 20
12 14 18
12 14 18
12 14 18
13 15 19
10 12 16
14 17 21
10 13 16
12 14 18
12 14 17
10 13 16
9 11 14
11 13 17
13 16 20
12 14 18
10 12 15
13 15 19
13 16 19
13 15 19
12 14 17
9 11 14
12 15 19
15 18 22
15 18 22
12 15 18
12 14 18
14 17 21
12 15 18
12 15 18
11 13 17
11 14 17
12 14 18
11 13 16
14 16 21
12 14 18
15 18 23
12 14 17
16 19 24
11 13 17
14 17 21
14 17 21
13 16 20
15 18 23
17 21 26
17 21 27
11 13 17
13 15 19
16 19 24
14 17 21
14 17 21
13 16 20
16 20 25
19 23 29
16 20 25
15 18 23
15 19 24
17 21 27
15 19 24
16 20 25
13 16 21
15 18 23
18 22 28
17 21 27
15 18 23
15 19 24
19 23 29
16 19 25
22 27 35
17 21 27
15 18 23
19 23 29
16 20 25
18 22 29
16 19 24
17 21 27
19 23 30
18 22 28
22 27 35
17 21 27
18 23 30
18 22 28
18 22 28
18 22 29
20 25 32
20 25 32
19 24 31
17 21 26
15 19 25
18 22 29
20 24 31
18 22 28
20 25 33
19 23 30
17 22 28
20 24 31
20 24 31
21 26 34
19 24 31
21 26 34
19 23 30
21 26 34
19 23 30
19 23 30
22 27 34
22 27 35
20 25 32
21 26 34
22 28 36
18 23 30
22 27 35
23 29 38
20 25 32
20 25 32
21 27 35
22 27 34
20 26 34
21 26 34
21 26 33
21 27 35
21 26 34
22 28 36
19 23 31
20 25 32
20 24 32
20 25 33
20 25 33
19 23 30
23 28 37
19 24 31
22 27 35
18 22 28
22 28 37
24 30 38
20 25 33
21 27 35
23 29 37
22 27 35
22 27 36
21 26 34
24 30 38
19 24 31
19 24 31
22 27 36
21 26 33
22 27 35
21 26 34
22 27 35
24 29 38
21 26 34
23 29 39
21 26 34
20 25 33
23 28 36
20 25 33
18 23 30
22 27 36
22 28 36
22 27 36
22 28 37
22 27 35
21 26 34
23 29 38
23 28 36
23 28 37
23 29 38
23 28 36
22 27 35
24 29 38
25 32 41
25 32 41
24 29 38
24 31 40
21 26 33
20 25 33
22 28 36
24 30 38
24 29 38
22 27 35
20 25 33
24 30 39
24 29 38
23 29 37
22 28 36
21 26 33
26 32 42
24 30 38
23 29 38
25 31 40
24 29 38
24 29 38
24 30 40
25 31 40
24 30 39
25 31 40
25 31 41
23 29 38
24 30 39
24 30 40
23 29 38
23 29 37
22 27 35
24 30 40
21 26 34
24 29 38
21 27 35
25 32 42
23 29 39
25 31 40
23 29 38
24 30 38
23 29 37
22 27 36
23 29 38
21 26 34
24 30 38
20 25 32
24 30 38
24 30 39
18 23 29
22 28 35
24 30 40
22 27 35
23 29 37
21 27 35
23 29 36
24 30 39
24 29 38
23 29 38
20 26 34
24 30 38
23 28 36
22 27 35
21 26 34
23 29 38
24 30 39
22 27 35
22 27 35
23 29 38
20 25 33
25 31 41
23 29 38
24 30 39
22 27 35
24 30 39
24 30 39
22 28 36
20 25 33
23 29 38
22 27 36
25 31 40
21 26 34
24 30 39
22 28 36
21 27 35
24 30 40
22 27 36
22 28 36
23 28 37
23 29 37
22 27 35
20 25 32
25 31 40
20 24 31
22 28 36
22 28 37
23 28 36
20 25 32
21 26 33
21 26 34
22 28 37
22 28 36
22 27 35
25 31 41
24 30 39
21 26 34
19 23 30
23 29 37
23 28 37
22 27 35
23 29 37
21 26 34
21 26 34
23 29 38
20 25 32
22 26 34
22 27 35
20 25 32
22 27 35
23 29 38
22 28 36
22 28 37
21 25 32
24 30 39
22 27 36
21 27 35
23 29 37
20 25 32
24 30 38
20 25 33
17 21 28
18 23 30
23 28 37
21 27 35
22 28 36
20 24 31
24 29 38
23 28 36
18 22 29
21 26 33
21 26 34
21 26 34
24 30 39
19 24 31
21 26 35
20 25 33
20 24 32
20 25 32
19 24 32
20 25 32
22 28 36
19 24 32
17 21 27
18 22 28
21 26 34
22 27 35
20 25 32
18 22 29
19 23 30
17 21 27
23 29 37
20 24 31
20 24 32
18 22 29
19 24 31
23 29 37
20 25 32
19 23 30
18 22 29
19 23 30
17 21 27
17 21 28
19 24 30
17 21 27
18 22 28
18 23 30
18 23 29
19 23 29
17 21 28
16 20 25
16 20 26
19 23 30
16 20 26
17 21 26
18 22 28
20 24 31
15 19 24
16 20 26
14 17 22
16 19 24
14 17 21
15 19 24
17 21 27
14 18 23
14 17 22
15 19 24
18 22 28
16 19 24
15 18 23
17 20 25
15 18 23
12 15 20
19 23 29
16 20 25
14 17 21
16 19 24
14 17 22
13 16 20
16 19 25
11 14 17
14 17 22
15 19 24
17 21 26
11 13 17
14 17 21
12 15 19
17 20 26
13 15 20
14 18 22
12 15 19
15 18 23
10 12 15
12 15 18
12 15 19
12 15 19
16 20 25
11 13 16
14 17 21
12 14 17
10 12 15
12 14 18
12 15 19
11 13 17
16 20 24
12 14 18
12 14 18
14 17 21
10 12 15
12 15 19
12 15 18
14 16 21
10 13 16
10 12 16
13 15 19
10 13 16
11 13 17
11 13 16
12 14 18
10 12 15
7 9 11
14 17 21
12 14 18
12 15 18
10 12 15
12 14 18
13 16 20
12 14 18
13 15 19
13 15 19
12 15 19
10 11 14
12 14 18
12 15 18
11 13 17
15 18 23
12 15 19
11 14 18
16 19 24
9 11 14
11 14 18
16 19 24
14 17 22
14 17 22
11 13 17
15 18 23
15 18 23
12 15 20
16 20 25
16 19 24
15 18 23
17 21 27
16 20 25
15 19 24
14 16 20
17 20 26
13 16 21
16 20 26
16 20 24
16 20 25
17 21 27
15 19 24
16 20 26
14 18 23
18 22 28
17 20 26
18 23 30
17 22 28
15 18 23
18 22 28
15 18 23
20 24 31
19 24 31
17 21 27
16 19 25
17 21 27
18 22 28
21 25 32
22 27 34
15 19 25
17 21 28
15 19 25
16 20 26
18 22 29
17 21 28
18 23 30
19 23 30
17 21 27
20 24 31
21 26 34
18 22 28
18 22 28
18 22 28
18 22 28
19 23 31
22 27 35
21 26 34
21 26 34
16 20 26
19 23 29
20 25 33
21 26 34
22 27 35
18 23 30
20 25 32
21 26 33
21 26 34
20 25 31
20 25 32
21 26 34
19 23 30
20 24 31
20 25 32
18 23 30
21 26 33
22 27 35
22 27 35
20 25 33
19 23 31
22 27 35
22 27 36
22 27 35
23 29 38
21 26 34
21 26 34
20 25 33
21 26 34
20 25 32
21 26 34
23 29 37
16 20 26
20 25 33
19 24 32
22 27 35
21 26 34
20 24 32
20 26 33
21 27 34
21 26 35
22 28 37
21 25 32
24 29 38
21 26 34
21 27 34
21 27 36
22 27 36
21 26 34
23 29 38
22 28 36
24 30 39
22 28 36
23 28 36
23 29 37
20 26 34
21 27 35
23 29 38
21 26 34
23 29 38
21 26 34
21 27 35
22 27 35
23 28 36
23 29 38
22 28 37
20 25 32
22 27 36
23 29 38
22 27 35
20 25 33
22 27 34
24 30 38
22 28 36
24 30 39
23 28 37
21 26 34
22 27 36
25 31 40
23 29 37
23 29 38
22 27 36
22 28 37
24 30 39
25 31 41
22 28 37
24 30 39
23 28 36
26 32 42
24 29 38
20 26 34
22 27 35
24 29 38
24 30 38
24 29 38
22 28 37
21 26 34
24 30 39
24 30 39
25 31 41
24 30 39
22 28 37
23 28 37
25 31 40
25 32 41
22 27 35
24 31 40
24 30 39
22 28 36
22 28 36
24 30 39
22 28 36
23 28 36
22 28 36
22 27 34
24 29 38
22 28 36
23 28 37
26 32 42
22 28 36
27 33 44
22 28 36
24 30 40
24 30 39
19 24 32
22 27 35
22 28 36
24 29 38
24 30 40
24 30 39
21 26 34
24 29 38
22 27 36
24 29 38
24 30 39
23 29 38
21 26 34
21 26 34
22 28 36
23 29 38
26 32 41
21 26 33
22 28 36
22 27 35
24 30 39
24 30 39
24 30 39
21 26 34
24 30 39
22 27 35
25 31 40
21 26 34
22 27 36
23 29 37
21 25 33
23 29 37
19 24 31
22 28 36
22 27 36
23 29 38
22 28 36
21 27 35
21 26 35
22 27 36
22 28 36
19 24 31
21 26 34
24 30 38
20 25 33
24 29 38
24 30 38
20 25 33
23 29 38
24 30 39
22 27 35
19 25 32
21 26 34
24 30 39
23 29 39
21 26 34
22 29 38
20 25 32
24 30 39
22 27 35
18 22 29
22 27 35
20 24 31
21 27 34
24 30 38
21 26 33
23 29 37
22 27 35
23 29 38
21 26 33
22 27 35
23 29 38
21 26 34
22 28 36
20 25 32
21 27 35
23 29 37
23 28 37
24 30 39
21 25 33
23 29 37
22 27 34
23 29 37
21 27 34
23 28 36
20 24 32
19 24 31
21 27 34
22 27 34
20 24 32
20 24 31
22 27 35
21 26 33
22 27 35
20 25 32
21 26 33
20 25 32
19 23 30
22 27 35
19 23 30
19 23 30
20 25 32
18 22 29
20 25 32
19 24 31
18 22 29
19 24 31
19 24 31
21 25 33
18 23 30
18 23 30
18 23 29
20 25 32
20 25 32
22 27 35
19 23 30
20 24 31
22 27 35
19 23 30
18 22 28
16 20 26
22 27 34
16 20 25
17 21 27
16 20 25
19 23 29
15 18 24
18 22 29
18 23 30
18 22 28
19 24 30
15 19 24
17 21 28
20 24 31
17 21 28
15 19 24
18 22 27
16 19 25
16 20 26
17 21 27
17 20 26
18 22 28
15 18 23
17 21 28
15 18 23
14 18 23
15 18 24
15 18 24
16 19 25
15 18 24
15 18 23
16 19 24
13 17 21
13 16 21
15 18 22
14 17 22
11 13 16
17 20 25
15 18 23
12 14 18
13 16 20
13 16 20
13 16 21
14 17 21
15 18 23
13 16 20
14 17 21
12 14 18
12 15 18
11 14 18
15 18 22
13 16 20
16 19 24
14 18 22
12 14 18
14 16 21
12 14 18
14 17 22
14 17 22
11 14 18
13 16 20
12 15 19
14 17 21
13 15 19
13 15 19
12 15 19
12 15 18
13 16 20
9 12 15
14 17 21
12 15 19
14 16 20
11 13 16
15 18 22
14 17 21
12 15 19
13 16 20
14 17 21
14 16 20
12 14 18
10 12 15
12 15 19
14 17 22
13 15 19
12 15 19
12 15 18
14 18 23
12 14 18
13 16 20
15 19 24
13 16 20
14 17 22
14 17 21
13 15 19
15 18 22
10 12 15
13 16 20
15 19 24
13 15 20
15 18 23
10 12 15
14 17 22
15 18 23
12 15 19
15 18 23
14 18 23
16 20 25
15 18 23
12 15 19
17 21 26
14 18 22
9 12 15
14 17 22
13 16 21
16 20 25
17 20 26
13 16 21
16 19 24
16 20 25
14 18 22
15 18 24
16 19 25
16 19 25
17 21 27
14 17 22
19 23 29
14 18 23
20 25 31
16 19 25
17 21 27
19 23 29
16 19 25
17 21 27
19 23 30
17 21 27
19 24 31
19 24 31
15 18 24
21 26 33
22 27 35
19 24 31
20 24 32
20 25 31
19 24 31
18 22 28
20 24 31
18 22 29
20 25 32
18 23 29
20 25 33
17 21 27
17 21 27
20 25 32
18 23 30
20 24 31
20 24 31
17 21 28
20 25 32
18 22 29
19 24 31
20 25 33
20 25 32
20 25 32
19 23 29
21 26 33
18 22 29
22 28 36
22 27 34
20 25 32
18 23 30
20 25 32
21 26 34
20 25 32
18 23 30
21 26 33
18 23 30
21 26 34
22 27 35
21 27 35
20 26 33
19 24 31
20 25 33
20 25 32
23 29 37
22 28 36
20 25 32
20 25 33
22 27 35
20 25 32
19 23 30
21 27 35
22 27 35
23 29 38
23 28 36
20 25 33
23 28 37
20 25 33
20 24 31
22 28 37
22 28 36
22 27 35
19 24 31
22 28 36
23 28 37
21 27 35
19 24 31
21 26 35
20 25 32
21 26 34
22 27 35
22 27 35
21 26 35
22 27 35
21 27 35
21 27 35
22 28 36
23 29 37
20 25 33
22 28 36
23 28 37
24 30 39
24 29 37
25 31 39
21 26 34
22 27 36
21 26 33
23 28 37
22 27 35
22 27 35
21 26 34
23 28 37
23 28 37
23 29 38
23 29 37
22 27 35
23 28 37
22 27 36
22 28 36
23 28 36
22 28 37
22 27 36
22 28 37
20 25 33
22 28 36
23 29 37
24 29 38
21 26 34
23 28 36
24 29 38
22 28 36
23 29 38
22 28 37
23 29 39
23 29 38
22 27 35
25 31 40
23 29 38
22 28 37
23 28 37
23 28 37
24 30 38
24 30 39
22 28 36
23 28 37
23 28 36
20 24 32
21 26 34
24 30 38
26 32 41
19 24 31
23 29 38
24 29 38
24 30 40
21 26 33
22 27 35
25 30 39
26 32 42
23 28 37
24 29 38
21 26 34
18 23 31
24 30 39
24 30 39
20 25 32
25 31 40
21 27 35
23 28 36
24 30 39
23 30 39
24 30 38
21 27 35
20 25 33
23 29 37
23 28 37
21 26 34
22 27 36
23 29 37
25 31 39
23 28 37
21 26 34
21 26 34
25 30 39
23 29 38
23 28 37
23 28 36
24 30 39
22 27 34
23 29 38
23 28 36
22 28 36
25 31 40
22 28 37
22 28 36
25 32 41
24 30 38
20 25 33
23 28 37
20 26 33
21 26 33
21 27 35
21 26 34
22 28 36
21 27 35
22 28 36
23 29 38
23 29 37
22 28 36
23 28 36
19 24 31
19 24 31
21 27 35
21 26 34
24 29 38
21 27 35
21 26 33
26 32 41
22 27 35
24 31 40
24 29 38
21 27 35
21 26 34
24 30 40
20 26 33
23 28 37
21 26 33
21 27 34
21 26 34
21 26 34
21 27 34
22 27 35
23 29 37
23 29 37
18 23 29
20 25 32
20 25 32
21 26 33
23 28 36
19 24 31
22 27 36
20 26 34
22 27 36
23 29 38
21 26 33
18 23 30
16 21 27
20 25 32
20 25 33
23 28 37
20 24 31
20 25 32
21 27 34
19 24 30
24 29 38
22 28 36
20 25 32
20 25 33
20 25 33
20 25 32
21 26 33
20 25 33
14 18 23
18 22 28
22 27 34
19 24 31
22 27 35
17 22 29
21 26 34
19 24 31
22 27 34
20 25 32
20 26 33
20 25 32
19 23 30
17 21 27
19 23 29
19 24 31
19 24 31
18 23 30
20 25 32
20 24 31
18 22 28
18 22 29
20 24 31
21 26 33
17 22 28
17 22 28
17 21 27
17 21 27
21 25 32
18 22 28
16 20 25
17 22 28
17 20 26
19 23 30
19 23 30
19 24 31
16 20 25
16 20 26
17 21 27
16 20 26
14 17 22
17 21 27
18 22 27
17 20 26
14 17 21
15 19 24
13 17 21
17 21 26
16 20 25
14 17 21
17 21 27
15 18 22
16 20 25
17 20 26
13 16 20
18 22 28
15 18 23
14 17 22
15 18 23
13 16 20
10 13 16
16 19 24
14 17 22
15 18 22
14 17 22
14 17 22
17 21 26
10 13 16
12 15 19
12 15 18
14 18 22
14 16 21
14 17 22
12 15 19
11 13 16
14 17 22
11 13 16
14 17 22
14 17 21
10 13 16
14 17 21
13 15 20
11 13 16
13 16 20
14 17 22
15 18 23
15 18 22
14 17 22
12 14 18
14 17 21
11 14 18
12 15 19
11 14 17
13 16 20
13 15 19
11 14 17
13 15 19
14 17 21
13 16 20
14 17 21
14 17 21
12 15 19
12 15 19
12 14 18
15 19 24
16 20 25
12 14 18
14 17 21
11 14 18
12 14 18
13 16 20
12 15 19
14 18 22
15 18 23
13 16 20
13 16 20
14 17 21
12 14 18
12 15 19
15 19 24
15 18 23
16 19 24
13 16 20
14 18 22
12 15 19
16 20 26
14 17 22
13 16 20
15 18 23
16 20 25
13 16 21
16 19 24
16 19 25
18 22 28
15 18 24
15 18 23
18 22 28
19 24 30
17 20 26
15 19 25
17 20 26
17 21 27
14 17 22
15 19 24
20 24 31
17 21 27
16 19 25
14 18 23
15 19 24
16 20 26
19 23 29
18 22 28
16 20 26
16 19 25
17 21 27
19 23 30
14 18 23
17 21 27
17 21 27
15 19 25
20 24 31
19 24 31
18 22 28
19 23 30
18 23 29
20 25 32
21 27 35
16 20 25
18 23 29
17 21 26
19 23 30
18 22 29
22 27 35
19 23 30
21 26 34
20 24 31
17 21 26
20 24 32
21 26 33
18 22 29
20 25 32
19 23 30
19 23 30
19 24 31
18 23 29
21 27 35
21 25 33
23 28 36
17 22 29
21 26 34
21 27 34
21 26 34
20 25 33
21 26 34
20 26 34
20 25 32
22 27 35
20 25 33
24 29 38
21 26 34
22 27 35
22 28 36
22 28 36
21 26 33
22 27 34
24 30 39
23 28 37
21 26 34
22 27 34
20 25 33
22 27 35
22 27 36
19 24 31
22 27 35
22 27 36
23 29 38
22 27 35
21 27 35
19 24 32
20 25 33
18 22 29
21 26 34
24 29 38
24 30 39
22 28 37
22 28 36
18 23 29
20 25 32
24 29 38
24 30 38
24 29 38
22 27 35
21 27 35
22 27 35
22 27 35
20 25 33
22 27 36
24 30 38
21 26 34
24 30 39
22 27 35
20 26 33
23 28 37
25 31 40
23 29 37
24 30 39
25 31 41
22 28 36
24 29 38
23 29 37
23 28 37
21 27 35
22 27 35
25 31 41
22 27 35
22 28 36
22 27 35
23 29 38
22 27 35
21 26 34
22 28 37
24 30 39
24 30 39
23 29 37
22 28 37
22 27 35
20 25 32
24 30 38
24 30 40
24 29 38
24 30 39
24 30 39
22 27 35
24 29 38
21 27 35
23 28 36
23 29 38
20 25 33
22 27 35
24 29 38
23 29 38
29 35 46
21 26 34
25 31 41
22 27 35
21 27 35
21 26 34
22 28 36
23 29 38
22 28 36
24 30 39
22 28 36
24 31 40
21 26 34
23 29 38
23 29 37
23 28 36
24 30 39
24 30 39
23 29 37
25 31 40
25 32 41
21 26 34
21 26 34
23 29 38
24 30 39
23 28 36
23 28 36
22 27 35
23 29 37
24 30 38
22 27 36
24 30 40
22 27 36
21 26 33
23 29 37
23 28 37
24 30 39
20 25 33
24 30 39
22 28 36
22 27 35
23 29 38
23 28 36
23 29 38
25 31 41
24 31 40
23 28 36
22 28 36
22 28 37
23 29 38
21 26 34
19 24 31
21 26 34
21 26 33
21 27 36
23 29 38
19 24 31
21 27 36
19 24 31
22 28 36
23 29 38
22 27 35
20 25 33
21 27 35
21 26 33
21 27 35
23 28 37
22 28 36
24 29 38
20 26 34
19 24 31
22 27 35
21 26 34
20 24 32
21 26 35
23 29 38
22 28 36
21 27 34
23 29 37
21 26 34
20 25 33
23 29 37
21 27 35
21 26 34
19 23 31
20 25 33
22 27 35
24 30 39
22 27 36
22 28 36
21 26 34
23 28 36
21 26 35
19 24 31
22 27 35
18 22 29
22 27 35
21 26 33
18 23 30
19 23 30
19 23 30
20 25 33
22 27 35
22 27 35
21 26 35
19 24 31
20 25 32
20 25 32
22 28 36
20 24 31
19 24 31
20 25 32
20 25 33
20 25 32
20 25 33
21 26 33
22 27 34
21 26 35
21 26 34
20 24 32
18 22 29
19 23 30
19 24 30
20 24 31
20 26 33
17 21 27
19 23 30
17 21 27
19 24 31
18 22 29
17 22 28
21 26 33
18 23 30
19 23 30
19 24 31
19 24 31
19 24 31
17 21 27
17 21 28
18 22 28
18 22 29
16 20 26
16 20 26
19 23 30
18 22 28
19 24 30
15 18 23
18 22 28
19 24 31
19 24 31
15 19 24
18 22 29
17 21 27
16 19 25
18 23 29
15 19 24
19 24 31
18 22 28
15 18 23
14 17 22
19 23 29
15 19 25
16 19 24
17 21 26
15 19 24
16 19 24
13 16 20
15 19 24
16 19 25
15 19 24
13 16 20
15 18 23
18 22 28
13 16 21
14 17 21
15 18 23
10 12 16
15 18 22
16 19 24
17 20 26
15 19 23
13 16 21
15 19 24
17 20 26
13 15 20
12 15 19
16 20 25
13 15 19
14 17 21
15 18 23
13 16 20
14 17 21
14 16 20
14 16 21
15 18 23
10 12 16
12 15 19
13 16 20
13 16 20
15 19 24
13 16 20
14 17 21
11 13 17
9 11 14
10 13 16
13 16 21
14 17 21
15 18 23
14 17 21
9 11 14
9 11 13
14 16 20
11 14 17
14 16 21
12 14 18
10 13 16
14 17 22
13 15 20
16 19 24
13 15 19
15 18 23
12 15 18
14 16 20
12 14 18
13 16 20
12 15 19
11 13 17
13 15 19
14 17 21
13 15 19
14 17 22
15 19 24
13 16 21
12 15 19
11 14 17
12 15 19
14 17 22
14 17 21
12 14 19
18 21 27
14 16 21
14 17 22
17 21 26
15 19 24
15 18 23
14 17 21
14 17 22
12 15 19
16 20 25
14 18 22
15 18 22
14 16 21
17 21 27
15 19 24
17 21 27
14 17 22
13 17 22
17 21 28
17 21 27
16 19 25
15 19 24
20 24 31
16 20 26
15 19 25
17 21 27
17 21 27
18 22 29
19 23 30
17 21 27
15 18 24
16 20 26
17 21 27
17 21 27
20 24 31
18 22 28
16 19 25
19 24 30
18 22 28
17 21 28
17 21 27
20 24 31
19 23 30
18 23 29
19 23 30
20 24 32
19 24 31
20 24 31
22 28 36
19 23 29
17 21 28
18 22 28
20 25 32
20 25 32
18 22 28
19 24 31
19 24 31
17 22 28
21 25 32
19 23 30
19 23 30
21 26 33
20 24 31
22 27 36
20 25 33
19 23 30
17 22 28
17 21 27
19 24 30
19 24 31
20 25 32
20 25 32
21 26 33
20 25 33
21 26 34
20 24 32
22 27 35
19 23 31
20 25 33
24 30 39
21 26 35
22 27 35
21 26 34
20 25 32
20 25 32
22 27 35
21 26 33
21 25 33
22 27 35
21 27 35
16 20 27
23 29 38
22 28 36
19 24 31
21 26 34
23 28 36
22 28 37
21 26 34
21 27 35
18 23 30
21 27 35
21 26 34
19 24 30
20 26 34
22 27 34
19 24 31
21 26 33
22 28 36
22 27 34
24 30 38
22 27 34
22 27 35
20 25 33
21 27 35
23 29 38
20 25 33
21 27 35
21 26 34
22 28 36
22 27 36
23 29 37
24 30 39
19 24 32
23 28 37
22 28 36
24 30 39
21 27 35
21 26 33
21 25 33
22 27 36
22 28 37
20 26 34
23 29 39
23 28 36
22 28 36
23 29 38
22 27 35
23 28 37
25 31 41
21 27 36
19 24 31
23 29 38
22 27 36
24 30 39
22 27 35
21 26 34
23 28 36
25 30 39
23 29 39
23 29 38
21 26 34
19 24 31
24 30 39
23 28 37
21 26 34
20 25 32
22 27 36
23 28 36
21 27 35
24 29 38
23 29 37
26 33 42
22 27 35
24 30 39
22 28 37
23 29 38
21 26 34
23 29 38
24 30 39
24 30 40
22 27 35
23 28 37
25 31 40
21 26 34
23 29 37
23 29 38
23 29 37
25 31 40
21 27 35
23 28 37
24 30 39
24 30 38
22 27 35
22 28 36
25 31 41
23 29 38
25 31 40
22 28 36
22 28 36
24 31 40
22 28 36
21 27 35
22 27 36
23 29 37
23 29 38
25 31 41
23 29 37
22 27 35
21 27 35
22 27 35
24 29 38
23 28 37
23 29 38
24 30 39
21 27 35
24 30 39
21 27 34
20 25 32
20 25 32
22 28 36
20 25 33
24 30 39
22 27 36
21 27 35
24 30 38
24 30 39
23 29 38
22 27 35
21 26 33
26 32 42
22 27 35
22 28 37
22 27 35
20 25 32
22 28 36
23 29 38
24 29 38
20 25 33
21 26 34
21 27 35
21 27 35
22 27 36
23 29 38
21 26 34
20 25 33
22 27 35
21 26 34
23 29 37
23 29 37
22 27 36
24 29 38
20 24 31
24 30 39
22 27 35
21 26 34
20 25 33
21 26 33
20 25 32
20 25 33
21 26 33
23 29 37
21 26 33
21 26 34
22 28 36
25 30 39
20 25 33
22 28 36
22 27 35
24 30 38
21 26 33
22 28 37
23 29 38
18 23 30
20 25 32
20 25 33
18 22 28
19 23 29
18 23 29
20 25 33
24 29 37
18 22 29
17 21 28
20 26 33
18 23 29
20 25 32
20 25 32
22 27 35
20 25 32
19 24 30
20 25 31
18 22 29
19 24 31
21 26 33
18 22 29
21 25 32
19 24 31
19 24 30
20 25 32
19 24 31
20 25 32
16 20 26
19 24 31
19 24 30
20 24 31
18 22 28
18 23 29
16 19 25
20 25 32
21 26 33
19 24 30
20 25 32
17 22 28
16 20 25
16 20 26
18 22 29
15 19 25
17 21 27
18 23 29
16 19 25
16 20 26
19 24 30
14 18 23
17 21 27
18 23 29
19 23 29
18 22 28
20 24 31
17 22 28
16 20 25
18 22 28
17 20 26
14 18 23
15 19 24
19 23 29
16 20 26
15 19 25
15 19 24
16 20 26
14 18 23
16 20 25
14 17 22
16 19 25
15 19 24
15 19 23
14 16 21
13 16 21
13 16 20
15 19 24
17 20 25
16 20 25
16 19 25
12 14 19
12 15 19
14 17 22
18 21 27
15 18 23
17 20 26
12 15 19
13 15 19
13 16 20
13 15 19
13 16 20
11 14 18
13 16 20
11 13 16
11 14 17
13 15 19
10 13 16
14 17 22
15 18 23
14 17 22
15 19 23
15 18 23
12 14 18
16 20 25
15 19 23
11 13 17
15 18 23
12 15 19
16 19 24
15 18 22
13 15 19
14 16 20
12 14 18
14 17 22
13 16 20
13 16 20
13 16 20
14 16 21
11 13 17
12 14 18
16 19 24
13 16 20
14 17 22
13 16 21
12 14 18
14 17 22
14 17 22
11 14 17
12 14 18
15 18 23
14 17 22
13 16 20
14 18 22
15 18 23
12 15 19
14 17 22
17 21 26
18 23 29
16 19 24
13 15 19
16 20 26
17 21 27
16 20 25
14 17 22
11 14 18
16 20 25
13 16 21
13 16 21
16 19 25
13 16 20
19 23 29
15 19 24
18 22 28
18 22 27
13 16 20
17 21 27
18 22 28
18 22 27
19 23 30
18 22 28
16 20 26
17 21 26
17 21 26
17 21 27
14 17 22
16 20 26
20 25 32
14 18 23
15 19 24
16 20 26
20 24 32
19 24 30
18 22 28
18 22 29
18 22 28
19 24 31
18 22 28
18 22 28
19 23 30
18 22 29
18 22 29
17 21 28
18 22 28
19 24 31
18 23 29
17 21 26
19 24 31
19 23 30
16 20 26
20 25 32
18 22 29
20 25 32
21 26 34
17 22 28
19 24 31
18 23 30
22 27 35
21 26 34
20 24 31
18 23 30
17 21 27
21 26 34
24 30 39
20 25 33
21 26 33
22 27 35
21 26 34
19 24 31
20 26 34
19 24 32
19 23 30
20 26 33
20 25 32
19 23 30
22 28 36
21 26 35
22 27 35
25 30 39
19 24 32
18 22 29
19 24 31
21 26 33
19 24 31
22 27 34
20 25 33
20 25 33
21 26 34
19 23 30
20 25 32
20 25 33
20 25 32
22 28 37
19 24 32
23 28 37
21 26 34
21 27 35
20 25 32
20 25 33
22 27 35
21 26 34
20 25 33
20 24 31
21 26 34
23 29 37
19 23 31
22 27 35
21 26 35
20 25 32
24 30 38
22 27 35
20 25 34
21 26 34
22 27 35
22 27 35
23 29 37
19 24 32
22 27 36
20 25 32
22 28 37
23 29 38
23 28 36
22 28 37
20 25 33
22 27 35
24 30 39
21 26 33
24 30 39
20 25 32
23 29 38
22 27 36
22 28 36
23 28 36
21 26 34
23 28 37
21 26 34
22 28 36
21 26 33
22 27 35
23 29 38
22 27 36
19 24 31
24 29 38
23 29 38
23 29 38
23 29 37
22 28 37
23 29 37
23 29 38
23 28 37
23 29 38
24 31 40
22 27 36
21 27 36
21 26 34
24 31 41
21 27 35
22 27 35
22 28 36
21 26 34
25 31 41
24 30 38
20 25 32
22 28 36
25 31 40
22 28 37
22 27 35
21 27 35
21 27 35
21 27 35
23 29 38
24 30 39
23 29 38
24 30 40
23 28 37
22 28 36
21 26 33
20 26 34
23 28 36
23 29 37
22 27 36
24 30 39
22 28 36
23 28 36
25 31 39
22 28 37
26 33 43
23 29 37
24 30 39
22 27 35
23 28 36
19 24 32
19 24 32
21 26 33
23 29 38
24 30 39
23 29 38
22 28 37
24 30 38
21 27 35
21 26 35
22 28 36
20 24 32
23 28 37
21 27 35
22 27 36
22 28 36
23 29 37
25 31 40
24 29 38
23 29 37
24 31 40
21 26 33
22 27 35
23 28 37
23 28 36
20 25 33
23 28 36
25 32 42
24 30 39
25 32 41
21 27 35
22 27 35
24 30 38
20 24 31
21 26 33
23 29 38
20 24 31
20 25 33
21 26 34
23 29 38
21 27 35
21 26 34
22 27 35
23 29 37
20 26 34
21 26 34
23 28 37
22 28 36
21 27 35
21 26 34
24 30 39
20 25 33
23 29 38
21 26 34
19 24 31
22 27 34
21 26 34
21 26 33
21 26 34
23 28 37
21 27 35
21 26 33
21 26 33
21 27 35
23 29 38
21 27 35
19 23 30
21 26 35
19 24 31
19 24 32
21 26 35
20 25 32
20 24 32
19 24 31
21 27 35
20 25 33
22 27 35
18 22 29
20 25 33
21 26 33
21 26 33
19 24 31
21 26 34
19 24 30
21 26 33
19 24 31
19 24 31
20 25 32
19 24 31
21 26 34
22 27 35
20 25 32
19 24 31
19 24 31
21 26 34
21 25 33
16 20 26
20 25 32
20 24 31
15 18 24
17 21 28
20 25 32
20 25 32
20 25 33
18 23 30
18 23 29
17 22 28
22 28 36
18 22 28
19 23 30
20 25 32
21 26 33
20 25 32
18 22 29
16 20 26
20 24 31
18 22 28
18 22 28
19 24 30
18 22 28
17 20 26
16 19 24
17 21 27
16 20 25
17 21 26
17 20 26
15 18 24
15 19 25
16 19 25
17 20 25
15 19 24
18 22 28
15 18 23
14 17 21
16 19 24
17 20 26
16 19 24
16 20 25
15 18 23
15 19 24
17 21 27
17 20 26
14 17 22
14 17 22
14 17 21
14 17 22
15 19 24
16 19 24
16 19 25
15 18 23
15 18 23
14 17 22
12 15 19
16 19 24
15 18 23
15 19 24
12 15 19
14 17 22
15 18 23
15 17 22
13 16 20
12 15 19
17 20 26
14 17 22
16 19 24
12 15 19
11 14 17
18 22 27
13 16 19
14 17 22
14 17 22
12 14 18
12 14 18
15 18 24
11 13 17
12 15 19
11 14 17
14 17 21
13 15 19
14 17 21
12 15 19
15 19 24
14 17 21
15 18 23
17 20 26
12 14 18
13 15 19
13 15 19
13 16 20
14 17 21
12 15 19
13 17 21
11 14 17
13 16 21
11 14 18
13 16 20
15 18 22
13 16 20
13 15 19
14 17 21
16 19 25
14 17 22
16 20 25
15 18 23
14 17 22
15 18 24
15 18 23
14 17 22
16 20 25
16 20 26
14 17 21
17 20 25
14 17 22
17 20 26
14 17 21
14 17 21
14 17 22
15 18 24
13 16 21
16 20 25
20 25 32
18 22 28
15 18 23
19 23 29
19 23 29
15 19 24
17 20 26
14 17 21
15 18 23
15 18 24
18 22 28
16 19 24
14 18 23
18 23 29
19 23 30
19 23 29
17 22 28
17 21 27
17 21 27
17 21 27
15 19 24
18 23 29
19 23 30
17 21 27
19 24 31
16 20 26
17 21 27
18 22 28
20 25 32
19 23 30
18 23 29
18 22 28
18 22 29
21 26 34
16 20 26
19 23 29
19 24 30
19 23 30
19 24 31
19 24 31
20 25 32
20 25 31
18 23 30
20 25 32
18 22 29
20 24 31
18 22 29
21 26 34
22 27 35
20 25 32
21 26 34
21 25 32
20 25 32
21 26 34
19 24 31
20 25 32
20 25 32
21 26 34
17 22 28
19 24 31
20 25 33
21 26 33
23 28 37
21 26 34
19 25 32
20 25 32
19 24 32
20 24 31
21 27 35
21 26 34
22 27 36
23 29 37
18 23 29
24 30 39
20 26 33
22 27 35
22 27 35
18 23 30
21 27 35
23 28 37
20 24 31
20 25 32
20 25 33
22 28 37
23 29 37
21 26 34
22 27 34
22 27 34
20 25 33
23 28 36
23 28 36
24 30 39
22 27 35
20 25 33
22 27 35
23 30 39
23 29 38
22 27 35
25 30 39
22 27 35
21 26 34
25 31 40
23 28 37
23 29 37
21 27 35
19 23 30
23 28 36
20 25 33
24 30 40
21 26 34
22 27 35
22 27 36
21 26 34
26 32 41
20 26 34
23 28 36
20 25 33
21 27 35
24 30 38
22 27 36
19 24 31
24 30 39
21 27 35
25 31 40
26 32 41
22 28 36
20 26 33
23 29 37
22 28 36
22 28 36
24 30 39
23 28 36
19 24 31
23 28 37
21 27 35
22 27 35
24 30 38
21 27 35
23 29 38
23 29 37
22 28 37
25 31 40
22 28 36
22 28 37
22 28 36
22 28 37
25 31 40
21 26 34
25 32 41
22 28 36
24 30 39
24 30 38
24 30 39
23 29 38
23 28 37
24 30 39
24 30 39
23 28 36
24 30 40
24 30 39
25 31 40
24 30 39
24 30 38
23 28 37
23 29 37
23 28 37
21 26 34
24 30 40
24 29 38
23 29 38
25 31 40
24 29 38
23 29 38
26 32 41
23 29 38
23 29 38
22 28 36
23 29 37
22 28 37
21 26 34
24 30 39
23 29 37
23 28 36
20 26 34
23 29 37
22 27 35
22 29 38
23 29 37
23 29 38
22 27 35
23 29 38
24 30 39
24 30 38
23 29 38
23 28 37
24 29 38
22 27 36
22 28 36
20 25 33
22 28 38
22 27 36
24 30 39
22 28 36
22 27 36
22 27 35
23 29 38
23 29 37
22 27 35
22 27 35
21 26 34
21 26 34
22 28 36
25 31 40
24 30 40
19 24 31
22 28 36
21 25 33
20 24 32
24 30 38
23 29 37
21 26 33
21 26 34
20 25 33
21 26 33
20 25 33
23 29 37
20 25 33
24 30 39
22 27 35
21 26 34
21 26 33
19 24 31
22 27 35
20 25 33
20 25 33
20 25 33
19 25 32
18 23 30
23 28 36
21 26 33
23 28 37
21 26 34
22 27 35
21 27 34
23 28 36
21 27 35
19 24 31
21 26 33
19 24 31
19 24 32
19 24 31
22 27 35
18 23 30
19 24 31
20 26 33
18 22 29
19 23 30
20 25 32
19 24 31
22 27 34
19 24 31
21 26 33
23 28 36
20 25 32
21 26 34
21 26 33
19 23 30
18 23 31
20 25 32
19 24 31
21 26 34
17 21 27
20 25 33
18 22 29
19 24 31
18 23 29
18 22 29
18 23 29
17 22 28
18 22 28
19 23 30
21 26 34
19 24 31
21 26 34
18 22 28
18 22 28
19 23 30
20 25 32
20 24 32
20 24 31
18 22 29
20 25 33
18 23 30
15 18 24
16 20 25
16 20 26
18 22 29
22 27 35
18 22 28
19 24 30
17 21 27
21 25 33
15 19 24
14 18 23
17 21 26
17 21 27
16 20 26
17 21 27
17 21 26
17 21 27
14 18 22
18 21 27
16 20 25
15 18 24
19 23 29
14 18 23
17 21 27
16 20 25
14 17 22
17 20 26
16 19 25
17 20 26
15 19 24
14 17 22
16 19 24
13 16 21
17 21 27
17 21 26
14 17 22
15 18 23
17 20 26
16 19 24
15 18 23
12 15 19
12 15 19
12 14 18
17 20 26
13 16 21
16 20 25
15 18 22
15 18 23
14 17 22
16 19 25
13 16 20
13 16 20
13 16 20
11 13 17
12 15 19
14 17 21
12 15 19
15 19 24
16 19 25
16 19 24
12 14 18
13 16 20
13 16 20
13 16 20
13 16 20
17 20 26
12 15 19
11 13 17
14 17 22
13 16 20
14 17 21
13 16 21
14 17 22
13 15 19
12 15 19
15 18 22
15 18 23
15 18 23
13 16 20
14 17 21
13 16 21
16 19 24
13 16 20
14 17 22
14 17 22
17 20 26
18 23 29
15 18 23
15 19 24
16 19 24
14 17 21
13 16 21
17 21 26
15 19 24
13 16 20
13 17 21
16 20 25
16 19 25
14 17 22
17 20 26
14 18 23
17 20 26
14 17 22
13 16 21
14 17 22
14 17 22
18 22 29
17 21 26
16 19 25
18 21 27
17 21 27
13 17 21
17 21 27
16 19 25
18 21 27
17 21 27
16 20 26
17 20 26
14 17 22
19 23 29
15 19 24
15 19 24
16 20 26
16 20 26
14 18 23
16 20 26
20 24 31
18 22 28
19 23 30
15 19 25
16 20 26
19 23 30
16 20 26
17 21 27
16 20 26
19 23 30
21 26 33
19 24 31
20 25 32
18 23 30
17 21 27
23 28 35
20 25 32
17 21 27
20 25 33
18 22 29
19 24 30
21 26 34
18 23 29
16 20 26
17 21 27
19 24 31
18 22 29
18 22 29
20 25 32
18 23 29
21 26 34
19 24 31
22 27 35
23 28 37
19 24 32
20 25 32
20 25 32
21 26 34
19 24 31
20 25 33
19 24 30
19 23 30
21 26 34
22 27 35
19 24 31
20 25 33
22 27 35
20 25 32
18 22 28
22 27 34
21 26 33
20 24 32
21 26 34
20 25 32
20 25 33
20 24 31
22 27 36
21 26 34
21 26 34
24 29 38
21 26 33
22 26 34
19 24 31
19 23 30
22 26 34
21 26 33
20 25 32
19 23 30
23 28 36
24 30 38
19 23 30
23 29 38
18 23 31
22 28 37
20 25 32
21 26 34
20 26 34
20 25 32
23 29 38
23 28 37
22 28 36
24 30 39
20 25 32
22 28 36
21 26 34
21 26 34
21 27 35
19 24 32
22 27 35
20 25 32
22 28 36
23 29 37
22 28 36
23 29 37
24 30 40
19 24 30
20 25 32
22 28 36
22 28 36
22 28 37
21 26 34
20 25 31
21 26 35
22 27 35
24 30 39
25 30 39
22 28 36
19 24 32
22 27 35
23 28 36
22 28 36
24 30 39
23 29 37
23 29 37
23 29 37
23 29 37
22 27 35
22 28 36
24 30 39
26 32 41
23 29 38
20 25 32
21 26 34
23 28 36
22 28 37
26 32 42
23 29 38
22 28 36
23 29 38
23 28 37
23 29 37
22 27 35
21 26 34
24 30 39
23 28 36
21 26 34
24 30 38
22 27 35
25 31 39
24 30 39
20 25 32
22 28 37
25 31 40
23 29 39
24 30 39
24 30 40
24 30 40
24 30 39
24 30 39
23 28 37
21 26 34
23 29 37
24 30 39
18 23 30
21 27 34
21 26 33
23 29 38
22 27 36
25 31 41
22 28 36
23 28 37
22 28 36
20 25 33
21 27 35
22 28 37
23 28 36
25 30 39
22 27 35
23 28 36
22 28 35
22 28 36
21 27 35
21 26 34
24 30 39
23 28 36
24 30 38
23 28 37
23 28 37
20 25 33
22 27 35
25 31 41
22 27 35
22 28 36
24 29 38
22 28 37
23 29 38
20 25 32
24 30 39
21 26 33
21 26 34
23 29 37
22 27 36
21 27 34
22 27 35
22 27 35
22 28 36
23 29 38
22 28 37
20 26 34
19 24 31
21 26 34
21 26 34
20 26 34
21 27 35
23 29 37
21 27 35
20 25 33
21 26 33
21 26 34
22 27 36
23 28 37
23 29 37
23 29 37
22 27 36
21 27 35
22 28 36
21 26 34
21 26 34
21 26 34
20 24 31
21 26 33
21 26 34
23 29 37
22 27 35
19 24 31
22 27 35
22 28 36
20 25 33
19 24 31
22 27 34
21 26 34
20 25 32
20 25 32
23 29 37
20 25 33
15 19 25
20 25 32
21 26 34
20 25 33
18 23 30
21 26 33
19 24 31
21 25 33
22 27 35
22 27 35
20 25 32
22 27 35
19 24 30
23 29 38
22 27 35
22 27 35
19 24 31
22 28 36
17 22 28
22 27 36
19 23 30
20 25 33
18 22 28
19 23 30
18 22 28
18 22 29
20 25 32
24 29 38
20 24 31
16 19 25
17 21 27
19 24 31
18 22 29
19 23 29
17 20 26
18 22 28
19 23 30
21 25 33
16 19 25
17 21 27
14 18 23
17 21 27
20 25 32
16 20 25
19 23 30
16 20 25
16 20 25
16 20 25
15 19 24
17 21 27
16 19 25
16 20 26
15 19 25
16 19 25
19 23 29
19 24 31
18 22 27
19 23 29
18 22 28
17 20 26
17 20 26
16 20 25
16 19 25
18 22 29
15 18 23
14 17 22
18 22 29
14 17 21
15 18 24
15 19 24
16 20 26
14 17 23
15 18 23
16 19 25
17 20 25
15 18 23
15 18 23
15 18 23
16 19 24
15 19 24
16 20 25
16 20 25
15 18 22
15 18 23
12 15 19
13 16 20
17 21 26
13 16 20
13 16 20
14 18 23
14 17 22
12 15 19
14 17 22
17 20 25
15 19 24
15 18 23
14 17 21
14 17 21
14 17 22
14 17 21
16 19 24
13 16 20
17 20 25
16 19 24
12 15 19
18 21 27
12 14 18
10 12 15
14 16 20
16 19 24
12 15 18
12 15 19
13 16 20
16 19 24
15 19 24
14 17 21
15 19 23
13 16 20
14 17 21
14 17 21
14 17 21
15 18 23
16 19 25
12 15 19
13 16 20
12 15 20
13 16 20
16 20 25
13 16 21
17 21 26
16 19 25
14 17 21
17 21 27
16 20 25
15 18 23
16 20 25
13 16 20
18 21 27
15 19 24
15 19 24
13 16 20
13 16 21
16 19 25
14 18 22
16 20 25
16 20 26
15 18 23
15 19 24
17 20 26
17 21 26
16 19 24
15 18 23
17 20 26
20 25 32
16 20 26
18 22 28
13 17 21
16 19 24
16 20 26
16 20 25
16 20 26
16 19 25
18 23 29
20 25 32
21 25 32
17 20 26
16 20 26
17 21 27
18 22 29
17 21 27
18 22 29
17 21 27
20 24 31
17 21 28
18 22 28
19 23 30
19 24 31
20 25 32
19 24 31
21 26 33
20 24 31
22 27 35
17 22 28
19 24 31
20 24 31
17 21 27
19 24 31
19 24 32
18 23 30
18 22 28
19 23 30
21 25 32
19 24 31
18 22 29
17 21 27
18 22 29
19 24 31
20 25 33
20 24 31
21 26 34
18 22 29
22 27 35
19 24 31
19 24 31
23 28 36
19 23 30
21 25 32
19 24 31
22 27 35
22 27 34
20 26 34
18 23 29
21 26 34
22 27 36
21 26 34
21 26 34
21 26 34
19 24 31
20 25 33
21 26 33
22 27 35
21 26 33
24 29 38
22 28 36
19 23 31
21 27 35
20 25 33
22 28 36
19 23 30
20 25 33
22 27 36
20 25 32
22 27 36
20 24 32
20 25 32
21 26 33
18 22 28
20 25 32
23 28 36
21 26 33
22 27 35
21 26 34
19 23 30
23 28 37
21 27 35
19 24 31
23 29 38
24 31 40
24 30 38
22 27 35
21 27 35
18 22 29
23 28 37
23 29 37
22 28 36
19 24 32
21 26 33
18 22 29
23 29 38
22 27 35
23 28 36
22 27 35
22 28 36
22 27 35
24 30 39
23 28 35
20 25 32
25 31 41
21 26 34
25 31 40
24 30 40
22 28 36
23 29 37
23 29 37
21 26 33
23 28 37
24 29 38
23 28 37
24 30 40
23 30 39
20 25 32
20 25 33
23 29 38
21 27 35
22 27 35
23 29 37
22 28 37
21 26 35
24 29 38
22 28 37
22 27 36
23 28 37
22 28 37
21 26 34
24 29 38
21 27 35
23 29 37
20 26 34
24 30 39
23 29 37
22 27 36
25 31 41
25 32 41
22 28 36
24 30 39
24 29 38
24 29 38
24 29 38
22 28 37
24 29 38
23 29 38
22 27 34
23 28 37
23 28 37
23 28 36
23 29 38
25 31 41
22 27 35
25 31 40
23 29 38
22 28 36
25 31 40
23 28 37
26 32 41
21 27 34
25 31 40
21 27 35
22 27 35
24 29 38
22 28 35
23 28 36
22 28 36
24 30 38
21 26 34
23 29 39
21 25 33
23 29 37
22 27 35
22 27 35
21 26 33
21 26 34
23 29 38
18 23 30
22 27 35
21 26 34
23 30 39
21 26 33
23 29 38
23 29 37
22 28 36
23 29 38
19 24 31
22 28 36
21 27 35
20 25 32
20 25 32
20 25 33
22 28 36
22 28 36
22 27 36
20 25 33
21 27 35
21 26 34
22 27 36
23 29 37
22 28 37
21 26 34
21 26 34
19 23 31
22 27 35
20 26 34
20 26 34
21 26 33
23 29 38
19 24 31
20 25 33
24 30 39
21 26 33
21 26 34
22 27 35
21 26 33
19 23 30
18 23 30
24 29 38
21 26 34
24 30 38
21 26 34
19 23 31
21 26 33
23 28 36
20 25 33
21 26 34
20 25 32
20 25 33
20 25 33
20 25 32
20 24 31
21 26 33
18 22 28
21 25 33
20 25 33
19 24 32
18 22 29
19 24 32
19 24 31
19 23 30
20 24 31
18 23 30
19 23 31
24 30 39
20 25 33
16 20 26
20 25 33
21 26 33
21 26 34
18 22 29
17 22 28
18 22 28
22 27 34
21 26 33
18 23 29
18 22 29
21 26 34
20 24 32
18 23 29
21 26 33
18 22 28
19 24 32
19 24 31
19 24 31
16 20 26
20 25 33
21 26 34
19 24 30
19 23 30
21 26 34
17 21 26
16 21 27
20 25 32
18 22 29
20 24 31
16 20 25
19 24 31
18 22 28
19 23 29
16 20 26
19 23 30
16 20 26
18 23 29
16 20 25
20 25 32
20 25 32
17 21 27
15 18 23
17 21 27
13 16 21
14 18 22
19 23 29
16 19 25
18 22 29
15 19 24
17 21 27
16 19 24
14 18 23
17 21 27
15 18 23
14 17 22
17 20 26
14 17 21
16 19 25
15 18 24
14 17 21
14 17 22
15 19 24
14 17 22
15 18 22
15 18 23
17 20 26
17 20 26
17 21 27
13 15 20
16 20 25
15 19 24
17 20 25
14 17 21
15 19 24
16 20 25
14 17 22
14 17 21
16 20 25
14 17 22
13 16 20
15 18 23
10 13 17
16 19 24
17 21 26
13 16 20
17 21 26
14 18 23
14 18 22
13 15 19
14 17 22
14 16 20
13 15 19
12 15 19
11 14 18
15 18 23
14 17 22
14 18 22
14 17 22
14 17 22
13 15 19
14 18 22
14 17 21
14 17 22
15 18 22
13 16 20
15 18 23
13 16 20
15 19 24
14 17 22
11 14 18
14 17 22
14 16 21
13 16 21
13 16 21
15 18 23
17 21 26
14 17 22
15 18 24
16 19 24
15 18 23
16 19 24
13 16 20
18 22 28
16 20 26
13 15 20
14 17 21
15 18 24
17 21 27
12 15 20
15 19 24
16 19 25
16 20 25
17 21 27
16 20 25
14 17 22
17 20 25
18 22 28
18 22 28
13 16 20
16 19 24
14 18 23
19 24 31
18 23 29
15 18 23
16 20 26
15 19 24
17 22 28
19 24 31
17 21 26
18 23 30
13 16 20
18 22 29
18 23 29
20 24 31
17 21 27
18 22 29
18 23 30
19 24 31
22 27 34
15 19 24
16 19 24
18 22 29
19 23 30
17 21 28
19 23 29
17 21 28
20 25 32
18 22 28
19 23 30
18 23 29
17 21 27
19 23 30
18 22 28
16 21 27
21 26 34
20 25 32
15 19 24
18 22 28
19 24 32
21 26 33
20 25 32
19 24 31
19 23 30
17 21 27
20 25 33
18 23 29
23 29 37
23 28 36
18 23 29
18 23 29
21 26 33
22 27 35
20 25 33
19 23 31
19 24 31
20 25 32
18 22 29
19 24 31
20 26 34
17 22 28
20 25 32
20 25 32
19 24 31
24 30 39
20 25 32
22 27 35
23 28 36
20 25 32
18 23 30
16 20 27
21 26 34
19 24 31
25 31 40
23 29 37
22 27 35
25 31 39
24 29 38
20 26 34
22 27 36
20 25 33
23 28 36
21 26 34
20 24 31
20 25 32
20 25 33
21 27 35
22 27 34
20 25 33
23 28 36
21 26 34
20 25 33
25 31 40
23 28 35
19 24 31
22 28 36
21 26 34
22 28 37
20 25 32
24 30 38
21 26 33
24 30 39
23 28 36
22 27 35
23 29 38
20 25 33
20 25 33
19 23 30
22 28 37
21 27 35
21 27 35
24 30 39
24 29 38
18 23 30
21 27 35
23 29 37
22 27 36
21 26 34
22 28 37
22 27 35
23 29 37
23 28 37
23 29 37
19 24 31
21 27 35
20 26 34
22 28 37
23 29 38
22 28 36
21 27 35
24 30 39
25 31 41
22 27 35
21 27 35
24 30 39
25 31 41
23 29 37
24 30 38
23 29 38
23 28 37
23 29 38
24 29 38
24 30 39
22 27 36
21 26 34
22 28 36
23 28 37
23 29 37
22 28 36
20 25 33
22 27 35
22 28 36
20 26 33
23 29 38
24 30 39
24 29 38
22 27 36
22 27 36
26 32 41
25 32 41
23 29 38
23 28 37
22 28 37
24 30 39
23 29 38
24 31 40
24 29 38
22 27 36
24 30 38
24 30 39
23 27 35
23 28 37
21 27 35
22 28 37
23 29 38
25 31 40
24 29 37
24 30 39
21 27 35
23 29 38
23 29 37
24 30 39
22 27 36
22 27 35
20 25 33
21 26 34
23 29 37
21 26 34
21 26 34
26 32 41
21 26 34
22 28 36
22 28 36
25 31 39
20 25 32
23 28 37
22 27 36
23 29 38
23 28 37
20 25 32
23 28 37
23 29 38
22 28 36
22 27 36
23 28 36
22 28 36
23 28 37
21 26 34
21 26 34
21 26 33
22 27 36
22 27 35
21 27 34
20 25 33
20 26 33
21 26 34
21 26 34
20 25 32
22 27 35
21 26 34
22 27 34
20 25 33
22 28 36
21 26 34
21 27 34
23 29 37
21 26 34
22 28 36
21 26 33
24 29 38
20 25 33
17 21 28
22 28 36
21 27 35
18 23 29
21 25 33
19 24 32
22 27 35
17 22 29
20 26 33
22 27 35
21 26 34
20 26 33
20 24 32
20 25 33
21 26 34
20 25 33
22 28 36
22 27 34
21 26 33
21 26 34
19 24 31
21 26 33
18 23 31
23 28 37
21 26 33
19 24 31
18 23 31
16 20 26
22 27 35
19 23 30
21 26 34
20 25 32
19 24 31
23 29 37
20 25 31
19 23 30
20 24 31
18 23 30
18 22 28
22 28 37
21 26 34
19 23 30
20 24 31
15 19 25
19 24 31
17 21 28
20 25 32
16 20 25
20 25 32
17 20 26
18 23 29
19 24 31
21 26 33
19 23 29
18 22 28
18 22 28
15 19 24
18 22 28
19 23 30
18 22 28
18 22 28
18 22 29
17 21 28
16 20 26
18 23 29
17 21 26
15 19 25
17 21 27
15 18 23
20 24 30
18 22 28
18 23 29
16 20 25
19 23 29
18 22 28
18 22 27
17 21 28
15 18 24
20 25 32
15 18 24
15 18 24
17 20 26
15 18 23
17 20 26
13 16 20
16 19 24
18 22 28
16 19 25
16 19 25
17 21 26
16 20 26
14 16 21
18 22 28
14 17 22
15 19 25
18 22 28
15 18 23
16 20 25
15 18 24
15 18 23
15 19 24
14 17 21
14 18 23
18 21 27
16 20 25
16 19 25
15 18 23
14 17 21
14 17 21
14 17 22
17 21 26
16 19 25
15 18 22
13 16 20
17 21 27
14 18 23
15 18 23
11 14 17
13 16 21
13 16 20
17 21 27
14 17 22
16 19 24
15 18 23
14 17 21
14 18 23
16 20 25
15 18 23
13 16 21
14 17 21
13 17 21
12 15 19
13 16 20
14 17 22
14 17 22
15 18 23
12 15 19
16 20 24
13 15 19
12 15 19
14 17 21
15 18 23
15 18 23
17 21 26
14 17 22
14 17 22
14 17 22
16 19 24
18 22 29
14 17 22
17 21 26
17 20 26
17 20 26
16 19 24
17 21 27
16 20 25
16 19 25
17 21 27
17 20 26
14 18 23
13 16 20
18 22 29
19 23 29
18 22 28
16 20 25
14 17 22
16 20 25
15 19 24
15 19 24
18 22 28
19 23 30
20 24 31
16 19 24
20 25 32
18 22 29
14 17 22
16 19 25
16 19 24
17 21 27
16 19 25
18 22 29
18 22 29
20 24 30
18 22 28
18 22 29
16 20 26
18 22 28
17 21 27
18 22 28
17 22 29
19 24 31
15 19 24
20 25 32
17 21 27
17 21 27
19 23 30
19 24 31
17 22 28
15 19 25
19 24 30
18 22 29
20 26 33
20 24 31
21 26 33
18 22 28
20 25 32
19 23 31
19 23 29
19 24 31
17 22 28
19 23 30
21 26 33
21 27 34
17 21 27
18 22 29
24 29 38
20 25 32
20 24 31
19 24 32
18 22 29
20 25 32
22 27 35
19 23 30
22 28 36
20 25 33
22 28 36
22 27 35
22 27 34
21 26 33
20 25 32
19 24 31
23 29 38
19 24 31
20 25 33
24 29 37
19 24 32
21 26 34
20 25 32
22 27 36
19 24 31
17 21 28
18 22 29
21 26 33
22 28 36
21 26 34
21 27 35
21 26 34
20 25 33
19 25 32
21 26 34
20 25 33
22 27 35
23 28 37
23 28 37
21 26 34
21 27 35
20 25 33
21 27 35
22 27 35
19 23 30
20 25 32
22 27 35
20 24 32
20 25 32
22 27 36
23 29 37
23 28 37
23 29 38
21 26 34
22 27 35
23 29 37
20 25 33
21 27 35
23 28 37
21 26 34
23 28 36
22 28 36
21 27 35
19 24 31
21 26 34
23 29 38
21 26 34
22 27 35
22 28 36
20 25 32
21 27 35
21 26 34
21 26 34
21 27 35
25 32 41
22 27 34
23 29 37
17 22 28
23 28 36
24 30 39
22 27 35
21 27 35
23 29 38
21 27 35
22 27 35
23 29 38
23 29 38
22 28 36
25 31 40
22 27 36
21 27 34
23 29 38
21 27 35
21 26 34
22 28 36
21 26 34
20 25 33
22 28 36
26 32 41
25 31 41
23 29 37
25 31 41
22 28 36
23 29 38
20 25 32
24 30 40
24 30 39
23 28 37
21 27 35
23 29 37
23 29 38
23 28 36
23 29 38
23 29 38
21 26 34
23 29 37
22 27 36
23 28 36
22 27 36
22 28 36
22 27 36
25 31 41
21 26 33
22 27 35
22 28 37
22 28 36
23 29 38
20 26 34
22 28 36
22 28 36
22 27 36
23 29 38
22 28 36
21 27 35
21 26 34
23 28 37
22 28 36
23 28 37
22 28 37
22 27 35
20 25 32
24 30 38
23 29 37
21 26 33
21 27 35
24 29 38
23 29 38
23 28 36
22 27 35
21 27 35
25 31 40
22 27 35
22 27 34
19 24 32
21 26 33
22 27 36
22 27 35
20 25 32
21 26 33
21 26 34
20 25 32
22 27 34
22 28 36
25 31 41
19 24 31
21 27 35
21 26 33
21 26 34
21 27 35
21 26 34
24 30 38
22 27 35
21 26 34
23 29 38
21 26 34
26 32 41
22 27 35
23 28 36
22 28 37
19 24 31
20 25 33
22 27 35
23 29 37
22 28 36
22 27 36
20 25 33
24 29 38
22 28 37
20 25 33
21 26 34
21 26 34
19 23 30
19 24 32
21 26 34
20 24 32
22 27 35
19 23 31
23 28 36
20 25 32
19 24 32
18 23 31
23 29 38
21 26 33
23 28 36
20 25 33
17 21 28
18 22 29
18 22 29
19 24 30
20 25 32
19 24 31
20 25 32
19 23 30
19 23 30
18 22 29
20 25 32
22 27 35
19 24 31
19 23 29
19 24 32
19 24 31
22 28 37
18 23 29
23 29 37
19 23 30
20 25 32
19 23 30
22 27 35
16 20 26
20 25 31
17 21 27
18 22 29
17 22 28
18 22 29
14 18 23
19 24 31
20 25 32
19 24 31
20 25 31
19 23 30
17 22 28
17 21 27
15 19 24
17 22 28
19 24 31
15 19 24
17 21 27
18 22 28
21 26 33
17 21 26
16 20 26
16 20 26
17 21 27
16 20 26
17 21 27
18 22 28
17 21 28
14 18 23
16 20 25
16 20 25
15 19 24
16 20 26
16 19 25
17 21 27
16 20 26
19 24 30
18 23 29
17 21 27
20 24 31
18 22 27
13 16 20
16 20 25
14 18 23
16 19 24
16 20 25
12 15 20
13 15 19
19 23 30
17 21 27
13 16 21
16 19 24
12 14 18
15 18 23
12 15 20
14 17 21
11 14 18
14 17 22
15 18 23
18 23 29
13 16 20
14 18 23
16 19 25
14 17 22
14 16 21
17 21 27
15 18 23
13 15 19
12 15 19
14 17 22
15 18 24
15 18 23
14 17 22
15 18 23
18 22 28
14 17 22
18 22 28
14 17 22
15 18 24
12 15 19
16 20 25
13 16 20
13 17 21
15 18 23
13 16 21
15 18 23
14 17 22
14 17 22
12 14 18
14 17 22
15 18 23
14 17 22
15 18 23
16 19 24
15 19 24
15 18 23
15 18 22
13 16 20
13 16 21
13 16 20
15 18 23
14 17 21
15 18 23
14 17 22
15 19 24
14 17 22
16 20 25
15 19 24
12 15 19
19 23 28
18 22 29
15 19 24
16 19 25
16 19 25
15 18 23
16 20 25
15 18 22
17 21 26
15 18 23
12 15 19
13 15 19
16 19 24
17 21 26
16 20 25
14 17 22
15 19 23
16 20 25
19 24 30
20 24 31
17 20 26
17 21 27
16 20 25
16 20 26
17 21 27
17 21 27
16 20 26
15 19 24
17 22 28
17 21 27
15 19 25
17 21 27
14 17 22
18 22 29
19 24 30
19 24 31
20 25 32
18 22 28
16 20 26
18 22 28
17 20 26
18 23 30
17 21 26
18 22 29
19 23 30
20 25 32
19 24 30
17 21 27
20 24 31
22 27 35
19 24 31
18 23 30
18 22 29
19 24 31
20 24 31
20 25 33
20 25 32
17 22 29
17 22 28
20 25 33
20 24 31
18 23 30
20 25 32
22 27 34
21 26 34
19 23 29
21 26 33
21 26 33
18 23 30
20 25 32
17 22 28
20 25 33
17 21 27
21 26 34
21 26 34
21 26 34
20 25 33
21 26 34
22 27 34
20 25 33
18 23 30
20 25 32
21 26 33
23 28 37
21 26 34
21 27 35
20 25 32
20 25 33
20 24 32
21 26 34
23 29 38
24 29 37
20 25 32
20 25 32
18 23 30
22 27 35
22 28 36
22 27 35
22 27 36
20 25 32
21 27 35
19 24 30
20 25 33
23 28 37
18 23 30
21 26 33
20 25 32
20 24 31
23 28 36
22 27 35
23 28 37
23 29 38
19 24 30
22 27 36
19 24 31
20 25 32
20 25 33
21 26 33
23 29 37
21 26 34
20 25 33
21 26 34
24 30 38
23 29 37
23 29 38
21 27 35
22 27 34
21 26 34
21 26 34
21 26 35
22 28 37
23 29 38
21 26 34
22 27 35
21 26 33
21 26 33
21 27 35
21 27 35
20 25 33
22 27 35
21 26 34
21 26 34
24 30 39
22 28 36
24 30 39
22 27 35
22 27 36
23 29 37
22 27 35
23 28 37
23 28 37
24 30 38
20 25 33
23 28 37
23 29 37
22 27 35
20 25 33
22 27 35
22 28 36
24 30 39
23 29 38
22 28 36
22 27 35
22 28 37
22 27 36
21 27 35
24 29 38
24 30 38
24 30 39
22 28 36
23 28 37
23 28 37
22 27 36
23 29 38
22 27 35
21 27 35
21 26 34
23 29 37
24 30 40
24 30 38
23 29 38
23 29 37
22 27 35
22 28 36
23 29 38
22 28 36
24 30 39
22 28 36
23 28 37
25 32 41
22 27 35
23 28 37
22 28 36
22 27 35
20 25 33
21 26 33
23 29 37
24 30 39
19 24 31
26 33 42
20 26 34
23 29 38
20 25 32
23 28 37
21 26 33
23 29 38
20 26 33
19 24 31
23 28 36
20 25 32
22 27 34
22 27 36
21 26 33
25 31 40
22 28 35
22 27 35
23 29 38
22 27 36
20 25 32
21 27 35
24 30 40
22 27 35
23 28 37
22 28 37
20 25 33
25 31 40
19 24 31
22 28 36
22 27 35
21 26 34
21 26 34
23 29 38
23 28 37
20 25 32
22 28 36
21 26 34
21 26 34
22 27 35
18 23 30
20 25 32
22 27 35
21 26 34
21 26 33
22 27 35
20 25 33
19 24 32
23 28 37
21 27 35
18 22 29
23 28 37
24 29 38
22 27 35
21 27 35
22 27 36
23 28 36
23 29 38
22 28 36
19 24 31
20 24 31
20 24 31
20 25 32
19 23 30
22 28 36
21 26 34
22 27 36
22 28 36
24 30 38
20 25 32
22 27 35
19 23 30
20 25 32
18 22 29
22 28 36
19 23 30
20 25 32
19 23 30
19 23 30
21 26 34
22 28 37
24 30 39
19 24 30
20 25 33
21 26 34
22 28 36
18 22 29
19 23 30
17 21 28
23 29 37
17 22 28
17 21 27
19 24 32
19 24 31
18 22 29
20 25 32
17 21 27
15 19 24
18 22 28
18 22 29
18 23 29
19 23 29
20 25 32
17 21 27
17 21 27
18 22 28
17 21 27
16 20 26
18 23 29
20 24 31
19 24 30
17 21 27
18 22 28
22 27 34
18 22 28
18 23 30
17 21 27
21 26 33
16 20 26
19 23 30
17 21 27
16 20 25
16 20 26
14 18 23
18 22 28
16 20 25
18 22 28
19 23 30
15 19 24
15 19 24
15 19 24
15 18 24
18 22 28
19 22 28
17 20 26
15 18 23
16 20 25
15 18 23
14 18 23
17 21 27
18 23 29
14 17 22
15 19 24
16 20 25
17 20 26
14 17 21
17 20 25
15 18 24
15 18 23
14 17 22
12 15 19
16 20 25
17 21 26
14 18 22
14 17 22
12 15 20
13 16 20
18 22 28
14 18 23
15 18 22
15 19 23
16 19 25
15 19 24
15 18 23
13 16 21
15 18 23
12 14 18
17 20 26
15 18 23
13 16 20
13 15 19
11 14 17
14 17 22
14 18 23
15 18 23
16 20 25
17 21 26
14 17 21
16 19 24
15 19 23
16 19 24
12 14 18
12 14 19
15 18 23
14 17 22
14 18 22
15 18 23
13 16 20
16 20 25
15 18 23
15 18 23
18 22 28
17 21 27
16 19 25
15 18 23
16 20 25
14 16 21
15 18 22
14 17 22
14 17 22
17 21 27
15 18 23
18 21 27
20 25 31
16 19 25
13 16 20
15 19 24
16 20 26
13 16 21
13 16 21
14 18 22
13 16 20
17 20 26
15 18 24
14 17 22
18 23 29
19 23 29
18 22 28
17 21 28
17 20 26
16 20 26
15 18 23
18 23 29
17 22 28
20 24 31
15 19 24
18 23 29
15 18 23
17 21 27
18 22 28
19 23 30
18 22 28
16 20 25
17 20 26
19 23 30
18 22 28
19 24 32
18 23 29
18 22 29
18 22 28
17 20 26
19 24 30
19 24 31
21 26 33
18 22 29
16 20 25
17 22 28
19 23 30
19 23 29
18 23 30
19 23 30
20 25 32
17 21 28
18 22 29
21 26 34
18 22 28
19 24 31
20 25 32
22 27 35
21 26 34
20 24 31
18 23 30
20 25 32
16 20 26
20 24 31
17 21 27
19 23 30
19 24 31
21 26 33
22 28 35
21 26 34
22 28 37
18 22 29
21 26 33
22 27 35
21 26 33
20 25 33
21 26 35
21 26 35
20 25 33
22 27 35
20 25 33
21 26 33
22 27 35
19 24 31
23 29 38
19 24 31
21 26 33
21 26 33
22 27 36
23 29 38
22 27 35
20 24 31
21 26 34
23 28 36
23 29 37
17 21 27
21 26 35
22 27 35
21 26 34
22 28 36
21 26 34
20 25 32
21 27 35
20 26 33
19 24 31
21 26 34
20 26 34
20 25 32
21 26 33
22 28 36
22 28 36
22 28 36
19 23 30
22 28 35
22 27 35
21 26 34
22 27 35
21 26 34
23 28 36
22 28 37
22 28 36
23 28 37
23 29 38
22 27 36
22 27 35
21 27 35
21 26 34
20 25 33
22 27 35
21 27 35
25 31 40
23 29 37
22 27 35
22 27 35
19 24 31
21 26 34
22 28 36
25 31 40
20 25 33
21 27 34
25 31 40
24 29 38
25 31 41
24 30 38
22 27 35
23 28 36
20 26 34
23 29 38
23 28 37
22 28 36
22 28 36
23 29 38
20 25 33
22 28 36
20 25 32
23 29 37
19 24 32
21 26 33
22 27 35
20 25 33
23 28 37
22 27 36
21 26 35
24 30 39
20 25 33
22 28 36
24 30 39
24 30 39
25 31 40
22 27 36
22 28 36
23 29 37
24 30 40
22 28 37
22 28 37
22 28 37
22 27 35
23 29 37
23 28 36
25 32 41
22 27 36
23 28 36
24 29 38
23 28 37
22 28 36
21 26 34
21 26 34
22 28 37
22 27 36
21 26 34
23 29 38
24 30 39
23 29 38
22 28 36
22 27 34
22 27 36
23 28 37
20 25 33
23 29 38
23 29 37
19 24 30
18 22 29
22 28 36
24 30 39
21 27 34
24 30 38
22 28 36
22 28 36
21 27 35
21 27 35
20 25 33
22 27 35
22 28 36
21 26 34
23 29 37
24 30 39
23 28 37
21 27 35
23 29 37
22 27 36
24 31 40
22 27 36
22 28 36
23 29 37
23 29 37
23 28 36
21 26 34
22 28 36
23 28 37
23 29 38
24 29 37
22 27 35
20 25 33
22 27 36
22 28 36
22 27 35
20 25 32
22 28 37
20 25 33
23 29 38
22 27 34
22 27 35
21 26 34
18 23 30
19 24 31
20 25 32
21 26 34
20 25 32
23 28 36
21 26 33
21 26 34
22 27 34
18 23 30
22 27 35
21 26 34
20 25 33
19 25 32
20 24 31
23 29 37
22 28 36
19 23 30
20 25 33
20 25 33
20 25 33
21 26 34
22 28 36
23 28 36
21 26 34
19 23 30
19 24 32
19 24 31
21 26 33
20 26 34
21 26 34
21 26 34
16 20 26
23 29 37
19 24 31
20 25 33
21 26 33
20 25 33
19 24 32
20 25 32
19 24 31
20 25 32
20 24 31
18 22 28
21 26 34
19 23 30
20 25 31
19 24 31
19 24 31
19 24 31
19 24 31
21 26 34
18 23 30
20 25 32
21 26 34
18 23 30
18 23 29
17 21 27
20 25 33
18 23 29
19 23 29
19 24 31
17 22 28
17 21 28
20 24 31
18 23 29
20 24 31
17 21 27
17 21 27
19 23 29
18 23 29
18 22 29
17 22 28
17 21 28
17 20 26
20 25 31
18 22 28
17 21 27
17 21 27
17 21 27
16 20 26
14 18 23
20 24 31
17 21 27
17 21 26
17 21 27
16 19 25
17 20 26
15 18 24
16 20 25
16 19 25
16 20 26
17 21 27
14 18 23
15 18 23
16 19 24
15 18 23
16 20 26
15 19 24
15 18 24
17 21 26
16 19 25
13 16 20
18 22 28
16 19 25
16 20 25
19 24 30
17 21 27
17 21 26
15 18 23
17 21 27
12 14 18
14 18 22
17 20 26
14 17 22
14 17 21
14 17 22
15 19 24
14 18 23
13 15 19
15 19 24
13 16 20
14 17 22
15 18 22
13 16 20
15 18 23
14 17 22
17 20 26
16 20 26
13 15 20
14 18 23
15 18 23
16 19 25
14 17 21
16 20 25
14 17 21
14 17 22
16 19 25
13 16 20
15 19 24
17 20 26
18 22 29
14 17 21
12 15 19
13 15 19
15 18 23
16 19 24
14 17 22
15 18 23
11 14 18
15 19 24
18 22 28
16 19 24
16 19 25
15 18 23
18 22 27
18 22 28
19 23 30
15 18 23
17 21 26
14 17 22
16 20 25
18 22 28
14 18 23
16 20 26
17 21 26
17 21 27
17 21 27
16 19 24
14 18 23
15 18 23
16 20 26
15 18 23
17 21 27
17 21 27
19 23 30
18 22 29
19 23 30
15 18 23
15 19 24
16 20 25
17 21 26
19 23 30
18 22 29
21 26 33
17 21 27
17 21 28
15 19 24
20 25 31
16 20 26
19 24 31
16 19 24
15 18 23
17 21 27
20 24 31
20 24 31
19 24 30
21 26 33
17 21 27
16 20 26
21 25 32
16 20 26
19 24 31
19 24 30
18 22 29
19 23 30
20 26 34
18 23 29
18 22 28
21 26 33
16 20 25
18 22 29
18 23 29
19 24 31
21 26 34
18 22 28
18 23 29
20 25 32
23 29 38
22 27 35
19 23 30
20 25 33
21 26 34
21 26 34
19 24 30
23 29 37
20 25 32
19 23 30
18 23 30
18 23 30
21 27 35
22 28 36
19 24 31
19 24 31
20 25 32
21 25 32
22 28 36
17 21 27
21 26 33
19 24 31
20 25 33
20 25 32
22 28 36
19 23 30
21 26 34
21 26 34
20 25 32
20 25 32
20 25 33
20 25 32
19 24 31
20 25 33
22 27 35
20 25 32
23 28 36
21 27 35
21 26 34
24 30 38
20 25 32
21 27 35
20 25 32
21 27 35
22 28 36
24 29 38
23 28 37
22 27 35
22 27 35
20 25 33
22 27 35
20 25 32
23 29 37
21 27 34
21 26 34
20 25 32
23 28 37
22 28 37
20 25 33
23 28 37
21 26 34
22 27 35
24 30 39
21 26 34
21 27 35
22 27 35
20 26 33
22 27 35
21 27 35
23 29 38
22 28 36
22 28 36
22 28 36
21 26 34
22 27 35
20 25 33
25 31 40
21 26 34
23 29 38
23 28 37
26 32 42
24 30 38
22 27 35
22 27 36
22 27 36
20 25 33
23 29 38
20 25 32
23 29 38
22 27 35
24 30 38
21 27 35
24 30 38
23 29 37
23 29 38
23 29 38
22 28 36
24 30 39
20 25 32
23 29 38
23 29 38
22 28 37
21 27 34
23 29 37
21 26 33
24 29 38
24 30 39
24 30 39
22 28 37
22 28 37
23 29 37
25 31 40
24 29 38
24 30 39
24 29 38
24 30 39
18 23 30
23 28 37
20 25 33
23 29 38
23 28 36
22 27 35
23 28 37
22 27 36
23 28 37
23 29 38
23 29 37
24 30 40
19 24 32
22 27 35
20 25 33
23 29 37
22 28 36
23 29 37
22 28 37
24 29 38
22 28 36
24 31 40
20 25 32
24 30 38
24 29 38
21 26 34
22 27 36
22 27 35
23 29 37
23 29 38
25 31 40
24 29 38
23 28 36
24 30 38
18 23 30
22 28 36
23 29 37
23 28 37
20 26 34
21 26 33
20 26 33
22 28 36
25 31 41
21 27 35
22 27 35
19 24 31
21 26 33
22 28 36
20 25 32
22 27 35
24 30 38
23 29 38
20 25 33
20 25 33
21 26 33
21 26 34
21 26 34
23 28 36
21 26 34
19 24 31
20 25 33
21 26 34
25 31 40
22 28 36
18 23 30
20 25 33
23 28 37
24 29 38
23 28 37
21 26 34
19 24 31
20 25 32
22 28 36
20 25 32
21 26 33
24 30 38
19 24 31
19 24 31
20 24 32
20 25 33
19 24 31
19 23 31
23 28 36
20 24 31
22 27 35
23 29 37
22 27 36
21 25 33
18 22 28
21 26 33
21 26 34
20 24 31
20 25 33
20 25 33
17 22 29
19 24 30
21 26 33
19 24 31
19 23 29
21 25 32
19 24 31
18 22 29
14 18 23
20 26 34
19 24 31
20 25 32
21 26 34
20 25 32
18 22 28
23 29 37
18 22 29
19 24 31
19 23 29
19 24 31
20 25 32
21 26 33
17 21 27
18 23 29
17 21 27
20 25 32
17 21 27
18 22 29
18 22 29
20 24 31
20 25 32
18 22 29
18 23 29
19 24 31
15 19 24
19 24 31
19 23 30
21 26 34
16 20 26
18 22 28
16 21 27
18 22 29
15 19 24
16 20 25
15 19 24
19 23 30
16 20 26
19 24 30
17 21 27
19 23 30
13 17 21
17 22 28
15 18 24
16 19 25
21 25 32
17 21 26
17 21 26
17 21 27
14 18 23
17 21 26
15 18 23
20 25 32
16 20 25
16 20 25
15 19 24
17 21 27
16 19 24
16 20 26
16 20 25
15 18 24
16 20 25
15 18 23
17 21 28
16 20 25
18 22 28
15 19 24
17 21 26
16 20 25
15 18 23
15 19 24
17 21 26
12 15 19
15 19 24
18 22 27
16 19 24
16 19 24
16 20 25
13 16 20
15 18 23
12 15 19
16 20 26
13 16 21
17 20 25
15 19 24
15 19 24
13 16 21
14 18 22
15 19 24
14 17 22
15 18 23
17 21 26
18 22 28
16 20 25
16 19 23
17 21 26
14 17 22
14 17 22
12 15 19
13 16 20
17 21 26
16 20 26
14 17 22
15 18 23
14 17 22
16 20 25
15 19 24
17 21 27
16 19 25
17 20 25
18 22 28
15 18 23
15 18 23
16 19 24
14 17 21
20 24 31
15 19 24
16 19 24
16 19 24
15 18 23
16 20 26
15 19 24
17 21 27
14 17 22
17 21 27
17 21 26
13 16 20
16 19 24
15 18 23
19 23 30
17 21 27
17 21 27
17 21 27
18 22 28
16 19 25
18 22 28
18 22 28
15 18 23
17 21 27
17 20 26
19 23 29
16 19 24
18 22 28
17 21 27
18 22 29
18 22 28
16 20 26
16 20 26
18 23 29
17 21 27
16 20 26
16 21 27
14 18 23
18 22 29
15 19 24
16 20 26
17 21 27
18 22 29
20 25 31
18 22 28
17 21 27
17 20 26
18 23 29
15 18 24
18 22 28
20 25 32
17 22 28
19 23 30
19 24 31
20 24 31
18 23 30
19 23 30
20 25 32
18 23 29
16 20 26
22 27 35
20 25 32
20 25 32
21 26 34
18 22 28
19 24 31
19 24 31
20 25 32
19 23 30
18 22 29
22 28 36
18 23 30
20 25 33
18 22 28
20 25 32
18 23 29
20 24 32
19 24 32
19 24 32
23 29 39
19 23 30
18 22 30
21 26 33
20 25 32
20 25 32
19 24 32
21 26 34
19 24 31
20 25 33
21 26 34
20 25 33
18 23 29
22 27 35
22 27 35
22 28 36
20 25 32
21 26 33
24 29 37
20 25 32
23 29 37
20 25 33
22 27 35
22 27 36
24 30 39
23 28 36
20 25 31
17 22 28
22 28 36
21 26 35
19 24 32
22 28 36
21 26 34
23 28 37
20 25 33
24 30 40
23 28 36
22 27 35
20 25 33
23 28 37
23 28 36
22 27 35
21 27 35
21 27 35
22 28 36
22 27 36
21 26 34
22 27 35
21 27 36
23 28 36
21 26 33
21 26 33
23 28 36
23 28 36
22 28 36
23 29 38
22 28 36
22 27 35
23 29 37
23 28 37
24 29 38
23 28 37
21 26 34
22 28 37
21 26 34
22 28 36
23 28 37
22 27 35
22 28 37
25 31 39
24 30 39
22 28 36
22 28 36
20 25 32
23 29 38
22 28 37
24 30 39
26 32 42
21 27 35
22 27 35
21 26 34
23 29 37
22 28 36
23 29 38
24 29 38
22 28 36
25 31 40
23 29 37
24 29 38
21 26 34
24 30 39
23 28 37
21 26 34
20 25 33
20 25 33
24 30 39
25 31 40
24 30 39
22 28 36
24 30 39
24 29 38
23 28 36
26 32 41
21 25 33
23 29 38
22 28 36
24 31 40
22 27 36
23 29 37
23 29 37
23 29 37
22 28 36
22 27 35
25 31 40
22 28 37
25 31 41
23 29 37
23 28 37
19 24 31
21 26 33
24 29 38
21 26 33
21 27 35
20 25 32
22 27 35
20 26 34
21 27 35
22 28 37
21 27 35
21 27 35
22 28 36
22 28 36
22 28 36
20 25 32
21 26 34
24 29 38
21 26 34
23 29 38
21 26 34
22 27 35
22 28 36
23 29 38
19 24 31
21 26 33
22 28 36
22 27 35
22 28 36
23 29 38
20 25 33
23 29 38
18 22 29
23 29 37
24 31 40
23 28 37
20 25 33
21 26 34
24 30 40
19 24 31
22 28 36
20 26 33
21 26 34
20 25 33
21 26 33
22 27 36
20 25 32
20 25 33
22 27 35
23 28 37
22 28 36
23 29 37
20 25 33
22 27 35
21 26 34
19 23 31
21 26 34
20 25 33
19 25 32
21 26 34
21 26 34
23 29 37
22 27 35
19 24 30
24 30 38
21 26 33
20 24 32
21 26 34
20 25 32
22 27 35
22 28 36
19 25 32
23 28 37
19 24 30
22 28 36
20 25 33
21 26 33
21 26 34
18 22 29
22 28 36
20 25 33
21 25 32
22 27 35
19 23 31
19 24 31
18 23 29
19 24 31
18 22 29
19 23 30
19 23 30
19 23 30
20 25 32
19 24 31
19 23 30
17 22 28
19 23 30
20 25 33
18 22 28
19 24 31
19 24 32
16 19 24
22 27 35
17 21 27
18 23 30
18 22 28
18 23 30
20 25 33
21 27 34
19 24 31
23 28 36
19 24 31
18 22 28
18 23 30
17 21 28
18 22 28
16 19 25
17 21 26
18 22 28
15 18 24
17 21 27
15 18 23
20 25 33
18 22 29
17 21 27
19 23 30
15 18 23
15 18 24
19 23 29
16 20 26
19 23 30
16 19 25
16 20 25
18 22 29
17 21 27
19 24 30
17 21 27
17 20 25
16 19 25
18 22 29
18 23 29
18 22 28
17 21 27
17 22 28
17 20 26
17 21 27
17 21 27
15 19 24
18 22 29
18 22 28
16 19 25
15 18 23
16 20 26
14 17 21
17 21 28
17 21 27
18 23 29
14 18 23
14 17 22
15 18 23
17 21 27
15 18 23
17 21 27
14 17 22
16 20 25
16 19 25
16 20 25
14 18 23
14 17 21
15 19 24
16 20 26
18 22 28
17 20 26
14 17 21
14 18 23
15 19 24
14 17 21
15 18 23
13 16 21
18 22 28
15 18 23
16 20 25
16 19 25
15 18 23
16 19 24
18 22 27
16 20 25
13 16 21
13 16 21
17 20 26
15 19 23
15 19 24
18 23 29
15 19 24
19 23 29
17 21 26
19 23 29
14 17 22
14 16 21
17 21 26
15 19 24
16 19 24
16 19 25
15 18 24
15 19 24
12 15 19
17 20 26
18 22 28
16 19 25
18 22 28
14 18 23
16 19 25
17 21 27
18 22 28
16 20 25
14 17 23
18 22 28
16 19 25
15 18 24
15 19 24
17 20 26
19 23 30
18 22 28
18 22 28
15 19 25
16 20 26
17 21 27
18 22 28
17 21 27
20 25 32
15 18 24
16 20 26
18 23 29
17 21 27
19 24 30
18 22 28
19 23 30
19 23 29
18 22 29
18 23 29
21 26 32
17 21 27
18 23 30
14 17 22
21 25 33
18 22 28
17 21 27
17 21 26
18 22 29
19 24 30
18 23 29
16 20 26
19 23 30
19 23 30
18 23 30
19 24 31
19 23 30
19 24 32
21 26 34
19 24 31
21 26 34
18 22 29
22 27 35
18 23 29
19 24 31
22 27 35
19 23 30
21 27 35
17 22 28
19 23 30
18 22 29
18 22 29
20 25 32
22 27 34
19 24 31
19 24 31
19 24 32
21 26 34
22 27 34
22 27 35
19 24 31
19 24 30
21 26 34
20 25 33
18 23 30
20 24 31
21 26 34
19 24 32
18 22 28
21 26 34
19 23 30
21 26 33
19 23 30
20 25 33
19 24 31
22 27 35
22 28 36
21 26 34
21 27 34
24 29 38
20 24 32
23 29 38
19 23 29
19 23 30
21 26 34
21 26 34
20 25 33
18 23 30
19 24 31
22 28 36
19 24 32
21 26 34
19 24 31
20 25 32
20 25 33
20 25 33
22 27 35
19 24 32
20 25 33
19 24 31
22 27 36
19 23 30
22 28 35
22 27 35
20 25 32
24 30 39
26 32 41
23 28 37
22 28 37
17 22 29
23 28 37
24 30 38
23 29 38
19 24 32
22 27 35
24 30 38
24 29 38
22 28 36
22 28 37
23 28 37
18 22 29
25 31 40
22 28 36
22 28 36
24 29 38
21 27 35
20 26 34
20 26 34
22 27 35
22 27 36
22 28 36
22 28 36
23 28 36
23 29 37
23 29 38
24 30 39
23 29 38
22 27 35
22 27 35
22 27 35
24 29 38
24 29 38
22 28 37
21 26 34
21 27 35
22 28 36
23 29 37
20 25 32
22 28 37
24 29 38
22 28 36
20 25 33
24 30 39
21 26 34
27 33 44
22 27 36
25 32 42
22 27 35
22 28 36
24 31 40
22 28 36
20 25 33
22 28 36
22 27 35
22 28 37
19 24 31
23 29 39
24 30 39
23 29 38
24 30 38
21 27 35
24 29 38
22 29 38
24 30 39
21 26 33
20 26 33
21 26 34
25 31 40
23 29 37
22 28 36
20 25 32
23 29 38
25 31 40
20 25 32
21 27 34
23 29 38
21 26 34
24 30 39
23 28 37
22 27 35
23 28 37
24 31 40
20 26 34
23 29 37
20 25 33
23 29 37
21 27 34
22 28 36
23 28 37
20 26 33
24 30 39
22 27 35
21 26 34
23 28 37
22 27 36
20 25 33
20 25 33
21 26 35
19 24 31
22 28 36
24 29 38
20 24 31
22 28 36
19 24 30
22 27 36
23 29 37
23 28 37
23 29 37
22 27 35
20 25 32
22 28 37
17 22 28
20 25 33
22 27 35
19 24 32
21 26 33
20 24 31
21 26 33
21 26 34
20 25 33
24 29 38
21 26 34
22 27 35
22 27 35
21 26 34
19 24 31
21 26 33
19 24 31
21 26 34
19 24 31
21 26 33
21 26 34
19 24 31
21 26 34
18 22 29
19 23 30
20 25 32
20 25 32
20 26 33
23 28 36
22 27 35
22 27 35
22 28 36
18 23 29
23 28 36
18 23 30
23 29 37
18 23 30
20 25 32
18 23 29
22 27 34
19 23 31
21 26 34
21 26 33
23 28 36
18 23 30
18 23 30
22 28 36
22 27 35
19 23 30
21 26 34
20 25 32
17 21 27
22 28 35
22 27 34
16 20 26
21 25 33
19 23 30
18 22 29
19 23 30
22 28 35
18 22 28
16 20 26
18 22 28
17 21 28
20 24 31
18 22 29
19 24 31
19 24 30
18 22 29
19 23 30
19 24 31
19 23 29
18 22 28
19 23 30
19 24 31
20 25 31
18 23 29
19 24 31
19 23 30
18 23 29
17 21 27
16 20 26
22 27 34
17 21 27
14 17 22
18 22 28
18 22 28
17 21 27
17 21 27
16 19 25
18 23 29
15 18 24
18 21 27
16 19 25
18 22 28
18 22 28
16 20 26
17 21 26
16 19 24
19 24 31
15 19 25
17 20 26
15 19 24
17 20 25
17 21 27
16 20 25
15 19 24
17 20 26
16 20 26
17 21 26
19 23 29
14 18 23
19 23 30
16 20 26
18 22 28
16 20 26
16 20 25
15 19 24
14 17 22
15 18 23
16 19 25
13 16 20
12 15 20
18 22 28
17 21 27
16 19 24
16 19 25
16 19 24
16 19 24
15 19 24
16 19 25
14 17 22
16 19 24
15 18 23
18 21 27
13 16 20
15 18 23
15 18 23
17 21 27
16 20 25
16 19 25
15 18 23
16 20 25
16 19 24
18 21 27
15 18 23
14 17 22
15 18 23
16 20 25
17 21 28
18 22 27
15 18 23
14 17 22
12 15 19
18 21 27
17 20 25
15 19 25
16 20 25
16 19 25
19 23 29
17 21 27
16 20 26
15 18 23
17 20 26
17 21 27
17 20 26
14 18 23
15 18 23
14 17 21
16 19 23
14 17 22
16 20 26
14 18 22
16 19 25
15 18 22
16 19 25
16 20 25
16 19 24
18 22 28
19 24 31
19 23 29
18 22 28
13 16 21
17 21 27
16 20 25
15 19 25
21 25 32
16 20 25
16 20 26
18 22 28
18 22 28
21 26 33
17 21 27
18 22 28
17 20 26
14 18 23
15 19 25
17 21 27
19 23 29
20 24 31
20 25 32
18 22 28
16 20 25
20 25 32
19 24 31
20 24 31
16 20 26
16 20 26
19 24 30
18 23 30
16 20 25
20 25 31
20 24 31
19 24 31
17 21 27
18 23 30
19 23 30
20 24 31
19 24 31
19 24 30
18 22 28
20 25 32
18 22 29
19 24 32
18 23 29
20 24 31
17 21 27
18 23 29
17 21 27
19 24 31
20 25 32
17 22 28
18 23 30
18 22 29
19 24 31
20 25 32
21 25 32
18 23 31
19 24 31
19 24 31
21 26 34
20 25 32
20 24 31
19 25 32
22 27 35
21 26 34
21 26 33
21 27 35
23 29 37
18 23 29
19 23 30
22 27 35
20 25 33
18 22 29
22 27 35
19 24 31
21 26 34
21 26 34
20 25 33
21 26 34
20 24 31
21 27 35
19 24 31
22 27 35
22 28 36
21 26 33
22 27 35
19 23 31
21 27 35
22 27 35
21 26 34
22 28 36
21 26 35
20 25 33
20 25 32
20 25 33
23 28 37
21 26 33
21 26 33
22 27 36
21 26 34
20 25 32
24 30 38
19 24 32
21 26 34
21 26 34
22 27 36
20 25 32
23 29 38
22 28 37
22 28 36
24 30 39
21 27 34
21 26 35
21 26 34
22 27 36
22 27 35
22 27 36
23 29 38
22 27 35
22 28 36
18 23 30
20 25 33
22 27 36
22 27 35
22 27 35
24 30 39
22 27 35
24 29 38
19 24 32
24 30 39
23 28 37
23 29 37
19 24 32
22 28 36
23 29 37
23 29 38
22 27 35
24 30 39
24 29 38
22 28 37
20 25 33
24 30 38
25 31 41
20 25 32
24 31 40
24 30 39
23 28 37
24 29 37
25 31 39
24 30 39
24 29 38
20 25 33
24 30 38
23 29 37
22 27 36
23 29 37
24 30 39
22 27 35
21 27 35
23 28 37
21 27 34
23 29 38
23 29 37
21 26 34
22 27 36
23 29 38
21 27 35
23 28 36
20 26 34
24 30 39
21 27 35
24 30 39
22 28 36
23 29 37
21 26 34
21 26 34
22 27 35
20 25 33
21 26 34
23 29 38
21 27 35
23 29 39
23 28 37
24 30 40
20 25 33
20 25 33
22 28 37
23 29 38
20 25 33
23 28 36
22 27 35
24 30 38
19 24 31
21 26 34
22 27 36
23 29 38
22 28 36
21 26 34
19 23 30
19 23 30
21 26 34
21 26 34
20 25 32
21 27 35
24 29 38
24 30 39
22 28 36
22 27 35
22 27 36
20 25 33
22 28 36
24 30 39
24 29 37
22 28 36
23 28 36
23 28 37
22 27 36
22 27 35
21 27 35
19 24 32
22 28 36
23 29 37
20 24 31
21 26 34
21 25 32
23 29 38
22 27 35
20 24 31
21 25 32
22 27 35
22 27 35
21 26 35
20 25 32
23 29 37
23 28 37
22 28 35
21 26 34
20 25 32
21 26 34
23 29 37
23 28 36
21 26 33
22 27 36
21 26 34
18 22 29
21 26 33
19 24 31
21 26 34
21 26 34
19 24 31
22 28 36
22 27 35
20 24 31
20 26 33
19 23 29
20 25 33
24 30 39
19 23 30
19 24 30
21 26 34
16 20 26
20 25 33
20 26 33
21 27 35
18 23 29
21 26 34
21 26 33
20 24 31
19 24 30
21 26 34
19 24 31
19 24 31
20 24 31
18 22 29
21 26 33
19 23 30
20 24 31
20 25 33
18 23 29
18 22 29
17 21 27
17 22 28
21 26 33
15 19 25
21 27 34
18 23 29
15 19 24
19 23 29
19 24 31
18 22 29
19 24 31
20 25 32
19 23 30
15 19 25
18 21 27
17 21 28
17 21 27
18 22 29
18 22 28
17 21 27
20 24 32
16 20 26
17 20 26
15 18 24
18 23 29
17 21 28
18 22 28
17 21 27
17 21 28
18 22 29
18 23 29
17 20 25
18 22 28
17 21 27
17 21 27
18 22 28
19 24 30
16 20 25
13 17 21
15 18 23
18 22 29
18 22 28
13 16 20
16 20 26
17 20 26
16 20 25
19 24 31
18 22 28
17 21 27
13 16 21
14 18 22
16 20 25
16 20 26
14 17 22
13 16 20
17 22 28
14 18 23
16 19 25
15 18 23
15 19 24
16 20 26
17 21 27
15 18 23
15 18 24
13 16 21
16 20 26
15 18 23
16 19 24
16 19 24
14 17 22
16 19 25
16 20 25
15 18 23
15 18 23
15 18 23
15 18 23
16 19 25
14 17 22
16 20 25
15 19 24
14 18 23
15 18 23
15 19 24
13 16 20
15 18 23
15 19 24
16 20 25
16 20 26
17 21 26
15 18 24
12 15 19
15 19 25
15 18 23
17 21 26
18 22 28
14 17 21
16 20 25
19 23 29
16 20 25
17 20 25
16 20 25
14 17 22
16 19 25
15 18 23
16 19 24
18 22 28
17 20 25
15 19 24
17 21 27
17 21 27
17 21 27
15 18 23
18 22 27
18 21 27
12 15 19
16 19 24
20 25 32
15 18 24
18 22 28
17 20 26
18 23 29
18 22 28
13 17 22
17 21 27
15 18 23
18 22 28
16 20 26
17 21 27
17 21 27
18 22 27
17 21 27
18 22 29
19 23 30
19 24 30
16 20 26
15 19 24
19 24 30
18 23 30
18 23 29
16 20 26
18 22 28
17 21 27
19 23 30
14 17 22
18 22 28
18 22 28
17 21 28
17 21 28
19 24 31
18 23 30
19 23 29
19 24 31
17 21 27
19 24 31
17 22 29
17 21 28
18 23 29
21 25 33
18 22 29
19 24 30
21 26 34
19 23 29
22 28 36
19 24 31
19 23 29
22 28 36
18 23 30
20 25 33
22 27 35
18 23 30
20 25 32
21 26 34
20 25 32
18 22 29
16 20 27
23 28 36
22 28 36
21 26 34
20 25 33
21 26 34
19 24 31
20 26 34
21 27 35
19 24 30
19 24 31
17 21 28
19 24 31
21 27 35
21 26 33
20 25 33
21 26 33
21 25 33
20 25 33
21 27 35
20 25 33
20 24 31
20 25 32
21 26 34
19 24 31
21 26 33
19 24 31
19 24 31
23 29 38
22 28 36
20 25 33
24 30 38
21 26 33
23 28 37
21 27 34
20 25 32
21 27 36
16 21 27
23 28 37
22 28 36
19 24 31
22 27 35
25 30 39
20 25 33
21 26 34
21 26 34
22 27 34
20 25 33
22 28 36
17 21 28
22 27 35
21 26 34
21 27 35
21 26 34
20 25 33
21 26 34
22 28 37
23 29 38
22 28 36
23 28 37
19 24 31
21 27 35
23 28 37
23 28 37
21 27 35
25 31 40
24 30 39
22 27 36
23 29 38
22 27 34
21 26 33
23 28 37
23 29 38
22 27 36
23 29 37
21 26 34
25 31 40
26 32 42
25 31 41
24 30 38
24 29 38
22 28 36
23 28 36
22 28 36
25 31 40
22 28 37
23 29 39
21 26 34
23 28 36
22 28 36
23 29 37
21 27 35
20 26 34
23 29 38
21 26 33
23 28 36
23 28 36
22 27 34
24 29 38
26 32 42
22 27 35
19 24 31
20 26 34
25 31 40
25 32 41
25 31 40
24 30 39
23 29 37
24 30 39
22 28 37
26 32 42
23 29 37
21 27 36
22 28 36
24 30 39
24 30 38
23 29 38
23 28 37
24 31 40
22 27 35
20 25 33
19 24 32
22 27 36
21 27 35
21 26 34
19 24 31
22 28 36
22 27 36
23 28 37
23 29 37
23 29 37
23 28 37
24 30 39
18 23 30
23 28 37
21 26 34
21 26 34
23 29 37
22 28 36
23 29 38
22 28 37
20 26 34
25 31 40
24 29 38
22 27 35
24 30 38
20 25 33
23 28 36
22 27 35
22 28 36
25 31 40
20 25 32
23 28 36
21 26 34
19 23 30
21 27 35
22 28 37
23 29 37
23 29 38
20 25 32
22 28 35
21 27 35
19 23 30
23 28 36
20 25 32
20 25 32
20 26 33
22 27 35
22 27 35
20 26 34
20 25 33
23 29 39
20 24 31
23 29 37
21 26 34
19 23 31
21 26 33
21 26 34
24 29 38
20 25 33
21 25 33
25 31 40
21 27 35
20 25 32
20 25 33
18 23 30
22 27 36
20 24 31
18 23 30
18 23 30
21 26 34
20 25 32
20 25 32
21 27 35
21 26 34
21 27 34
23 28 37
20 25 32
22 27 35
20 25 33
23 28 36
21 27 34
21 26 33
21 26 33
20 25 32
19 24 32
20 25 32
20 24 31
20 25 32
19 23 31
23 29 37
22 27 34
19 23 30
18 23 29
18 22 29
19 23 31
19 24 31
22 27 35
18 23 29
20 25 32
17 21 27
18 22 29
19 23 30
20 25 32
17 22 28
18 23 29
18 22 28
22 27 34
18 23 29
22 26 34
22 27 35
17 21 27
17 21 27
17 20 26
19 24 31
19 24 30
20 25 32
19 24 31
19 24 31
19 23 30
19 24 31
18 22 28
18 22 29
19 24 31
19 24 31
18 23 29
14 17 22
18 23 29
17 21 28
19 24 31
19 23 30
13 16 21
17 21 27
18 22 28
20 24 31
17 21 27
17 21 26
15 19 24
14 17 23
17 22 28
18 23 29
17 21 27
18 22 28
16 20 26
16 19 25
16 19 25
17 21 26
17 21 27
18 22 28
13 16 21
17 20 26
14 18 23
13 16 20
16 19 24
13 16 20
14 17 22
18 22 28
16 19 25
16 20 26
17 21 27
15 19 23
18 22 28
14 17 22
18 22 28
16 20 26
17 20 26
16 19 25
16 19 24
17 21 27
15 18 23
14 17 22
16 20 26
17 21 27
15 19 24
15 19 24
16 20 25
19 23 29
17 21 26
16 19 24
13 16 21
15 18 23
17 21 26
13 16 21
16 19 24
15 19 24
12 15 20
16 20 26
14 17 22
16 20 25
18 22 28
20 24 30
15 18 24
13 16 20
17 21 27
14 17 21
14 17 21
19 23 29
16 20 26
16 19 25
14 17 22
19 23 30
18 22 28
16 20 26
18 22 28
13 15 20
15 19 24
15 18 23
15 19 24
17 20 26
14 17 22
15 18 24
17 21 27
13 16 20
15 18 23
19 23 29
17 21 26
18 22 28
15 18 24
16 20 25
16 20 25
16 20 25
17 21 27
16 20 26
17 21 27
17 21 28
18 22 28
19 23 29
17 21 26
16 21 28
18 22 29
19 24 30
15 19 25
19 23 29
20 25 31
22 27 35
16 19 25
19 23 30
19 23 30
20 25 32
17 20 26
19 24 31
20 25 32
19 23 30
16 20 26
15 19 24
17 21 27
17 21 26
17 21 27
17 21 28
19 24 30
20 25 32
20 24 31
19 23 30
17 21 27
17 21 28
19 23 30
16 21 27
18 22 29
18 23 29
22 27 34
19 24 32
20 25 32
19 24 31
19 24 31
20 25 32
17 21 26
19 24 31
19 23 30
20 25 33
18 23 29
19 23 30
19 24 31
20 25 32
16 20 26
19 24 31
20 25 32
17 21 28
18 22 28
19 23 30
20 25 32
20 25 32
22 27 35
20 25 32
19 23 30
18 22 29
20 25 32
22 27 35
20 24 31
21 27 35
21 26 34
17 21 27
18 23 30
22 27 35
22 27 35
22 28 36
19 24 31
21 26 34
17 22 28
22 27 35
22 27 36
20 26 33
20 25 32
22 27 34
20 26 33
21 26 34
19 24 31
21 26 33
21 26 34
21 26 34
22 27 35
21 26 33
20 25 32
17 21 28
19 23 31
21 26 34
22 28 36
22 28 36
20 26 33
21 26 34
20 26 33
22 28 36
21 26 33
19 23 30
23 29 37
24 30 39
21 26 33
19 23 31
21 26 35
20 26 34
22 28 37
21 26 34
23 28 36
20 25 32
22 27 35
22 27 35
22 28 36
22 28 36
19 24 32
20 25 33
21 26 34
22 27 35
20 26 34
21 26 33
19 23 30
23 29 38
20 26 33
22 27 35
25 31 40
23 29 38
20 25 32
22 28 36
21 26 35
18 23 29
22 27 35
21 26 34
22 28 36
21 27 35
20 26 34
23 28 36
22 28 36
23 29 38
22 27 35
22 27 35
23 29 38
24 29 38
21 27 35
22 27 35
21 26 34
24 30 40
22 27 35
23 29 38
23 28 37
23 29 37
24 30 39
23 28 36
24 30 38
23 29 38
21 26 33
21 26 34
22 28 36
22 27 35
22 27 35
25 31 41
22 27 36
24 30 40
23 29 37
22 28 36
24 30 39
21 26 34
20 25 32
24 30 39
21 27 35
21 26 35
22 27 35
23 29 38
25 31 40
21 26 34
21 26 34
22 28 36
24 30 39
21 26 34
24 30 39
18 23 29
23 29 38
25 31 40
25 31 41
23 28 37
23 29 37
23 29 38
23 29 38
21 27 36
24 30 39
22 27 36
21 27 35
20 25 32
22 27 36
22 28 36
19 24 32
24 30 39
22 28 36
22 28 37
23 28 37
20 26 34
22 27 35
23 28 37
23 28 36
24 30 39
19 24 32
22 27 36
23 28 37
22 27 35
20 25 33
23 29 37
22 28 36
21 27 35
22 27 36
21 26 34
20 26 34
22 28 36
22 28 36
22 27 36
22 27 36
22 27 36
22 28 37
23 28 37
22 28 36
23 29 38
20 25 32
20 25 32
22 27 35
21 26 34
22 27 35
21 26 34
24 30 38
23 28 35
19 23 30
20 25 32
19 25 33
20 25 32
23 29 37
21 27 35
21 25 33
22 28 36
19 23 31
22 27 35
23 29 37
20 24 31
22 28 36
20 25 32
19 24 32
20 24 31
21 26 34
21 26 34
18 22 29
21 26 34
19 24 31
21 26 33
22 27 35
19 23 30
19 24 32
18 22 29
22 27 35
20 25 32
22 27 34
20 26 33
20 25 33
18 22 28
20 25 32
19 24 30
19 23 30
20 25 32
21 27 34
18 22 29
17 21 28
16 20 26
20 24 31
20 24 31
19 23 30
19 23 30
18 23 30
17 21 28
19 23 30
19 23 30
17 21 28
18 22 28
17 21 27
14 18 24
18 22 29
21 26 33
18 23 29
17 21 27
21 26 34
16 20 25
19 24 30
19 24 31
17 21 27
20 24 31
21 26 33
18 22 29
22 27 34
18 22 28
19 23 29
19 24 31
17 21 27
14 17 22
17 21 27
18 22 28
17 21 27
18 23 29
19 23 30
18 23 29
15 19 25
19 23 29
19 24 31
17 21 27
17 21 27
14 17 22
18 22 28
18 22 28
18 22 29
15 19 24
15 18 24
16 20 26
17 21 27
20 24 31
15 19 24
15 18 22
16 19 25
16 20 25
18 22 28
14 17 22
16 20 26
16 19 25
14 18 22
18 23 29
17 21 27
16 20 27
18 23 29
16 20 26
17 21 27
16 20 25
13 16 21
14 17 22
16 19 25
16 20 25
17 21 27
21 26 33
19 24 31
13 16 21
15 19 24
17 21 26
16 20 26
15 18 23
16 20 25
16 20 26
14 17 21
14 17 22
14 18 23
15 18 23
18 23 29
14 17 22
16 20 26
12 15 19
17 21 27
16 19 24
11 14 18
16 20 25
17 20 26
19 24 30
17 21 26
15 18 22
17 20 26
15 18 22
16 20 25
17 20 26
13 16 21
14 18 23
16 20 25
15 19 24
15 18 24
14 17 23
20 24 31
17 20 26
17 21 28
14 17 22
18 22 29
13 16 20
18 22 28
15 18 23
16 20 25
18 22 28
16 20 25
18 22 28
17 21 26
16 20 25
18 22 28
16 20 25
18 22 27
15 18 24
16 20 25
20 25 32
18 22 29
20 24 30
19 24 30
13 16 21
14 17 22
16 20 27
17 21 27
15 19 24
16 20 26
21 25 32
18 22 28
18 22 28
16 20 26
16 19 24
17 22 28
17 21 28
18 23 30
17 21 28
14 18 23
17 21 28
17 21 27
16 20 26
18 22 28
17 22 28
19 23 30
18 23 29
17 21 27
16 20 26
20 24 31
15 18 23
20 25 32
16 20 26
18 22 29
18 22 29
18 22 29
17 21 27
16 20 26
19 23 30
18 23 29
17 21 27
20 25 32
17 21 27
18 22 29
22 28 36
18 22 28
19 24 31
22 27 35
20 24 31
19 23 30
19 24 31
19 24 31
20 25 33
20 25 32
19 24 31
18 22 28
20 24 31
19 23 30
23 28 36
20 25 32
18 23 30
20 25 32
21 26 34
18 23 30
20 24 31
20 25 32
20 25 32
21 27 35
20 25 33
19 24 31
18 23 31
21 26 33
19 25 33
22 27 35
20 25 33
19 23 30
21 26 33
23 29 37
21 27 34
23 28 37
20 25 32
22 28 37
20 25 33
22 27 35
21 26 35
20 25 33
23 28 36
21 26 34
19 24 32
17 21 27
20 25 33
22 28 36
20 26 33
22 28 36
19 24 31
19 24 31
23 29 37
23 29 38
22 28 36
20 25 33
21 26 34
22 28 37
21 27 35
18 23 30
24 29 38
21 27 35
22 28 36
22 28 36
19 24 31
22 27 35
21 26 34
21 26 33
23 28 36
21 27 35
21 27 35
20 25 32
19 24 32
22 27 35
23 28 37
21 26 34
23 29 38
21 26 34
21 26 33
24 30 39
22 28 36
20 26 34
20 25 33
24 30 38
23 28 37
22 28 36
24 30 39
23 28 37
22 28 36
23 29 38
21 27 35
24 30 39
20 25 32
25 31 40
20 26 34
22 28 36
20 25 33
23 28 36
18 23 30
24 30 40
21 27 35
23 29 37
24 29 38
22 27 35
20 25 33
22 28 36
24 29 38
24 29 38
23 28 37
20 25 33
24 30 39
21 26 34
23 29 37
23 28 36
24 31 40
21 27 35
23 28 37
24 30 38
22 28 36
20 26 33
24 30 39
23 29 38
21 27 35
23 29 37
22 27 35
22 27 35
21 26 34
23 29 37
20 25 33
24 30 39
22 27 35
21 26 34
22 27 35
23 28 36
21 26 34
20 26 34
24 30 39
24 30 39
20 25 33
22 28 36
26 32 42
20 25 32
22 27 35
24 29 38
23 29 38
23 29 38
22 27 35
22 28 36
21 26 34
23 28 37
24 30 40
21 26 33
24 30 39
21 26 34
23 29 37
21 26 35
24 29 38
23 29 37
20 26 33
22 28 36
22 28 36
21 26 34
21 27 35
19 23 31
20 24 31
20 25 34
20 25 33
19 24 32
21 26 34
20 25 33
24 29 38
24 30 39
18 23 31
22 27 35
19 23 30
19 24 31
22 27 35
23 29 37
22 28 36
23 29 37
23 29 38
22 28 36
20 25 32
21 26 34
20 24 32
20 24 31
18 22 28
22 28 36
22 28 35
18 23 30
20 25 32
22 27 35
18 22 29
21 27 35
21 25 33
20 25 32
22 27 35
19 24 31
23 29 38
21 27 35
22 27 35
23 29 38
23 28 37
20 25 32
17 22 29
19 24 31
20 25 32
21 26 34
20 24 31
22 27 36
21 25 33
20 25 33
18 23 30
23 29 37
19 23 30
19 24 31
20 25 33
19 23 30
20 25 33
19 24 31
21 26 33
19 25 32
20 25 32
22 27 35
23 28 37
22 27 35
20 25 32
15 19 25
16 20 27
21 26 33
20 25 32
18 23 29
21 26 34
18 22 28
18 23 29
18 22 28
21 25 33
18 23 29
20 26 33
18 23 29
20 25 32
19 24 32
17 22 29
19 23 30
22 27 35
15 18 24
21 26 34
21 26 34
20 25 32
17 21 27
17 21 27
19 23 29
17 22 28
18 22 28
22 27 35
21 26 33
17 21 28
18 22 28
19 24 30
19 23 30
16 20 26
19 23 29
20 25 32
16 20 26
17 22 28
21 26 34
17 22 28
18 22 29
17 21 28
18 22 28
17 21 27
19 23 30
17 21 27
17 21 27
16 20 26
16 20 26
17 20 26
18 23 29
17 21 27
17 21 28
16 20 26
19 24 31
15 19 24
17 21 27
19 23 30
16 20 25
20 24 30
15 18 23
16 20 26
20 24 31
16 20 26
16 20 26
17 21 27
14 17 21
19 24 30
16 20 25
15 18 24
14 17 22
14 18 22
16 19 25
16 19 24
16 20 26
14 17 22
16 19 24
18 21 27
16 20 25
16 20 26
16 20 26
17 21 27
17 21 27
18 22 28
17 20 25
18 22 28
17 21 27
15 19 24
15 19 25
15 18 23
17 21 27
15 18 23
14 17 22
15 18 23
15 18 23
16 20 26
18 22 28
15 18 24
16 19 24
15 18 24
17 20 26
15 18 23
17 21 27
19 23 29
17 20 26
16 20 25
15 18 23
17 20 26
17 21 27
13 17 22
18 22 28
15 19 24
17 20 26
15 18 24
16 20 25
14 18 23
16 20 25
15 19 24
19 23 30
17 21 27
16 19 25
18 22 28
19 23 30
15 18 24
15 19 25
14 17 22
16 19 25
15 19 24
16 19 25
18 22 28
17 21 27
17 21 27
16 19 25
17 21 27
14 17 23
14 16 21
19 23 30
20 24 30
17 21 27
20 24 30
17 21 26
18 23 29
18 22 29
19 24 31
17 21 27
16 19 25
17 21 27
19 23 29
15 19 25
17 21 26
17 20 26
18 23 29
16 20 26
17 22 29
19 23 29
19 24 31
17 21 27
17 21 27
19 24 31
21 26 33
18 22 28
18 22 28
17 22 28
18 22 29
16 20 26
17 22 28
18 23 30
19 23 30
23 28 36
19 23 30
22 27 35
18 23 29
18 22 29
18 23 30
19 23 30
20 25 32
21 26 34
18 22 29
20 25 33
19 23 30
19 23 30
16 20 26
21 27 34
19 23 30
16 20 27
21 26 34
19 24 30
21 26 33
20 25 33
19 23 30
20 25 32
22 28 36
19 24 30
17 21 27
18 23 29
20 26 34
20 24 32
19 24 31
20 25 32
17 21 26
20 25 33
20 26 33
21 26 34
20 25 32
20 25 33
23 29 37
21 26 33
18 22 29
18 23 29
22 27 35
20 25 33
20 25 32
20 25 32
22 27 36
21 26 34
21 25 33
20 25 31
22 27 35
22 27 35
23 29 37
22 27 35
22 28 36
21 27 34
21 27 35
21 26 34
20 26 34
20 25 33
19 24 31
22 27 36
20 25 33
22 28 37
23 29 37
22 27 35
22 27 34
20 24 31
22 27 35
21 26 34
22 27 35
24 30 39
21 26 33
24 29 38
22 28 37
22 27 35
22 28 36
23 29 37
22 27 35
22 28 37
24 30 39
21 26 34
22 27 35
20 26 34
22 27 36
21 26 34
22 28 36
20 25 32
21 27 35
24 30 39
22 28 38
24 30 38
22 27 35
23 29 36
19 24 31
21 26 35
23 29 38
21 27 35
25 31 40
20 25 32
22 28 36
21 26 34
20 25 33
22 28 36
24 30 38
22 28 36
20 25 32
21 27 35
24 30 39
24 30 40
25 31 41
20 25 33
21 27 35
23 29 37
25 31 41
22 27 35
25 31 41
22 28 36
23 29 38
23 29 37
22 27 35
21 26 34
25 31 40
24 30 39
23 29 38
22 27 35
23 28 36
25 31 40
20 26 34
22 28 36
24 30 39
24 30 39
21 27 35
22 28 36
21 26 34
22 27 36
22 28 36
23 29 37
23 28 37
20 25 32
22 27 35
23 29 37
20 25 33
22 28 36
23 29 38
22 27 36
22 28 36
21 27 35
20 25 33
24 30 39
23 28 37
25 31 40
23 28 36
25 31 40
20 25 32
25 31 40
18 22 29
22 28 35
20 25 32
24 30 39
22 27 36
22 28 36
22 28 36
23 29 38
23 29 38
23 29 39
19 24 32
18 22 29
20 26 34
22 27 35
21 27 35
21 26 34
23 29 37
25 31 40
22 27 35
19 24 31
23 28 36
22 27 35
22 27 35
21 27 35
22 28 36
21 26 34
21 26 33
22 27 34
21 27 35
21 26 34
23 29 37
18 23 30
21 26 34
24 30 39
20 25 32
22 27 36
19 23 30
19 24 31
22 27 34
21 26 33
22 28 37
22 27 34
20 25 33
23 28 37
21 26 33
21 26 34
19 23 30
18 23 30
22 27 35
21 26 34
21 27 34
20 24 32
19 24 32
21 26 34
21 26 33
22 27 35
19 23 31
22 27 36
18 23 30
20 25 32
20 25 33
24 30 38
17 22 29
20 25 32
20 25 32
18 22 29
18 22 29
18 23 29
18 23 30
21 27 35
18 23 29
20 25 32
21 26 34
19 24 31
22 27 35
22 27 34
18 23 29
19 24 31
21 26 34
18 22 28
21 25 33
17 22 28
17 22 28
18 22 29
20 25 33
20 25 32
19 24 30
22 27 34
17 20 26
19 23 30
20 26 34
18 22 29
18 23 30
18 23 30
19 24 31
19 24 31
19 24 31
22 27 35
18 23 30
18 22 29
19 24 31
18 22 29
20 25 32
20 24 31
16 20 26
18 22 28
16 20 25
20 24 31
18 23 29
19 23 30
21 25 33
17 21 28
19 23 30
17 21 26
19 24 30
20 24 31
18 22 29
19 24 31
18 23 30
17 21 27
14 17 22
17 21 27
21 25 32
18 22 28
17 21 27
17 21 27
16 19 25
17 21 27
14 18 23
18 22 28
16 19 25
19 23 29
14 18 23
17 20 26
16 20 25
17 21 26
19 23 29
18 23 30
20 25 31
17 22 28
15 18 24
16 20 25
21 27 34
19 23 30
17 21 27
15 18 24
20 24 31
17 20 26
19 24 30
18 22 28
17 21 27
15 19 24
16 20 26
20 25 32
16 20 26
20 24 30
17 21 27
14 17 22
17 21 26
15 19 24
16 19 25
21 25 33
19 23 29
15 18 23
17 21 27
17 21 27
17 21 26
17 21 26
16 19 25
15 19 25
17 21 27
16 19 24
15 18 23
16 19 25
15 19 24
15 19 24
13 16 21
17 21 26
15 18 23
17 21 27
16 19 24
16 20 25
16 19 25
17 21 27
14 17 22
15 18 23
14 17 21
16 19 25
17 21 27
16 19 24
18 22 28
15 18 23
18 22 27
16 19 24
16 20 25
17 21 26
16 20 25
12 15 20
14 18 23
16 19 25
15 19 24
18 22 29
18 23 29
18 22 28
20 24 31
19 23 30
18 22 28
16 20 25
15 19 24
17 20 26
18 22 28
17 21 27
19 24 31
18 22 28
17 21 27
17 21 27
19 23 29
20 24 32
16 20 26
20 24 31
19 23 30
13 17 22
17 21 27
19 23 30
17 21 28
19 23 29
17 21 26
19 23 30
18 22 28
18 22 29
18 22 28
17 21 27
19 24 31
19 23 29
18 22 29
18 23 29
22 27 34
21 26 33
19 24 31
22 27 35
15 18 23
18 23 29
21 26 33
20 25 32
20 25 33
20 25 32
18 23 29
21 26 33
18 22 29
19 24 30
18 22 29
18 23 30
19 23 31
19 24 30
19 23 29
18 23 30
19 23 30
19 24 31
22 28 36
19 24 30
21 26 34
19 24 30
19 24 32
21 26 34
19 23 30
18 23 29
17 21 28
18 23 30
20 25 33
21 26 34
20 25 32
20 26 34
19 24 32
23 29 38
22 28 36
21 25 33
19 24 30
18 23 31
20 25 33
21 26 34
17 21 28
20 25 33
22 27 35
22 28 35
22 27 36
21 25 33
21 27 35
20 25 33
19 24 32
20 25 33
19 24 31
20 25 33
20 25 32
21 26 34
20 25 32
18 23 30
21 25 32
21 26 34
21 26 34
23 28 37
24 30 38
22 28 36
19 24 30
20 26 33
21 26 34
23 28 37
17 21 27
21 26 34
21 27 35
20 25 32
20 25 33
21 26 34
23 28 36
22 28 37
19 24 31
20 26 33
18 23 30
25 31 39
21 26 35
22 28 36
21 26 33
21 26 34
23 28 36
21 26 33
22 28 36
21 27 35
23 28 37
23 28 36
21 27 35
21 26 34
23 29 37
21 27 34
23 29 37
22 27 35
25 31 40
22 28 37
23 29 37
23 28 37
22 27 35
22 27 36
21 27 35
24 29 38
21 27 35
22 28 35
23 29 38
22 28 36
25 30 39
22 28 36
21 27 34
20 26 33
24 30 39
23 28 36
23 29 38
23 28 36
23 29 37
23 29 37
22 27 36
23 29 37
25 31 40
23 28 36
21 26 33
24 29 37
27 33 43
22 28 36
24 30 39
23 29 38
21 26 35
23 29 37
23 28 36
21 27 35
23 29 37
23 29 38
23 29 38
23 30 39
22 28 37
23 29 37
24 30 39
22 28 37
23 28 36
24 30 40
24 30 38
23 30 39
20 25 32
20 26 33
22 28 36
22 28 36
22 28 36
21 27 35
25 31 40
23 29 37
20 26 33
22 27 35
22 27 35
19 24 31
24 29 38
25 31 40
21 26 34
20 26 34
23 28 36
21 27 35
23 28 37
23 29 38
22 27 35
21 26 33
22 27 35
20 24 32
22 27 34
22 28 36
22 28 36
21 26 33
20 25 32
20 25 32
23 29 38
19 24 32
19 24 31
22 27 36
23 30 39
20 25 33
21 27 35
20 26 34
22 27 35
22 28 36
22 28 37
22 27 35
22 27 35
22 27 35
22 28 36
23 29 39
20 26 34
20 24 31
21 26 34
22 27 36
23 28 36
23 29 37
21 26 34
20 25 32
23 28 36
20 25 32
19 24 31
20 25 32
21 26 34
23 28 36
22 27 36
21 26 34
19 24 32
20 24 32
21 27 35
18 23 30
21 27 34
20 25 33
21 26 34
21 26 34
21 27 35
19 23 30
18 23 30
19 24 31
19 23 30
21 26 34
21 26 34
21 26 33
19 24 32
21 27 35
21 26 34
19 24 31
20 25 33
21 26 34
20 24 32
18 22 29
22 27 35
18 22 29
19 24 32
19 23 30
19 24 31
21 27 35
19 24 31
23 28 36
21 26 33
19 24 31
18 22 29
17 22 28
18 22 28
20 25 33
17 21 27
19 24 31
20 25 32
17 21 27
21 26 34
19 24 31
19 24 31
16 21 27
19 24 31
18 23 30
21 26 33
19 24 31
17 21 27
20 25 32
18 22 28
19 23 30
17 21 28
20 25 32
20 24 31
17 21 27
20 25 32
17 21 27
16 20 26
18 23 29
20 25 31
16 20 27
18 23 30
18 23 30
17 22 28
19 23 29
18 22 28
18 23 29
17 21 27
17 21 27
20 25 32
19 23 29
18 22 29
17 21 27
16 20 26
13 16 22
18 22 28
15 19 25
18 22 29
19 23 30
17 22 28
19 24 30
17 22 28
17 21 27
16 20 26
20 25 32
17 20 25
22 27 35
18 22 28
16 19 24
16 20 27
17 21 28
15 18 23
18 21 27
17 20 26
16 20 26
20 25 32
19 23 30
15 18 24
16 19 25
19 23 29
15 19 25
17 21 27
18 22 28
18 21 27
16 20 26
15 18 24
12 15 20
16 20 26
18 22 29
17 21 28
17 21 28
18 22 28
17 21 26
15 18 24
17 21 27
16 19 25
17 21 26
15 18 22
17 20 25
18 22 28
16 20 25
17 21 28
16 19 25
15 18 24
14 18 23
16 20 26
16 20 26
15 19 24
18 23 29
17 21 27
16 20 26
15 19 24
17 20 26
14 18 23
19 23 29
15 18 23
18 22 29
17 21 26
19 24 30
19 24 30
14 17 21
14 18 22
19 23 30
19 24 30
14 17 22
17 20 26
16 20 25
14 18 23
19 23 29
16 19 25
14 18 22
16 19 25
15 18 24
15 19 24
18 22 27
16 19 25
17 20 26
17 22 28
17 20 26
14 17 22
18 22 28
17 20 26
13 16 21
17 21 26
16 20 25
20 24 31
18 23 30
16 20 25
16 20 26
17 21 27
16 20 26
15 19 24
16 20 25
19 23 30
18 23 29
17 21 27
19 23 30
17 21 27
18 22 29
14 18 23
17 22 28
20 25 32
17 21 27
19 23 30
17 21 27
21 26 33
17 21 28
18 23 29
16 21 27
18 22 28
19 24 32
22 27 35
17 22 29
20 24 31
18 22 29
18 22 28
18 23 30
17 22 28
21 26 34
19 23 30
21 26 34
18 23 30
20 25 33
17 21 27
17 22 28
16 20 27
16 21 27
18 22 29
22 27 34
20 25 32
18 23 30
22 26 34
19 23 30
20 25 33
20 25 33
19 24 31
20 24 31
18 23 30
20 24 32
17 21 28
22 27 35
20 24 32
19 24 31
22 27 35
21 26 33
19 24 32
22 27 35
18 22 28
21 27 35
20 25 32
19 23 30
21 26 33
20 25 32
21 27 35
21 26 33
23 28 37
18 23 29
19 24 31
18 22 28
22 28 36
21 27 35
19 24 30
22 27 35
23 29 37
24 30 38
17 21 27
20 25 33
22 28 36
20 25 33
21 26 33
20 25 32
21 25 33
22 28 36
20 25 32
20 25 32
19 25 32
21 26 34
20 25 33
21 26 34
19 23 30
21 26 34
22 28 36
22 27 35
20 26 33
25 32 41
22 28 36
22 27 36
21 26 34
23 28 36
24 30 39
20 25 33
21 27 35
23 29 38
21 26 34
20 25 33
22 28 36
21 26 33
20 26 33
21 26 34
22 27 35
21 27 35
20 24 32
20 25 33
23 29 38
23 29 37
21 26 34
22 27 35
24 30 39
20 25 33
23 29 38
21 27 35
18 22 29
21 27 34
22 27 35
22 28 37
21 26 34
22 27 36
23 28 36
23 28 37
23 28 37
22 27 35
21 26 34
22 27 36
22 27 36
23 29 38
21 26 34
20 25 32
22 28 36
20 24 31
22 28 36
22 28 36
20 25 32
22 27 35
21 26 33
23 28 37
21 26 33
21 26 34
21 27 34
26 32 42
23 29 37
24 30 39
25 31 39
22 27 34
20 25 32
23 29 38
24 30 39
24 30 39
20 26 34
23 29 37
23 28 37
19 24 32
22 27 35
22 28 37
21 26 33
23 28 36
20 25 33
23 30 39
23 29 37
21 26 34
24 30 39
23 29 38
22 28 36
24 30 38
24 30 39
23 29 38
22 28 36
20 26 33
21 27 36
22 28 36
24 30 38
21 26 34
22 27 35
22 27 36
20 25 33
25 31 39
21 26 35
21 27 35
20 25 33
21 27 35
21 27 35
20 25 32
24 30 39
23 28 36
20 25 32
23 29 38
19 24 31
22 27 35
22 27 34
22 28 36
24 30 39
20 25 32
20 25 33
21 26 34
20 25 32
16 21 27
19 24 31
21 26 34
20 25 32
20 25 32
22 27 35
23 29 38
19 24 31
24 30 39
24 29 37
20 25 33
23 28 37
22 28 35
21 26 33
19 24 31
20 25 33
23 29 38
21 27 34
22 28 36
23 28 36
21 27 35
20 24 31
22 27 35
20 25 33
20 25 32
20 25 33
20 24 32
21 26 34
24 29 38
20 24 31
19 24 31
20 25 32
22 27 35
20 25 32
21 26 33
17 21 28
20 25 32
18 23 30
22 27 34
20 25 32
21 26 34
19 24 31
20 26 34
20 25 33
16 20 26
21 27 35
20 25 32
21 26 34
21 26 33
21 26 33
18 22 29
20 25 32
18 23 30
22 27 35
20 24 31
22 27 35
21 26 34
23 29 37
22 27 34
17 22 28
20 25 32
17 21 27
20 25 32
20 25 32
19 24 31
18 23 30
20 25 32
21 26 33
20 25 33
21 25 32
18 23 29
20 25 32
19 24 31
20 25 32
16 21 27
16 20 26
20 25 32
20 25 32
21 26 33
18 22 28
20 24 32
16 20 25
16 20 25
17 21 28
18 22 29
19 23 30
18 22 29
20 24 31
21 25 32
16 20 26
20 24 32
17 21 27
14 17 22
20 24 31
20 25 32
17 21 27
18 22 28
19 23 30
19 24 31
18 22 28
17 21 27
18 22 29
15 19 25
15 19 25
15 18 23
18 22 28
16 19 25
18 22 28
17 21 28
14 17 22
19 24 31
17 21 26
17 21 27
19 23 30
16 20 26
14 17 22
19 23 30
17 21 27
19 23 30
17 21 27
17 21 27
18 22 28
18 22 27
15 18 24
14 17 21
17 20 25
15 19 25
16 20 25
15 18 23
18 22 29
16 19 25
15 18 23
15 18 23
16 20 25
15 18 23
16 20 26
16 20 26
15 18 23
16 20 26
17 21 27
17 21 27
18 22 28
14 17 22
18 22 28
16 20 25
17 21 26
16 19 25
17 20 26
18 22 28
17 20 26
17 21 26
13 16 21
16 20 25
14 18 22
18 22 28
16 20 26
16 20 26
18 23 29
17 21 27
13 16 21
16 19 25
15 18 24
18 23 29
16 20 26
17 21 26
21 25 32
16 19 24
16 19 24
16 19 24
16 21 27
17 21 27
19 22 28
16 20 26
21 25 33
18 22 28
20 25 32
15 19 24
16 20 26
19 23 30
17 21 26
16 19 25
20 25 32
18 22 29
18 23 30
18 23 29
18 21 27
16 20 26
16 20 26
16 20 26
18 22 28
18 22 29
17 21 26
16 19 25
14 17 22
16 20 25
16 20 27
15 18 23
15 18 24
17 21 27
15 19 24
16 20 26
18 22 28
21 25 33
17 21 27
16 20 26
19 23 30
20 24 31
18 22 28
19 23 29
19 23 30
19 24 31
20 24 31
18 22 28
17 21 28
17 21 27
21 26 33
18 23 29
22 27 35
19 24 31
21 26 33
19 23 29
20 25 32
21 26 34
16 20 26
19 24 31
19 23 30
16 20 27
19 23 29
21 26 34
19 24 30
19 23 30
19 23 30
17 21 28
17 22 28
19 23 30
18 23 30
20 24 32
18 23 30
22 27 34
20 25 32
17 22 28
20 24 31
22 27 35
17 21 28
20 25 32
19 23 30
18 22 28
19 23 30
17 21 28
19 24 31
21 27 35
21 26 34
21 26 33
21 26 34
22 27 35
22 28 36
19 23 30
21 26 33
20 25 32
20 25 32
20 24 32
21 26 33
20 26 33
21 26 33
18 23 29
22 28 36
21 26 34
18 22 29
21 27 36
20 25 32
21 26 34
19 24 31
21 26 34
21 26 33
20 25 33
20 26 34
23 29 37
23 28 36
19 23 30
21 26 34
22 28 36
18 23 30
21 27 35
20 25 33
19 23 30
20 25 32
20 25 33
19 24 31
24 29 37
20 25 32
22 27 36
21 26 35
21 25 33
23 28 37
21 26 34
20 25 33
23 29 38
23 29 37
24 29 37
22 27 34
20 25 33
20 25 32
22 27 35
22 28 37
22 27 36
22 28 36
23 28 36
20 25 32
22 27 35
22 28 36
22 28 36
25 31 40
23 29 38
21 26 34
22 28 36
23 29 37
24 30 38
23 29 37
22 28 36
22 27 35
22 28 36
23 29 38
21 26 34
21 27 35
17 22 28
23 28 36
23 28 37
22 28 36
25 31 41
22 28 36
20 25 33
22 27 35
20 25 32
23 29 38
22 27 35
22 27 35
24 30 39
23 29 38
22 28 36
22 26 34
22 27 35
21 26 34
25 31 40
21 26 34
23 29 38
26 32 42
21 27 34
22 28 36
23 28 37
21 26 35
20 26 34
20 25 32
23 29 37
26 32 42
22 27 35
22 28 36
21 27 34
22 28 37
24 30 38
24 30 39
20 26 34
21 27 35
23 29 38
25 32 41
22 28 37
26 32 41
23 28 37
20 25 33
21 26 34
22 27 35
22 27 35
22 28 37
24 30 39
21 26 34
22 27 35
24 30 39
21 26 35
25 30 38
23 29 38
21 26 33
24 30 40
19 24 31
24 30 40
22 27 36
22 28 36
20 24 31
21 26 35
22 28 36
20 25 33
23 28 37
20 24 32
24 30 38
23 28 36
24 29 38
20 25 33
20 26 34
22 27 35
24 30 39
20 25 33
21 26 34
23 29 37
24 30 39
18 23 29
21 26 34
19 24 32
23 29 37
23 29 37
20 24 31
23 29 37
19 24 31
18 22 29
18 22 29
20 25 32
21 26 34
21 26 34
20 25 32
23 29 37
19 24 31
20 25 33
21 26 34
19 24 31
22 27 35
20 25 33
21 26 34
23 28 36
21 26 34
21 26 33
21 26 34
20 25 32
22 28 37
21 26 33
18 23 31
23 29 37
23 29 37
20 25 32
21 26 34
20 25 32
22 28 36
21 26 34
20 24 31
21 25 33
20 25 32
22 27 35
21 26 34
18 23 30
19 23 29
17 21 27
23 29 38
21 27 35
18 23 30
19 23 30
19 24 31
20 25 32
20 25 33
21 26 34
20 24 31
21 26 33
21 25 33
20 24 31
20 25 33
16 20 25
19 24 31
22 27 35
20 24 31
20 25 32
19 24 31
21 26 34
18 23 30
18 23 30
16 20 25
16 19 25
20 25 32
18 22 28
19 23 30
22 27 35
15 19 25
18 23 29
16 20 26
21 26 33
17 22 29
16 20 26
18 22 28
20 24 31
18 23 29
18 23 30
20 25 33
17 21 27
20 24 32
18 23 29
19 23 30
21 26 33
18 22 28
14 18 23
16 19 25
16 20 26
18 23 29
19 23 30
18 23 29
18 22 28
16 19 25
17 20 26
16 20 26
18 22 29
15 18 24
16 20 27
17 21 27
18 22 28
20 25 32
16 20 26
18 23 29
16 20 25
17 21 27
13 16 21
20 24 31
17 21 27
17 20 26
17 21 27
16 20 25
14 18 23
20 24 31
17 21 27
18 23 29
19 23 29
18 22 28
17 21 26
19 24 31
20 25 32
17 21 27
20 24 30
16 19 25
17 20 26
15 19 24
18 23 29
14 18 23
17 21 27
18 22 27
18 23 29
16 19 25
14 18 23
15 18 23
15 18 23
16 19 25
17 21 27
18 22 28
14 17 22
17 20 26
16 20 25
16 20 25
17 20 26
15 19 24
18 22 28
15 19 24
18 21 27
18 22 28
17 21 28
16 20 26
14 17 22
19 23 30
18 22 28
15 18 23
16 20 25
17 21 27
15 19 24
16 19 25
17 20 26
16 20 26
17 21 27
17 21 27
14 17 22
18 22 28
17 20 26
15 18 23
17 21 27
16 20 26
17 21 28
17 21 27
20 24 31
18 22 28
17 20 26
15 19 24
18 22 28
19 23 29
17 21 27
20 25 31
16 19 25
17 21 27
18 22 28
18 22 28
16 20 25
19 23 30
19 24 30
18 22 29
17 20 26
16 19 25
20 25 32
16 19 25
19 23 30
17 21 27
16 20 26
16 20 26
19 23 30
19 23 30
18 22 29
18 22 28
20 25 32
17 21 28
22 27 34
18 22 28
20 24 31
17 21 27
19 23 29
18 22 29
18 22 29
20 24 31
16 20 25
19 24 30
17 21 27
19 24 31
21 26 33
17 20 26
16 20 26
18 22 29
19 24 30
18 22 28
19 24 30
17 22 28
19 23 30
18 22 29
19 24 31
20 25 32
19 24 31
18 22 28
19 23 29
21 25 33
22 27 35
19 23 30
19 23 30
20 25 32
18 23 29
18 22 28
18 23 29
18 22 28
19 23 30
18 23 29
23 29 37
17 22 28
20 25 33
19 24 31
23 29 38
21 26 34
21 26 34
20 26 34
19 23 30
17 20 26
19 23 30
21 26 34
17 22 29
20 25 33
21 26 34
20 24 32
22 27 35
19 23 30
23 29 38
24 29 38
21 26 33
21 26 33
20 25 32
23 28 37
22 27 35
20 24 32
22 28 37
20 25 33
20 25 33
23 28 36
23 28 37
20 25 32
24 30 39
21 26 34
23 28 37
23 28 36
22 27 35
22 28 37
22 27 36
22 27 35
19 24 31
16 21 27
23 28 36
18 23 30
23 28 37
20 24 32
22 28 37
20 25 32
20 25 32
23 28 36
24 30 39
19 24 31
23 28 36
21 26 34
20 25 32
22 27 36
19 24 31
21 26 33
22 28 35
19 24 31
20 25 33
23 28 37
20 25 33
22 27 35
19 24 32
21 27 35
17 21 28
23 28 36
24 29 38
20 25 33
21 27 35
24 30 38
22 27 35
22 28 36
21 27 35
23 29 37
22 27 35
23 29 38
24 30 39
22 27 36
22 27 35
21 26 33
23 29 38
22 27 35
20 25 32
21 26 34
22 28 35
22 28 37
19 24 31
21 26 34
23 29 37
23 29 38
22 28 36
23 29 37
24 30 39
21 26 33
24 29 38
24 30 38
22 28 36
24 30 39
22 27 36
20 26 33
24 30 38
21 26 34
22 27 36
22 28 37
24 30 40
23 29 38
24 30 38
23 28 37
22 28 37
23 30 39
22 28 36
22 28 36
22 27 35
20 25 33
23 28 37
24 30 40
23 29 37
19 24 32
21 26 34
24 30 40
21 27 35
21 26 33
20 25 33
22 27 35
24 29 38
22 27 36
24 30 38
23 28 37
21 26 34
20 25 32
22 28 36
21 26 34
23 29 38
23 29 37
22 28 37
21 26 33
23 28 36
23 29 37
21 26 34
23 29 37
24 30 38
21 26 35
21 26 33
20 26 34
22 27 35
23 29 37
20 25 32
23 29 38
20 25 32
23 28 37
21 26 34
22 27 35
19 23 30
23 28 37
22 27 35
23 28 37
22 27 36
24 29 38
19 24 32
20 25 33
20 25 32
21 27 35
24 30 38
20 25 32
22 27 36
19 24 31
21 26 33
21 25 33
20 25 32
20 25 33
22 27 35
20 25 33
22 28 36
19 23 31
23 28 36
21 26 34
22 27 35
20 25 33
18 22 29
22 28 36
21 26 34
21 26 35
21 27 34
23 28 37
19 24 32
18 22 29
22 28 36
19 23 30
20 26 33
22 27 35
20 25 33
23 28 36
22 28 36
21 26 33
21 25 33
19 24 31
19 24 31
19 23 30
17 21 28
23 29 37
21 26 34
22 27 35
19 23 30
20 25 32
19 23 30
20 25 33
20 25 33
17 21 28
19 24 31
20 25 32
19 24 32
20 25 32
20 24 31
20 25 33
19 24 31
21 26 34
21 26 34
19 24 31
20 26 33
20 25 32
20 25 33
18 23 29
20 24 32
18 22 28
21 26 33
19 24 31
22 27 35
19 23 30
18 23 29
17 20 26
19 23 29
15 18 23
20 25 33
18 22 28
17 22 28
17 21 27
17 21 27
20 25 32
16 21 27
17 22 28
17 21 27
19 24 31
16 20 27
19 23 30
18 22 28
18 22 28
19 23 29
18 23 29
20 24 31
16 19 25
17 22 28
20 25 33
20 24 31
18 22 29
18 23 29
17 21 26
18 22 28
17 21 27
18 22 28
16 20 25
16 19 25
18 22 29
17 21 26
17 21 27
18 21 27
17 21 27
18 22 28
15 19 24
17 21 27
18 22 28
13 16 20
17 21 27
17 21 27
20 24 31
17 21 27
16 19 24
19 24 30
17 21 27
17 21 27
19 24 30
16 20 26
16 20 25
17 21 27
18 22 28
14 18 23
17 21 28
16 19 25
14 17 22
16 21 27
16 20 25
16 20 26
16 20 26
20 25 31
13 16 20
17 21 27
17 20 26
15 18 24
15 18 23
17 20 26
16 20 26
14 17 21
20 25 32
16 20 25
16 19 25
14 17 22
19 23 30
19 23 29
17 21 26
17 21 27
16 20 25
17 21 27
15 18 24
14 17 22
19 24 30
17 21 26
19 24 31
19 23 29
17 21 27
13 17 22
17 21 27
18 22 27
20 24 31
18 22 28
14 18 23
19 23 30
17 20 26
15 18 23
16 20 25
15 18 24
18 21 27
17 21 26
18 22 28
18 22 28
17 21 27
15 19 24
15 18 23
17 22 28
18 23 29
16 20 26
18 22 28
14 17 22
16 20 26
16 20 26
17 21 27
19 23 29
19 24 31
17 22 28
19 24 30
19 24 31
18 23 29
17 21 28
16 20 26
18 22 28
18 23 29
18 22 28
19 23 30
16 20 26
18 22 28
16 21 27
20 25 31
16 20 26
23 28 35
15 19 25
21 26 33
17 21 28
19 24 30
18 23 29
19 24 31
17 21 27
16 20 26
19 23 30
17 21 27
18 23 29
19 23 30
19 24 30
20 25 31
18 23 29
18 22 29
20 25 33
17 21 27
21 27 34
19 23 29
18 22 28
19 24 31
19 24 31
19 23 30
17 21 28
17 21 27
21 26 34
19 24 31
18 23 30
18 23 30
21 26 34
17 22 29
20 25 32
21 26 33
17 22 28
19 24 31
19 24 31
20 25 32
18 22 29
19 24 30
21 26 33
18 22 29
21 26 34
21 27 35
20 25 32
19 23 30
22 27 35
21 26 34
20 24 32
19 24 31
21 26 34
19 23 30
17 22 29
20 25 33
20 25 32
21 25 33
20 25 33
18 23 30
21 26 34
19 24 31
21 26 34
20 25 33
20 25 32
23 28 37
21 26 33
22 27 35
22 27 35
23 28 36
20 25 33
20 25 32
19 24 30
22 27 36
21 26 34
22 27 35
20 25 33
20 26 34
21 26 33
22 28 36
20 25 32
22 28 37
18 22 28
21 26 34
22 28 37
22 27 35
19 24 30
22 27 35
21 26 34
22 28 36
21 26 34
22 28 36
20 25 33
21 25 33
19 24 32
22 27 36
23 29 38
20 25 32
22 28 36
21 26 34
20 25 33
21 26 34
23 28 37
21 26 34
20 25 33
19 23 30
24 30 39
22 27 35
23 28 36
23 29 37
21 27 35
20 26 33
23 28 37
23 29 38
21 26 34
21 26 34
23 29 38
22 28 36
23 28 36
24 30 39
22 28 36
20 25 32
22 27 35
24 29 37
22 28 36
21 26 34
23 29 38
23 29 38
22 28 36
23 29 38
22 28 37
21 26 34
22 27 35
24 30 40
23 29 38
21 26 34
23 29 38
21 26 34
23 28 37
22 27 35
24 31 40
23 28 37
23 29 38
22 27 35
23 29 38
21 27 36
23 29 38
22 27 35
25 31 40
23 28 36
22 27 36
24 30 39
23 28 37
21 27 34
22 28 36
24 30 38
23 28 37
22 28 36
24 30 38
23 29 37
20 25 33
22 28 37
22 27 35
24 30 38
21 26 34
23 28 36
21 26 33
21 27 35
21 27 35
22 27 35
21 26 33
22 27 35
24 30 39
24 30 38
20 25 33
21 26 34
21 26 34
21 25 32
23 29 37
22 27 35
23 29 38
21 27 35
22 27 35
22 27 36
24 30 39
22 27 35
23 29 37
22 27 35
20 25 33
22 27 35
21 26 34
23 29 38
21 26 33
20 25 33
21 26 34
20 25 32
22 27 35
22 27 35
21 27 35
21 26 34
21 26 34
21 27 35
20 26 33
18 23 29
22 27 36
19 24 32
24 30 38
24 30 38
21 26 34
24 29 37
22 27 35
20 25 33
18 22 29
21 26 34
23 29 37
21 26 33
21 26 33
20 25 33
19 24 32
21 25 33
22 27 35
23 28 36
21 26 33
23 28 37
20 25 33
22 27 34
19 25 32
20 25 33
21 26 35
19 24 31
20 25 32
22 27 35
18 22 29
20 25 33
22 27 35
22 28 36
19 24 31
21 26 34
16 20 26
18 23 29
19 24 31
19 23 31
19 24 31
21 27 34
23 28 36
17 22 28
21 26 34
23 28 37
20 25 33
20 26 33
20 25 33
17 22 28
21 27 35
22 27 35
18 22 29
21 26 34
20 25 32
18 22 28
20 25 32
18 22 28
17 21 27
19 24 31
18 23 30
22 28 36
19 24 31
20 24 32
20 25 32
16 20 26
19 23 30
20 25 32
20 25 32
19 23 30
19 23 29
18 23 29
18 23 29
14 18 24
18 22 28
18 22 28
21 25 32
18 22 28
18 22 29
18 22 29
18 23 29
17 21 27
18 22 28
19 23 30
19 23 30
18 22 29
19 23 30
19 24 31
18 22 28
18 23 29
19 23 30
17 22 28
20 24 30
19 23 30
18 22 29
20 25 32
19 23 29
15 19 25
16 21 27
15 19 25
17 21 27
18 22 29
18 22 28
15 19 25
19 24 31
14 17 22
16 20 26
17 21 28
19 23 30
18 23 29
18 22 28
17 21 26
20 24 31
15 19 24
18 22 29
19 23 29
19 23 29
18 22 27
14 18 23
18 22 28
18 22 29
15 19 24
17 21 27
18 22 28
15 19 24
18 21 27
17 20 26
17 21 27
18 23 29
18 22 27
16 20 26
13 17 22
16 20 26
16 20 26
14 17 23
17 21 27
16 20 26
18 22 28
16 20 26
15 18 23
16 20 26
17 20 26
17 21 27
17 20 26
15 19 24
19 23 30
16 19 25
17 21 27
14 17 22
17 21 26
15 18 23
16 20 26
17 21 26
16 20 26
19 23 29
14 18 23
19 23 30
17 21 27
18 22 28
18 22 29
15 18 23
14 17 22
18 23 29
16 19 25
17 20 26
20 25 32
16 20 25
14 18 23
18 22 28
18 22 28
20 24 31
17 21 27
16 20 26
15 19 25
13 15 20
18 22 29
19 24 31
16 20 26
17 21 27
18 22 29
17 21 28
17 21 27
19 23 30
18 22 28
20 25 32
22 27 34
18 22 28
17 21 27
19 24 31
16 20 25
17 21 27
16 20 26
19 23 30
19 23 30
18 22 28
16 21 27
18 23 29
18 23 29
16 20 26
18 22 29
18 22 28
18 23 29
18 22 28
19 24 31
20 25 33
18 22 28
19 23 30
16 20 25
17 21 27
15 18 24
19 24 31
21 26 33
19 24 31
17 21 27
22 27 35
19 23 30
16 20 26
17 21 28
19 24 31
22 27 35
20 25 32
19 24 31
20 25 33
20 25 32
18 23 30
21 27 35
21 26 34
21 26 34
18 22 29
21 26 34
22 27 35
21 26 34
19 23 30
21 26 33
19 23 30
23 28 36
19 24 31
21 26 33
18 23 29
21 26 33
23 28 37
18 23 30
19 23 30
21 26 33
18 23 29
19 24 30
20 25 32
19 24 31
21 26 33
17 21 28
18 23 30
19 24 30
22 27 35
19 24 31
21 26 34
21 25 33
20 25 32
24 29 37
19 23 30
19 23 31
21 27 35
22 28 36
19 24 31
22 27 35
20 25 32
21 26 34
24 30 39
19 24 31
22 28 37
20 25 32
20 25 33
19 23 30
22 28 36
21 26 34
22 28 37
19 24 31
22 27 35
22 27 35
20 25 33
21 26 35
23 28 37
23 29 38
20 25 32
22 27 35
22 28 36
20 25 33
21 26 34
23 28 36
21 27 35
22 27 36
22 27 35
23 29 38
20 24 31
21 26 34
25 30 39
22 27 35
21 26 35
22 28 36
21 26 33
22 28 37
21 26 33
21 26 34
21 26 34
21 26 34
23 29 37
22 28 37
24 30 39
23 28 37
19 23 30
22 27 35
24 30 39
21 27 36
23 29 38
26 32 40
22 27 35
18 23 30
23 29 38
22 27 35
23 28 36
20 25 33
24 30 39
25 32 41
23 29 38
21 26 34
21 27 35
20 25 32
22 28 36
24 30 39
22 28 36
22 28 37
22 28 36
23 28 36
21 27 35
21 27 35
24 30 39
21 26 34
24 30 39
20 25 33
25 30 39
23 28 37
21 26 33
20 25 33
23 28 36
22 27 35
21 26 35
20 25 33
20 25 33
23 28 37
19 24 31
22 27 35
23 28 37
21 26 34
21 27 35
22 28 36
22 27 35
21 27 36
22 27 35
22 27 36
20 25 33
24 30 39
24 29 38
23 29 38
21 26 35
22 27 35
21 26 34
24 30 39
22 28 37
26 32 42
20 24 31
22 28 36
26 32 42
22 27 35
22 28 37
23 28 37
22 28 37
20 25 33
20 26 34
20 26 34
23 29 37
20 25 33
20 24 32
21 26 35
22 28 37
22 27 35
23 29 38
21 26 34
24 30 38
23 28 37
23 29 38
19 24 31
20 25 32
21 26 34
25 31 40
23 28 37
21 26 34
20 25 33
21 27 35
19 24 31
20 25 33
21 26 34
21 26 34
18 23 30
22 28 36
22 27 35
20 25 32
21 26 33
21 25 33
20 26 33
21 26 34
21 26 34
19 24 31
19 23 29
20 25 32
24 30 39
18 23 30
21 26 33
21 27 35
19 23 30
20 25 32
19 24 31
19 24 31
19 24 31
20 25 32
22 27 35
22 27 35
18 23 30
21 26 34
21 26 33
19 23 30
21 26 34
19 23 30
18 23 29
21 26 33
21 26 34
20 25 32
19 24 31
20 25 32
21 27 34
21 25 33
22 27 35
20 25 32
21 26 34
18 23 30
20 25 33
19 24 31
19 24 30
20 25 33
21 26 33
18 23 29
18 23 30
21 26 33
22 27 35
16 20 27
18 22 28
20 24 32
19 24 31
19 23 30
19 23 30
18 22 29
21 25 33
19 24 30
18 23 30
17 22 28
20 24 31
21 26 34
18 23 29
19 24 31
20 25 32
21 26 34
18 23 30
17 21 28
20 25 33
21 26 33
20 25 33
20 24 32
22 27 34
18 23 29
20 24 31
19 23 30
19 23 29
20 25 32
19 24 30
19 23 30
18 22 29
17 21 27
20 25 32
20 25 33
16 20 25
15 18 23
15 19 24
17 21 27
18 22 28
17 21 26
19 24 30
19 23 30
20 24 31
19 23 30
15 18 24
16 19 25
16 19 24
16 20 25
16 19 25
17 21 26
14 18 23
17 20 26
16 20 26
13 17 22
21 25 32
15 19 24
13 16 21
17 21 27
16 20 25
18 22 29
17 21 27
15 19 24
19 23 30
17 22 28
16 20 26
18 22 28
18 22 28
18 22 28
17 20 26
19 23 29
14 18 22
18 22 28
16 20 25
17 21 27
17 21 27
15 19 25
15 19 24
16 20 25
17 21 28
16 20 25
17 21 26
15 18 24
15 18 23
18 23 29
15 18 23
19 23 29
16 19 24
16 20 25
18 22 29
17 21 27
17 21 27
16 19 25
18 22 28
18 22 28
19 24 31
17 21 27
15 19 24
16 19 25
13 17 22
15 19 24
17 21 27
18 23 29
19 23 29
19 24 30
19 23 30
13 16 21
17 21 27
19 23 29
15 18 23
15 19 25
18 22 28
19 23 30
15 19 24
21 26 33
16 20 26
18 22 28
17 20 26
14 17 23
15 19 24
16 20 25
17 21 27
18 22 28
20 24 30
17 21 26
17 21 28
19 23 29
22 26 33
16 20 25
16 20 26
16 20 26
22 27 34
16 20 26
19 23 30
14 18 23
16 20 26
16 19 25
18 22 28
18 23 29
16 20 26
17 21 27
16 20 26
18 23 30
16 20 26
17 20 26
13 16 21
20 25 31
19 23 30
17 21 27
19 24 32
17 20 26
18 23 29
18 22 29
19 24 31
21 26 34
20 25 31
20 25 32
19 23 29
15 19 25
17 21 27
18 22 29
20 25 32
21 26 34
17 22 28
20 25 32
20 25 32
18 22 29
18 22 29
22 27 35
19 24 31
18 23 29
19 24 31
20 25 32
20 26 34
18 22 29
19 23 29
19 23 31
19 23 30
17 22 29
21 26 34
22 26 33
18 23 30
17 22 28
19 24 31
18 22 29
20 26 33
20 25 32
20 24 31
19 23 30
20 24 31
22 28 35
18 23 29
20 24 32
19 24 31
20 25 33
23 29 37
20 25 33
18 23 30
19 24 32
20 24 31
19 23 30
24 29 37
19 24 31
20 24 31
18 23 30
18 22 29
18 23 29
20 24 31
21 26 34
18 22 29
22 27 35
20 25 32
18 23 30
19 24 31
22 28 36
19 24 32
23 28 37
21 26 35
21 27 34
25 31 40
22 28 37
17 21 27
21 26 34
21 26 34
22 27 36
22 27 35
21 27 35
21 26 34
23 28 37
21 26 34
23 29 37
22 27 35
23 29 37
23 29 37
21 27 35
20 25 33
20 25 33
22 27 35
21 26 33
24 30 39
23 28 37
19 23 31
21 26 34
20 24 31
22 28 36
18 23 29
22 27 34
25 31 39
23 29 38
24 29 38
20 25 32
23 29 37
24 29 38
23 28 37
25 31 40
21 26 34
20 25 33
23 29 37
23 29 37
22 27 34
21 26 34
21 27 35
23 30 39
24 30 40
19 24 31
21 27 34
23 29 38
24 30 39
23 29 37
23 29 38
22 27 36
21 27 35
23 28 36
22 28 36
23 28 36
22 28 36
24 30 38
20 25 32
23 29 38
20 26 34
23 30 39
24 29 38
23 28 36
25 31 40
20 25 33
24 30 39
22 28 36
20 25 33
22 28 36
23 29 37
24 30 39
23 29 37
21 25 33
23 29 38
22 27 36
22 28 36
24 30 39
21 27 34
22 28 37
21 26 34
23 29 38
21 26 35
23 28 37
22 27 35
20 25 33
22 28 36
22 27 35
23 29 38
23 29 37
25 31 40
19 24 31
22 27 36
21 26 35
21 27 34
23 28 36
20 26 34
22 27 35
22 27 35
22 28 36
22 28 36
23 29 37
23 29 37
23 29 38
21 27 35
22 27 35
22 28 36
20 25 32
21 26 34
19 24 32
22 28 36
22 27 35
23 29 37
19 24 32
21 26 34
23 28 37
22 27 35
20 25 32
23 29 38
24 29 38
22 28 36
24 30 38
20 26 34
21 26 33
23 28 37
20 26 34
21 26 34
21 26 33
21 26 33
19 24 32
24 30 39
21 26 33
22 27 36
20 25 33
20 25 32
21 26 33
23 28 37
20 25 32
22 28 36
20 24 32
20 26 34
21 26 33
19 23 30
19 24 31
21 27 34
23 28 37
18 23 30
22 28 36
20 25 32
20 24 31
22 27 34
23 28 37
20 25 32
19 24 31
21 26 34
22 27 35
22 27 35
21 26 33
22 27 35
22 27 34
20 25 32
18 23 31
20 25 32
22 27 35
21 26 34
21 26 33
21 26 33
21 26 34
17 22 28
19 24 32
22 27 35
20 26 33
20 25 33
20 25 33
22 27 35
19 23 30
18 23 30
19 24 30
22 27 35
19 24 31
18 22 29
19 24 30
18 22 29
16 20 26
18 23 30
20 25 33
17 20 26
19 24 31
21 26 33
17 21 28
19 24 31
19 23 30
18 23 30
16 19 25
17 22 28
19 23 31
19 23 30
16 20 25
15 19 25
20 24 32
19 24 31
18 22 28
18 22 29
19 24 31
18 22 29
17 21 28
19 24 31
20 25 32
17 21 27
19 24 31
18 22 28
17 21 27
17 21 28
16 21 27
16 20 26
17 21 28
18 22 29
22 27 34
17 21 26
17 20 26
15 19 25
18 23 29
19 24 31
19 24 31
18 22 29
19 24 31
17 21 27
20 24 31
16 20 25
17 20 26
18 22 28
17 21 27
16 20 25
18 21 27
17 21 28
17 22 28
20 25 31
14 18 23
20 24 31
17 21 27
20 24 31
18 23 29
18 22 28
17 21 27
18 23 29
18 22 29
18 23 30
20 24 31
17 20 26
16 20 25
16 20 26
17 20 26
15 19 24
16 20 25
19 24 31
14 18 23
18 22 28
14 17 22
13 16 21
16 20 25
16 20 26
19 23 30
15 19 24
19 23 30
17 21 26
18 22 28
19 23 30
15 19 24
15 18 24
17 21 27
18 22 28
19 24 31
18 22 28
14 18 22
17 21 28
14 17 22
18 22 29
18 22 28
20 25 32
16 19 25
18 22 28
17 21 27
16 20 25
17 21 27
12 15 19
16 20 26
19 22 28
18 23 30
18 22 29
18 22 28
16 20 26
18 22 27
14 18 23
16 20 26
17 21 27
18 23 29
16 20 26
15 19 24
17 20 26
17 20 26
17 22 28
17 21 27
22 27 34
14 17 22
20 24 31
17 21 26
18 22 29
17 22 28
18 23 29
17 21 28
16 20 25
18 22 29
16 20 25
19 24 31
17 21 27
18 22 29
18 23 29
16 19 25
18 22 27
18 23 30
18 22 28
16 19 25
20 25 32
19 23 30
18 22 29
16 20 25
21 25 33
18 22 28
22 27 35
17 22 28
16 20 25
17 22 28
15 19 24
19 23 30
16 20 26
17 22 29
16 20 26
18 22 28
20 25 32
19 24 31
19 24 32
18 23 30
20 24 31
20 25 33
16 20 26
19 24 31
17 22 29
18 23 30
20 24 31
20 25 31
19 23 30
22 27 35
18 23 29
17 22 28
20 25 33
21 27 35
18 23 31
18 22 29
19 24 32
18 22 28
21 26 34
18 22 29
19 24 32
20 25 33
19 24 31
20 24 32
19 24 31
20 25 33
18 23 29
20 25 32
20 24 32
19 23 29
19 24 31
22 28 36
22 27 35
21 26 34
19 25 32
18 23 30
23 28 36
21 26 34
22 26 34
19 24 31
18 23 30
22 28 36
22 27 35
20 24 32
21 26 34
21 26 34
20 25 33
21 26 33
20 24 31
19 24 31
21 26 33
19 24 31
20 25 33
23 29 38
20 25 33
24 30 39
23 28 36
21 26 33
21 26 34
18 22 29
21 26 33
22 27 35
23 28 36
16 20 26
21 26 34
22 27 35
21 27 35
21 27 35
22 27 36
20 25 33
22 28 36
19 23 30
20 25 33
19 25 32
23 29 37
23 29 38
18 23 29
23 29 38
21 26 33
22 27 35
20 25 32
21 26 34
21 26 34
23 29 38
20 25 33
18 22 29
22 28 36
22 28 36
22 27 35
24 30 39
21 27 35
21 26 34
21 27 35
22 27 36
21 27 35
22 28 36
20 25 32
22 28 36
23 28 37
24 30 39
20 25 32
22 28 37
21 26 34
22 27 35
24 30 39
24 29 38
23 29 37
24 31 40
21 26 34
21 26 34
22 28 36
21 26 33
21 27 34
24 30 39
21 26 34
19 24 32
23 29 36
24 29 37
24 30 39
21 26 34
23 29 37
21 26 34
21 26 33
21 26 34
23 29 38
23 28 36
22 28 36
25 31 40
22 27 36
22 27 36
22 28 36
23 29 38
22 28 36
24 30 39
23 28 37
23 29 38
20 26 34
22 27 34
23 28 37
23 29 38
22 27 34
23 28 37
22 28 37
18 23 30
23 29 38
24 30 39
22 27 35
23 29 39
20 25 33
24 29 38
24 29 38
19 24 32
23 28 37
22 28 36
20 26 34
21 26 34
23 28 37
19 23 30
21 25 33
24 30 38
22 28 36
21 26 33
22 28 36
20 25 32
22 27 36
21 26 35
21 27 35
23 29 37
22 27 34
22 27 35
20 25 32
20 25 32
23 29 38
20 24 31
21 27 34
24 29 37
20 25 32
20 25 33
20 25 33
21 26 34
23 28 36
20 25 33
21 25 33
22 27 35
22 27 34
22 27 36
23 28 36
20 25 32
21 26 34
21 26 34
20 24 31
21 26 33
20 25 33
21 26 34
20 25 32
23 29 37
23 28 37
21 26 34
22 27 35
21 27 35
22 27 35
20 25 33
19 23 30
23 28 36
20 26 34
23 29 37
20 26 34
18 22 28
23 28 36
22 28 36
19 24 32
18 23 29
17 21 27
20 25 32
21 26 34
22 28 36
22 27 36
20 25 32
20 25 33
22 28 36
20 25 32
21 26 33
21 26 34
20 24 31
19 24 30
20 24 31
21 26 34
19 24 31
20 25 32
24 29 37
18 23 30
19 23 30
21 26 33
17 21 27
20 25 32
23 28 36
20 25 33
18 22 29
19 23 29
21 26 34
19 23 31
19 24 31
19 24 31
17 21 27
21 26 34
17 22 28
20 25 33
17 21 28
21 26 33
21 27 35
16 19 25
18 23 30
20 25 32
18 23 29
18 23 29
18 22 29
19 23 30
20 25 32
19 24 31
20 24 31
18 23 30
16 20 26
18 22 28
18 23 29
18 23 30
20 25 32
19 24 31
20 24 31
18 22 29
18 23 29
19 23 30
16 20 26
19 23 30
17 21 27
19 24 31
16 20 26
16 19 25
18 22 28
22 27 34
18 22 29
16 20 26
16 20 25
17 21 27
15 19 25
18 22 28
16 20 26
17 21 26
18 22 28
18 22 29
16 20 26
20 25 31
14 17 22
19 23 30
19 23 29
17 21 27
18 22 28
19 23 30
17 21 27
17 22 28
19 24 31
18 22 29
15 18 24
15 18 23
17 21 27
19 24 30
18 23 30
13 16 21
16 20 26
18 23 30
17 20 26
18 22 28
19 23 29
16 20 26
18 22 28
18 22 29
16 20 26
16 20 26
15 19 24
16 20 25
17 20 25
17 21 27
18 22 28
19 24 30
18 22 28
20 25 32
20 24 31
16 20 26
16 20 26
18 22 28
19 23 29
15 19 24
19 23 29
17 21 27
19 23 29
15 18 24
20 25 32
15 19 24
15 19 25
16 19 25
21 26 33
14 18 23
17 21 27
15 18 24
15 18 23
15 18 24
19 23 30
17 21 27
14 18 22
17 21 26
17 21 26
16 19 25
18 23 29
18 23 29
20 25 32
17 21 27
18 22 28
15 19 25
16 20 26
18 22 29
15 18 24
18 22 29
18 22 27
20 25 32
16 20 26
19 24 31
17 21 27
16 20 27
18 22 29
18 22 28
18 23 29
20 24 31
16 19 24
19 24 31
15 19 25
18 22 29
15 18 24
16 20 26
17 21 27
15 18 24
18 22 28
16 21 27
16 21 28
16 20 26
20 24 31
18 22 28
18 23 30
14 18 23
20 24 31
21 26 33
19 23 30
22 28 36
21 26 34
17 21 26
20 25 32
18 23 30
16 19 25
17 21 28
20 25 32
18 22 29
19 24 31
21 26 33
20 25 32
18 23 30
18 22 29
17 21 27
19 23 29
20 25 32
21 26 34
18 22 29
22 27 35
18 22 29
20 25 32
21 26 34
16 19 25
19 24 31
18 23 30
19 24 31
21 26 34
18 23 30
20 25 32
17 22 28
21 26 33
19 23 30
19 24 31
21 26 34
19 24 32
20 25 32
20 25 32
22 27 35
19 24 31
20 25 33
21 26 34
18 23 29
20 25 33
22 28 36
20 24 31
21 26 34
20 25 33
21 26 33
21 26 34
20 25 32
19 24 31
20 25 32
21 26 34
20 24 32
20 24 32
22 28 36
20 24 31
22 27 35
17 22 28
22 27 35
21 26 34
22 27 35
19 23 30
20 25 32
19 24 31
18 23 30
23 28 37
23 29 38
21 26 33
22 27 35
21 26 33
21 26 33
22 27 36
24 31 40
20 24 31
19 23 30
18 23 30
21 27 36
23 28 37
23 28 35
24 30 39
20 26 33
20 26 34
22 28 36
25 31 40
23 28 36
23 28 36
21 26 33
24 30 39
23 29 37
21 27 35
20 25 33
22 27 36
20 25 33
21 26 34
21 26 34
24 30 39
20 25 32
21 26 34
21 26 35
22 27 36
20 24 32
19 23 30
21 26 33
23 29 38
19 24 31
23 29 37
22 27 36
20 25 32
25 31 39
22 27 35
21 26 34
21 25 33
19 24 32
20 25 33
21 26 34
22 28 36
22 28 36
24 30 40
21 27 35
23 28 37
22 28 36
24 30 38
20 26 34
20 25 33
21 26 34
22 28 37
22 28 36
21 26 34
21 26 34
22 28 36
24 30 38
21 26 34
20 25 33
23 29 38
24 30 39
24 30 39
22 28 36
21 26 34
22 27 35
23 28 36
21 26 34
23 28 37
23 29 37
22 28 36
19 25 32
23 29 37
24 30 39
19 24 31
22 27 35
22 27 35
21 26 34
21 26 33
23 29 37
24 30 40
24 29 38
21 27 35
23 29 37
23 29 38
20 25 33
21 26 34
20 25 33
24 30 39
23 28 36
20 24 31
21 26 34
21 26 34
20 24 32
20 25 32
21 26 34
24 30 38
20 25 32
21 26 35
20 25 32
24 30 39
19 24 31
22 27 35
23 29 38
19 24 31
22 27 36
20 25 33
23 29 37
16 21 27
21 25 33
23 29 38
23 28 37
21 26 33
19 24 31
22 28 36
21 26 34
19 24 31
20 25 32
22 28 36
21 27 34
21 26 34
18 23 29
21 26 34
21 26 34
21 26 34
22 27 36
22 27 35
19 24 31
21 26 34
19 24 31
20 25 33
21 26 33
22 27 35
20 25 32
21 26 34
17 21 27
19 24 32
18 23 30
23 29 37
22 28 37
24 30 39
21 27 35
20 26 34
20 25 33
21 26 34
18 23 29
22 27 35
20 25 32
20 25 33
19 23 30
21 26 33
19 23 30
23 29 38
22 28 37
18 23 29
19 24 32
19 23 30
22 27 34
22 27 35
21 25 33
21 27 35
20 25 32
19 23 30
21 27 35
16 20 26
18 22 28
19 23 30
16 19 25
17 21 27
21 26 35
20 25 32
17 21 28
19 23 30
19 23 29
22 28 36
19 24 31
23 28 35
18 23 30
21 27 34
20 24 31
20 25 32
20 25 32
19 23 30
19 23 30
20 24 32
19 24 31
19 23 30
21 25 32
19 24 31
15 19 24
18 23 29
17 21 26
17 21 26
20 24 31
18 22 29
20 24 31
18 23 29
17 21 28
20 24 31
20 24 31
17 21 28
19 23 30
15 19 24
18 22 29
18 22 28
17 22 28
18 23 30
19 23 30
20 24 31
18 23 29
18 22 28
17 22 28
19 23 30
20 25 32
20 24 31
19 24 30
20 25 32
19 23 30
17 22 28
21 26 33
18 23 29
17 21 27
17 21 27
17 21 26
16 20 25
19 23 30
17 21 27
20 25 32
18 22 28
18 22 28
18 23 29
18 22 28
16 20 26
14 17 22
20 24 31
16 20 26
13 16 21
18 22 28
18 23 29
16 19 25
19 23 29
17 21 27
17 21 27
15 18 24
19 24 30
18 22 28
17 22 28
18 22 28
17 20 26
18 22 28
17 21 27
18 23 29
18 23 29
16 20 25
17 21 27
15 18 24
15 19 24
16 20 26
16 20 26
17 21 27
16 20 25
18 23 29
19 24 31
17 21 28
17 22 28
17 21 27
14 18 23
17 21 27
17 21 27
18 22 28
18 23 29
19 23 30
17 21 27
17 21 27
17 21 27
16 20 26
17 21 27
16 20 26
18 22 28
18 23 29
17 21 28
18 22 28
14 18 23
21 25 32
15 19 25
19 23 30
19 24 31
18 23 29
16 20 26
19 23 30
14 17 22
19 24 31
18 23 29
17 21 27
17 21 27
20 25 32
18 23 29
17 21 27
18 23 29
17 20 26
18 22 28
14 18 23
15 18 23
17 21 28
16 20 25
18 22 28
17 21 26
21 26 33
19 23 29
18 23 29
17 21 27
18 22 29
18 22 29
19 24 30
15 19 24
17 21 27
18 22 28
17 21 27
17 21 27
20 24 31
17 21 28
17 22 28
18 22 28
18 23 30
21 25 32
19 23 30
15 19 24
18 22 29
19 24 31
17 21 27
22 27 35
18 22 29
18 23 29
20 25 33
18 22 28
16 21 27
16 19 25
19 24 31
18 23 29
17 22 28
19 24 30
19 23 31
18 22 29
17 21 27
18 22 29
17 21 27
22 27 35
19 23 30
18 22 28
18 22 29
20 25 32
21 25 32
21 26 34
21 26 33
21 26 34
20 24 31
18 22 29
19 23 30
19 24 31
18 22 29
20 24 32
20 24 31
21 26 34
21 26 34
18 22 29
16 20 26
23 29 38
19 23 30
19 24 31
19 24 31
20 25 32
21 26 34
20 25 33
19 24 31
20 25 32
21 26 34
20 25 33
18 23 30
20 25 32
20 25 32
21 27 35
23 29 38
20 25 32
20 25 32
22 28 36
20 25 32
21 25 32
21 27 34
24 30 39
22 28 36
21 26 33
23 28 37
21 26 33
19 24 31
22 27 35
21 26 34
20 25 33
19 24 32
21 26 34
20 26 34
18 23 30
21 26 34
20 26 34
20 25 33
19 24 31
21 27 35
17 22 29
23 28 37
21 25 33
23 28 37
23 28 37
20 25 33
22 28 36
23 28 36
22 28 36
24 30 39
20 25 32
23 28 37
21 27 35
22 27 35
21 26 34
21 27 34
23 28 36
22 27 35
20 25 32
21 26 33
21 26 34
22 28 36
20 26 34
21 26 35
23 28 36
21 26 34
23 29 38
24 30 39
24 29 37
21 26 34
23 28 36
23 28 36
24 30 39
21 26 34
23 28 37
24 29 38
24 29 38
21 27 35
18 22 29
23 29 38
24 30 40
25 31 40
22 27 35
21 26 34
22 27 35
21 27 35
23 29 38
23 28 37
22 28 36
22 27 36
21 26 33
22 28 36
21 27 35
23 29 38
18 23 30
24 30 38
20 25 33
19 24 31
21 26 34
23 29 38
22 27 36
22 27 36
23 28 37
22 28 36
23 29 37
24 30 39
24 30 38
23 28 36
26 32 41
21 26 34
23 28 37
22 27 35
22 28 36
24 30 39
22 27 35
22 27 35
22 27 35
20 25 33
23 28 37
25 31 40
22 28 36
22 28 36
22 28 36
22 28 36
19 24 31
25 31 41
20 25 33
18 23 30
20 25 33
23 29 38
20 25 33
20 26 33
22 28 36
23 28 36
23 30 39
23 28 36
21 26 34
21 27 35
22 28 36
20 25 32
21 26 34
22 28 36
23 28 36
20 26 33
20 25 33
20 26 34
21 26 33
18 23 30
21 26 34
24 30 38
22 27 36
20 24 31
20 25 32
17 22 28
20 25 33
20 25 32
19 24 32
19 23 30
21 26 34
22 28 36
20 25 32
21 27 35
18 22 28
20 25 33
25 31 40
21 27 36
20 26 34
19 24 31
23 29 37
23 28 37
21 26 34
20 25 32
19 24 31
20 25 32
19 24 31
22 28 36
19 24 31
20 25 32
19 24 32
20 25 32
20 25 33
22 27 35
20 25 33
20 25 33
19 24 31
20 25 32
20 25 32
20 25 33
21 26 34
21 27 35
19 24 31
20 25 32
19 24 31
20 24 31
21 26 33
19 24 31
22 27 35
20 25 33
18 23 30
20 24 31
20 24 31
20 25 32
20 25 32
21 26 34
21 25 32
16 20 26
20 25 32
18 23 30
18 23 29
21 25 33
21 26 34
20 25 32
19 23 30
22 27 34
18 22 28
18 23 31
18 22 29
17 21 27
17 22 28
17 22 29
20 24 32
20 25 33
19 24 31
18 22 29
20 24 32
19 23 30
21 26 34
16 20 26
20 25 33
18 23 29
18 23 30
18 23 30
22 27 35
19 24 31
21 26 34
20 25 33
19 23 30
18 23 30
18 22 28
20 25 32
18 23 29
19 24 31
22 27 34
20 24 31
18 23 30
16 20 25
16 20 27
19 24 31
17 21 27
21 26 33
16 20 26
23 28 36
20 24 32
17 21 26
16 19 25
20 25 32
17 21 26
18 22 28
17 21 27
20 24 31
17 21 27
18 22 29
18 23 29
18 22 27
16 20 26
16 20 26
16 19 25
15 19 24
20 25 32
15 18 23
15 18 23
18 22 28
17 21 27
16 19 25
15 19 24
18 22 29
15 19 24
17 22 28
16 20 26
15 19 24
19 23 29
19 23 29
17 21 27
17 21 26
18 21 27
16 20 25
18 23 30
20 25 32
19 23 29
17 21 27
16 20 27
21 25 32
19 23 29
15 19 24
16 20 25
17 21 27
17 21 27
16 19 25
17 21 27
16 20 26
15 19 24
17 22 28
17 20 26
16 20 25
17 21 27
15 19 24
18 22 29
15 18 24
13 16 22
13 16 21
16 19 25
19 24 31
16 20 25
18 23 29
19 23 30
18 23 29
15 19 24
16 20 26
18 22 28
16 20 25
15 19 24
16 19 25
16 20 26
18 22 28
18 22 28
17 20 26
14 18 23
18 23 30
18 22 28
16 20 26
18 21 27
19 23 29
18 22 29
20 25 32
19 23 29
18 22 28
17 21 27
19 23 30
19 24 30
17 20 26
15 18 23
19 23 30
15 19 24
15 19 24
18 22 29
17 21 27
18 21 27
18 23 29
16 20 25
16 20 25
20 24 31
16 20 26
20 24 31
19 23 30
16 20 26
21 26 33
17 21 27
18 22 29
20 25 32
21 26 33
17 21 27
18 22 29
20 25 32
17 20 26
19 24 30
18 22 28
20 24 31
18 23 29
19 23 30
19 24 32
21 26 33
19 24 31
19 24 31
19 24 31
21 26 34
18 23 30
18 22 28
17 21 27
18 23 30
20 25 32
19 24 31
19 23 29
19 24 32
19 24 32
18 22 29
19 23 29
20 25 32
17 21 27
21 26 34
20 25 32
20 25 32
19 24 31
19 24 30
17 21 27
19 24 31
18 22 29
21 27 34
20 25 33
19 24 31
19 23 30
18 23 30
19 23 31
20 25 33
19 23 30
18 22 29
21 25 33
19 24 31
20 25 32
19 24 31
19 24 31
17 22 28
20 25 32
20 26 34
21 26 34
20 25 32
18 22 29
20 25 33
23 29 37
19 24 32
21 26 34
20 25 33
21 27 35
20 25 32
22 27 35
18 23 30
21 26 34
19 24 32
20 24 32
21 27 35
22 28 36
22 27 35
22 27 35
20 25 33
20 25 33
17 22 28
25 31 41
20 25 32
22 27 35
21 26 33
21 26 33
20 24 32
21 26 34
21 26 33
23 28 36
23 28 36
21 26 34
22 27 36
22 28 36
18 22 29
23 28 36
20 26 34
19 24 31
21 26 34
22 27 35
22 27 36
23 29 37
21 27 35
22 27 35
20 25 32
21 27 35
20 26 33
23 28 36
23 29 37
22 27 35
23 28 36
20 25 33
22 28 36
22 27 35
21 27 35
21 26 34
22 28 36
21 26 34
23 28 37
23 29 37
22 28 36
21 26 34
22 27 35
21 26 34
22 28 36
26 32 42
22 28 37
24 30 39
21 26 33
21 27 34
24 30 39
24 30 39
23 28 37
21 26 33
22 27 35
22 28 36
22 28 36
24 30 39
24 30 39
23 29 37
22 27 36
22 27 35
21 26 34
23 28 37
22 27 35
21 27 35
22 27 34
23 29 38
23 29 37
21 26 34
23 28 36
23 29 38
22 27 35
20 25 33
21 26 34
23 28 37
23 28 37
25 31 40
24 29 38
23 29 38
23 29 37
23 29 38
20 25 32
23 29 37
21 26 34
19 24 32
22 27 36
25 31 40
20 25 32
21 26 34
21 26 34
19 24 30
21 26 35
22 28 36
21 27 34
22 27 34
21 27 35
22 27 34
23 29 38
21 27 34
21 26 34
20 25 33
22 27 35
22 27 35
20 25 32
24 29 37
20 25 33
17 21 28
26 32 41
21 26 34
20 25 32
23 28 36
20 25 33
21 25 33
24 30 39
19 23 30
21 27 35
22 28 37
20 25 32
22 28 36
23 28 37
24 31 40
21 26 34
21 27 35
20 25 33
23 28 37
21 26 33
22 27 35
20 25 33
21 27 35
17 21 28
21 26 33
21 27 35
20 25 32
18 23 29
23 29 37
20 25 33
18 23 30
22 27 35
21 26 34
21 26 34
20 25 32
21 26 34
18 23 29
20 25 32
24 29 38
20 25 32
21 26 34
22 28 36
20 24 31
19 24 31
20 25 32
18 23 29
20 24 31
20 25 32
20 26 33
19 24 31
21 26 33
21 27 34
19 24 32
22 28 36
21 25 32
21 26 33
21 26 34
19 24 31
20 26 34
20 25 32
21 26 34
20 25 33
17 21 27
17 22 28
21 27 35
19 23 30
19 23 30
18 22 28
20 25 32
20 25 33
22 28 36
18 23 30
18 23 29
21 25 32
21 26 34
20 25 33
21 26 34
17 21 27
19 24 32
18 23 29
20 25 32
19 23 30
18 22 29
17 21 27
20 25 32
17 21 27
18 23 30
18 22 28
21 26 33
18 23 29
17 21 28
17 21 28
18 22 29
20 24 31
21 26 34
19 23 30
18 23 29
17 21 28
20 24 31
21 26 33
18 23 29
19 24 30
17 21 28
22 27 35
19 24 31
18 22 29
19 24 30
17 21 28
17 21 28
20 25 32
15 19 25
18 22 28
16 20 26
17 21 27
17 20 26
17 21 27
19 24 31
18 22 29
19 23 29
19 23 30
19 24 30
16 20 26
15 18 24
16 20 25
19 23 30
20 25 33
17 21 27
16 20 26
18 22 28
16 20 25
15 19 25
17 21 26
19 23 29
17 21 27
17 21 28
19 23 30
15 19 25
18 22 28
15 18 23
17 22 28
17 21 27
19 23 30
16 20 25
15 18 23
16 20 27
19 23 29
17 20 26
17 20 26
20 25 32
20 24 31
17 21 28
17 21 28
16 20 26
17 21 27
17 21 27
16 20 26
16 20 26
17 22 28
18 22 28
18 22 28
14 17 22
18 23 29
18 22 29
19 23 30
15 19 25
16 20 26
16 19 24
17 20 26
18 23 30
15 19 24
17 21 27
16 20 26
17 21 27
19 24 31
19 23 30
17 21 27
16 20 25
16 20 26
19 24 31
15 19 24
17 21 28
18 22 27
18 22 29
16 20 25
16 20 26
14 18 23
17 21 28
18 21 27
15 18 23
20 25 31
20 24 31
18 22 28
20 24 31
15 19 24
19 24 31
20 25 32
19 23 29
18 22 28
19 23 30
18 23 29
18 22 29
15 19 24
17 21 27
19 23 30
22 27 35
16 20 26
17 21 27
20 24 31
16 20 25
18 22 28
18 22 28
20 25 32
17 21 27
20 25 33
19 24 31
18 22 28
19 23 30
18 22 28
20 25 32
19 24 31
16 20 25
18 22 29
19 24 32
20 24 31
19 24 31
19 24 31
17 21 27
19 23 30
17 21 27
20 25 32
18 22 29
17 21 26
18 22 28
16 20 27
18 22 29
18 22 29
20 25 32
19 24 31
22 27 35
21 26 34
23 28 36
19 23 29
20 25 33
18 23 30
19 24 31
18 22 29
17 22 28
20 25 32
17 21 27
21 26 33
19 24 31
19 24 31
19 23 30
18 23 29
21 26 34
19 23 30
23 29 38
19 24 32
21 27 35
21 26 35
20 24 32
20 25 32
19 24 31
20 25 33
19 24 32
21 26 33
22 27 35
20 25 32
23 28 37
21 25 33
19 24 32
21 25 33
19 24 32
20 25 33
22 27 36
22 27 35
20 25 33
18 23 30
20 25 33
21 27 35
21 26 33
22 27 35
24 30 38
21 26 34
21 26 35
22 28 36
20 26 34
19 24 31
19 24 32
23 28 36
20 25 32
21 26 34
20 26 34
24 30 39
21 26 34
19 24 32
22 28 36
22 27 35
22 27 35
22 28 37
21 26 34
21 27 35
21 27 35
23 28 36
22 27 35
19 25 32
21 26 34
21 26 33
23 29 38
22 27 35
23 28 37
21 26 33
21 26 33
23 28 37
20 25 33
21 26 35
21 26 33
22 28 36
23 29 38
20 25 32
22 27 36
22 27 35
23 28 36
21 26 35
22 27 36
20 26 34
21 26 34
23 29 38
23 28 36
22 27 35
22 27 35
22 28 36
24 29 38
21 27 35
20 25 33
20 25 33
22 27 35
22 27 35
21 26 33
21 26 34
19 24 31
20 25 32
21 26 35
22 27 35
24 29 37
18 22 28
25 31 40
25 32 41
23 28 37
23 29 38
23 29 37
21 25 32
21 26 34
20 25 33
21 26 35
21 26 34
21 27 35
22 28 36
22 28 36
19 23 31
23 29 38
23 28 37
23 29 37
23 29 39
21 26 34
23 28 36
22 28 36
23 29 37
21 26 33
20 25 33
21 26 33
20 26 33
20 25 33
21 26 35
23 29 37
26 32 41
22 28 37
22 27 34
21 27 35
22 28 37
21 27 35
24 30 39
24 30 38
23 29 38
22 27 35
17 21 28
21 26 34
23 28 36
19 24 31
22 27 36
22 27 35
22 27 35
24 31 40
23 29 38
21 26 34
22 28 37
21 26 34
22 28 37
20 25 32
22 27 35
24 29 38
21 26 34
19 24 31
21 26 34
22 28 36
22 27 35
19 24 31
24 31 40
19 24 30
24 30 39
20 24 32
20 25 32
21 26 34
22 27 36
21 27 34
21 26 33
21 27 35
22 27 35
19 24 32
21 26 34
22 27 35
20 24 32
22 27 35
20 25 32
20 25 32
20 25 33
21 26 34
21 26 35
20 25 32
24 29 37
22 27 35
21 26 34
21 27 35
21 27 34
20 26 34
19 24 32
18 22 29
22 27 35
20 25 32
22 27 35
21 26 33
16 20 26
19 24 31
19 24 31
19 23 30
20 24 32
21 27 35
21 26 33
19 24 30
20 25 32
20 25 33
20 25 32
20 24 32
21 26 33
21 26 34
20 25 33
18 23 30
19 24 31
18 22 29
16 21 27
19 24 31
19 23 30
20 25 33
20 24 31
21 27 35
26 32 41
17 21 27
18 22 28
20 25 32
22 28 36
22 28 36
18 23 30
17 21 28
20 24 31
20 25 33
20 25 32
19 23 31
19 24 31
18 22 28
21 26 34
22 28 36
21 26 34
17 21 28
18 22 29
16 20 26
16 20 25
22 27 35
20 25 32
19 24 31
20 24 31
18 23 30
18 22 29
18 22 29
19 23 30
14 18 23
18 23 30
16 20 26
18 22 29
17 21 28
18 23 29
15 19 25
17 21 27
16 20 26
17 21 26
19 24 31
19 23 29
15 19 25
19 23 30
17 21 27
18 22 29
18 22 29
22 28 36
19 24 30
19 24 31
18 22 29
21 26 33
16 20 25
17 21 27
19 24 31
16 20 25
18 22 29
15 19 24
20 25 32
18 22 28
20 24 31
20 25 32
17 21 27
20 25 33
21 26 33
20 25 31
15 19 25
19 24 31
19 23 29
17 21 26
16 20 26
18 22 29
15 19 24
16 20 26
17 21 27
17 21 28
17 21 28
18 22 29
17 21 27
18 22 28
18 23 29
19 23 29
18 22 28
17 21 27
16 20 26
18 22 28
17 21 27
16 19 25
21 26 32
19 24 30
20 24 30
17 21 27
17 21 27
16 20 26
17 22 28
16 20 26
18 21 27
20 24 31
17 20 26
17 21 27
18 22 27
15 19 24
17 21 27
18 23 30
20 25 32
17 21 27
18 21 27
22 26 34
18 23 29
17 21 27
18 22 28
17 21 27
18 22 28
16 20 25
18 22 28
14 17 21
19 23 29
20 24 31
16 19 25
16 19 25
17 22 29
18 22 29
17 21 26
16 20 25
17 21 26
17 21 27
18 22 28
17 21 28
17 21 28
17 21 27
18 22 28
17 21 26
14 18 23
19 23 30
17 21 27
20 24 31
13 17 22
18 22 28
17 21 27
21 26 33
18 22 28
15 18 23
19 23 30
16 20 26
17 21 27
18 22 28
18 22 28
21 25 33
20 25 32
18 22 28
20 24 32
18 23 29
20 25 32
17 21 27
17 21 28
18 22 28
18 22 29
16 20 26
19 24 31
23 29 37
18 22 29
21 26 33
20 25 32
18 22 29
18 22 28
16 20 26
16 20 26
17 21 27
21 26 34
21 26 34
21 26 33
17 22 28
20 25 32
20 25 33
17 22 28
21 25 33
19 24 31
22 27 35
20 25 32
17 21 28
16 20 26
18 23 30
19 23 30
19 24 31
19 24 31
19 23 30
21 25 33
20 25 32
20 25 32
20 25 33
17 22 28
19 24 31
21 26 34
22 27 34
23 28 36
21 26 34
19 24 31
21 25 33
22 27 35
20 25 32
22 27 35
23 28 36
19 24 31
23 28 36
23 29 38
22 28 37
20 25 33
19 23 30
18 23 29
22 26 34
22 27 35
22 28 36
19 23 30
22 28 36
17 22 28
20 26 34
19 24 31
22 27 35
20 24 32
18 23 30
22 27 35
21 26 34
21 27 35
24 29 38
23 29 38
20 25 33
19 24 31
22 27 35
19 24 31
20 25 32
19 24 31
21 26 33
23 28 37
19 25 32
19 24 31
21 26 34
20 25 32
22 28 36
21 25 33
20 25 33
23 29 37
21 26 33
23 28 37
22 28 36
21 26 33
24 30 39
21 26 34
21 27 34
22 27 35
22 27 35
22 28 36
23 29 37
22 27 34
23 29 39
21 27 34
18 23 29
21 26 33
21 26 34
17 22 29
22 27 36
18 23 30
21 25 33
23 29 38
24 30 39
20 25 33
23 28 36
21 26 35
22 27 35
23 29 38
22 28 36
23 29 38
23 28 36
21 27 36
22 28 36
16 21 28
23 29 38
24 30 39
24 29 38
22 27 34
24 29 37
20 24 31
22 27 35
20 25 32
22 28 36
23 28 37
23 29 37
24 30 39
22 28 36
24 30 39
22 28 36
22 28 37
21 26 34
24 30 39
23 28 37
22 27 35
21 26 34
22 27 35
20 25 32
22 27 35
21 26 33
19 24 31
24 30 40
22 28 36
23 29 38
24 30 39
20 25 33
20 25 34
22 28 36
23 28 37
21 27 35
22 27 34
22 27 35
24 29 38
22 27 35
22 27 36
22 28 36
19 24 31
21 27 35
19 24 32
23 28 36
24 29 38
22 28 36
21 26 34
23 28 37
21 27 35
17 22 29
18 23 31
21 26 34
22 28 36
22 27 36
22 27 35
22 27 35
22 27 35
21 26 34
21 27 35
21 26 34
21 26 34
23 29 37
23 29 37
21 27 35
18 23 30
19 24 32
23 29 38
22 28 36
21 25 33
22 27 35
21 26 34
21 26 34
21 27 35
18 23 29
21 27 34
21 27 35
21 26 34
16 20 27
21 26 34
20 24 32
19 23 31
21 26 34
23 29 37
22 28 36
22 28 36
19 24 31
21 26 34
23 28 36
20 26 33
21 27 35
20 25 33
20 25 32
19 23 30
22 27 35
18 23 30
21 26 33
20 25 33
18 23 30
21 26 34
20 25 32
20 25 32
21 27 35
21 26 34
22 28 36
23 28 36
22 28 36
21 26 34
21 26 33
23 28 37
18 22 29
19 24 31
22 27 35
21 26 34
20 25 32
16 20 27
19 24 32
20 25 32
21 26 34
18 23 30
18 23 29
20 24 31
18 23 29
17 22 28
18 23 30
22 27 34
21 26 33
19 24 31
20 25 32
20 25 32
17 21 27
20 24 31
20 25 32
20 25 32
22 28 37
20 25 32
19 24 31
20 24 31
17 21 27
20 25 33
19 23 30
20 25 32
17 22 29
19 23 29
20 25 32
18 23 29
20 24 31
19 23 30
17 21 27
18 23 29
19 24 31
18 23 29
17 21 27
18 22 28
18 22 29
19 24 31
17 21 27
17 21 28
18 22 29
18 22 28
20 25 33
16 20 26
18 23 30
19 23 30
18 23 30
17 21 27
18 22 29
21 26 34
18 22 28
19 24 31
17 21 27
18 22 29
20 24 31
19 23 30
20 25 32
19 24 31
19 24 32
16 20 25
19 23 30
18 22 29
18 23 30
15 19 24
18 22 28
18 22 28
18 22 29
19 24 31
19 23 30
16 20 26
17 21 27
17 21 26
19 23 30
15 19 25
17 22 28
15 18 24
18 22 28
17 21 27
19 24 30
17 21 27
22 27 34
19 23 30
21 26 34
19 23 29
19 24 31
17 21 26
16 20 26
15 19 24
17 21 27
16 20 25
17 21 27
17 21 27
16 20 26
15 18 23
17 21 27
17 22 28
18 22 28
18 22 29
17 21 26
17 21 28
20 24 31
19 23 30
16 20 26
17 21 27
14 17 22
18 22 28
16 20 25
16 20 26
19 23 30
15 18 24
20 25 32
18 22 28
16 20 27
16 19 25
18 23 29
20 24 30
17 22 28
19 23 30
15 18 23
18 22 28
19 24 31
16 20 26
18 21 27
21 26 33
17 21 27
17 21 27
17 21 27
19 23 30
16 19 25
19 23 30
20 24 32
17 21 27
15 19 25
17 21 27
18 23 30
17 21 27
20 24 32
17 21 27
19 24 31
18 22 29
17 21 27
17 21 27
15 19 25
16 21 27
17 21 27
18 23 29
15 19 24
18 23 30
18 22 28
18 22 29
17 22 28
17 21 28
17 21 27
19 23 30
20 25 32
18 23 29
20 25 33
18 23 29
19 24 32
18 22 28
19 24 31
19 24 31
22 27 34
22 27 34
17 21 28
17 20 26
19 24 30
22 28 36
15 19 24
20 25 32
21 26 33
19 24 31
19 24 31
21 26 34
17 22 29
19 24 31
16 20 25
18 23 30
18 23 30
21 26 33
19 24 31
19 23 30
21 26 34
20 24 31
18 23 29
21 26 33
19 24 31
18 22 28
19 23 30
19 24 31
16 20 27
20 25 32
18 22 29
22 27 35
21 26 34
20 26 33
20 25 32
20 25 32
20 25 32
20 25 32
20 24 31
21 26 33
18 22 29
16 20 26
18 23 29
20 24 31
18 23 30
21 26 34
20 25 32
21 26 34
21 26 35
21 26 33
20 25 33
18 22 29
20 24 32
20 25 32
22 27 35
20 25 32
20 25 32
19 23 29
17 21 27
21 26 34
20 26 33
19 24 31
23 29 37
19 24 31
22 28 36
21 26 35
18 23 30
22 28 36
22 28 36
20 26 33
23 29 38
21 26 33
22 28 36
20 25 32
20 24 32
18 23 30
20 25 32
21 27 35
21 27 34
21 27 35
21 26 34
21 26 34
21 27 35
19 24 31
20 25 32
20 25 33
23 29 38
21 26 34
22 28 36
19 24 30
20 25 32
21 26 33
22 27 35
21 27 34
21 26 34
21 26 34
22 28 36
19 25 33
22 28 36
19 24 31
23 29 38
21 26 34
19 25 32
22 27 35
21 27 35
21 26 34
21 26 34
23 29 37
23 29 38
22 27 35
22 27 35
22 28 37
23 29 37
23 29 38
23 29 37
23 29 37
23 28 37
23 29 37
20 26 34
21 27 36
22 27 36
22 27 35
23 29 37
21 26 33
23 28 37
21 26 35
23 28 37
24 30 39
22 28 36
23 29 37
21 27 35
23 29 37
23 28 36
24 29 38
23 28 37
23 28 36
26 32 41
24 30 39
20 25 32
22 27 35
22 27 36
21 26 34
21 27 34
22 27 35
25 30 39
18 23 30
22 27 35
21 26 34
21 26 34
22 28 37
22 27 36
20 25 33
23 28 37
24 30 39
21 26 34
23 28 36
21 27 34
23 29 37
21 27 35
22 27 35
24 30 38
17 21 27
23 29 38
22 27 36
20 25 33
22 27 36
21 26 34
22 28 37
21 26 34
23 29 37
20 25 33
23 29 37
21 26 34
21 26 34
24 29 38
20 25 34
24 30 39
21 26 34
21 26 33
23 29 37
24 30 39
22 27 35
20 26 33
22 28 36
22 28 36
21 26 33
20 25 33
24 30 38
22 27 35
22 28 36
18 23 30
22 28 36
21 26 34
21 26 34
23 29 37
19 23 30
24 31 41
20 25 32
21 26 34
21 26 34
21 27 34
19 24 32
25 30 39
23 28 36
21 27 34
21 26 35
21 26 34
21 26 34
19 24 32
20 25 32
21 26 34
19 24 32
22 28 36
22 27 35
22 27 34
21 26 34
21 26 33
22 27 35
22 28 37
21 27 34
21 27 35
19 24 30
21 26 33
19 23 30
21 25 33
21 25 33
20 25 33
19 24 31
20 25 33
19 23 30
21 26 34
22 28 37
20 25 33
20 25 32
19 24 32
19 24 31
19 24 31
20 25 32
21 25 33
22 28 36
18 23 29
21 27 35
19 24 31
19 23 30
18 22 28
20 25 32
19 24 31
20 24 31
20 25 32
17 22 28
18 23 29
18 23 29
20 25 33
18 22 28
19 23 30
19 23 30
22 27 34
17 21 28
20 25 33
19 24 31
17 21 27
19 23 29
19 23 30
19 24 31
16 20 27
17 21 27
20 25 32
22 27 35
19 24 31
18 23 29
20 24 31
19 23 30
19 23 30
20 24 31
18 22 29
18 22 29
21 26 33
18 22 29
18 22 28
18 22 29
19 23 30
17 21 27
18 22 28
18 22 29
17 21 27
18 23 29
17 21 27
18 22 29
14 18 23
18 22 29
17 22 28
19 24 31
14 17 22
17 21 27
18 23 29
17 22 28
19 23 30
15 19 25
16 20 26
19 23 30
16 19 25
21 25 32
18 22 29
16 19 25
15 19 24
15 19 24
18 22 29
18 22 29
16 20 26
17 21 27
18 23 29
18 22 28
19 23 30
17 21 27
15 19 25
19 23 30
17 21 27
16 20 26
16 19 25
18 22 29
16 20 26
18 23 30
17 22 28
17 20 26
16 19 25
16 19 25
19 24 30
17 21 27
15 18 24
20 25 32
18 22 28
17 22 28
18 22 29
20 25 32
18 22 29
15 19 25
16 20 26
15 18 24
19 24 31
20 24 31
17 21 27
18 22 29
17 20 26
16 20 26
18 23 30
18 22 28
15 19 25
17 21 27
17 21 27
15 19 24
15 19 24
16 20 25
15 19 25
17 20 26
19 23 29
19 24 31
13 17 22
19 23 30
18 22 28
18 23 30
16 21 27
16 20 26
19 23 29
18 22 28
18 22 28
19 23 30
18 23 30
21 26 33
16 20 26
17 21 27
21 25 33
18 22 29
16 19 25
17 21 27
17 21 26
16 21 27
19 24 31
19 23 30
17 21 28
19 23 30
15 19 24
18 22 28
18 23 29
18 23 29
20 25 32
18 22 28
16 20 26
17 21 27
17 21 27
16 20 26
19 24 31
16 20 26
17 21 27
21 25 33
16 20 26
21 26 34
20 24 31
20 25 32
19 24 31
20 24 31
20 24 31
19 24 31
18 23 29
18 22 28
19 24 31
19 24 31
19 23 30
20 24 31
18 23 29
18 22 28
22 27 34
19 23 29
18 23 30
21 26 34
20 25 32
17 21 27
19 24 31
19 23 30
19 24 32
19 24 32
21 26 33
21 26 33
19 24 30
19 23 30
19 23 30
18 23 30
20 24 31
16 20 25
19 24 31
18 23 30
18 23 30
19 24 31
19 24 31
19 24 32
22 28 36
19 24 32
20 25 33
19 23 30
22 27 35
21 26 33
21 26 33
18 22 28
21 26 34
19 23 30
20 25 32
20 26 34
19 23 30
19 23 30
22 27 36
23 28 36
19 24 31
22 28 36
20 25 33
19 24 30
21 26 34
22 28 36
17 21 28
19 24 31
19 24 31
19 24 31
21 26 34
23 29 37
20 25 32
20 26 34
19 24 31
22 27 35
23 28 36
22 27 35
23 29 37
19 25 32
20 25 32
22 27 35
22 28 36
22 28 36
21 27 35
22 28 36
23 28 36
22 27 35
21 26 33
22 28 36
22 27 35
21 27 35
21 26 34
22 27 35
22 28 36
20 24 32
23 29 36
19 24 31
20 24 31
21 26 33
21 26 34
23 28 37
22 27 35
18 23 30
21 26 34
22 27 36
24 29 38
20 25 32
22 27 35
23 28 37
22 27 36
22 27 36
20 25 32
22 28 36
23 29 37
22 28 36
22 27 35
21 27 35
22 28 36
21 25 33
23 28 36
22 28 36
21 26 34
24 30 38
21 27 35
22 28 36
21 26 34
19 24 31
22 27 35
23 29 37
20 25 32
24 30 38
20 25 32
21 27 35
20 25 32
21 26 34
21 26 34
22 28 37
20 25 33
25 32 42
21 27 35
21 27 34
22 28 36
23 29 37
20 25 33
22 27 35
22 28 37
22 28 36
22 28 37
20 25 33
21 27 36
23 29 38
22 27 35
23 29 38
20 25 32
20 25 32
24 30 39
23 28 36
22 27 34
21 26 34
22 27 35
24 30 39
23 29 37
23 29 38
22 27 35
21 26 34
25 32 42
22 28 36
21 27 35
23 29 37
22 28 35
22 27 34
22 27 36
20 25 32
22 27 35
22 27 34
21 27 35
21 26 33
20 25 32
21 27 34
22 28 36
23 29 37
21 26 33
21 26 34
21 27 35
24 29 38
20 26 33
22 27 36
20 25 33
22 28 36
21 26 33
22 27 34
21 26 34
18 22 29
22 27 35
21 27 35
20 24 32
21 26 34
20 24 32
21 27 35
23 28 36
22 28 36
21 27 35
21 26 34
21 26 33
23 28 37
22 27 35
21 26 33
22 27 35
21 26 34
21 26 33
23 29 37
22 28 36
22 27 36
21 26 34
21 27 34
21 27 34
20 25 33
24 29 38
20 25 33
20 25 33
20 25 32
21 26 34
22 27 35
21 26 35
20 25 33
18 23 30
21 26 33
21 26 33
19 24 31
19 24 31
21 26 34
19 23 31
21 26 34
21 27 34
20 25 32
20 25 33
21 26 33
20 25 32
18 22 29
19 24 30
19 24 31
21 25 33
21 25 32
20 25 33
20 25 32
19 24 32
19 24 31
17 21 27
17 22 28
18 23 29
18 23 29
23 29 37
21 27 34
20 25 31
23 28 36
20 25 32
18 22 29
19 24 31
21 26 34
21 26 33
16 20 26
21 26 33
18 22 29
19 23 30
16 21 27
20 24 31
19 23 30
19 24 31
18 22 28
18 23 30
17 21 27
17 21 26
17 22 28
20 25 33
16 21 27
22 27 35
21 26 34
18 22 28
19 24 31
20 25 32
15 19 24
17 21 28
19 23 30
17 21 26
22 27 35
18 23 29
16 20 27
18 22 29
18 22 29
19 23 30
20 24 32
18 22 28
15 18 24
18 23 29
18 22 28
18 22 28
17 21 27
16 20 26
17 21 27
19 23 30
21 26 34
20 24 32
18 23 29
17 21 27
17 21 26
15 19 24
19 24 31
18 22 28
18 22 29
18 23 30
15 18 23
19 23 30
17 21 27
19 23 29
17 21 28
17 21 27
19 24 31
19 24 30
17 21 28
20 25 32
15 19 24
17 21 26
17 21 27
17 21 28
18 21 27
21 25 32
14 18 23
19 24 30
18 22 29
15 18 24
17 20 26
18 22 28
21 26 33
15 19 24
16 20 26
19 23 30
17 22 28
18 22 28
19 23 30
18 21 27
19 24 30
16 20 25
16 20 26
17 20 26
16 20 26
17 20 26
18 22 29
14 17 22
18 23 30
18 22 29
16 20 26
17 21 27
19 23 30
16 20 26
19 23 30
16 20 26
17 21 27
18 22 28
16 20 26
16 20 26
20 25 32
20 24 31
15 18 23
15 19 24
20 24 30
20 24 31
17 21 27
18 22 28
15 18 23
19 23 30
15 19 25
16 20 26
15 19 25
14 17 22
21 26 33
21 25 32
20 25 32
17 21 27
17 21 27
17 21 28
17 22 28
16 20 26
22 27 35
18 22 29
18 22 29
19 24 30
19 23 30
21 25 33
22 27 34
17 21 28
18 22 29
19 24 32
18 22 28
17 21 27
17 22 28
17 21 27
19 23 30
17 21 26
21 26 33
18 22 28
16 20 26
16 19 24
19 24 30
18 22 28
17 22 28
18 22 28
19 24 31
16 20 27
17 21 27
16 20 26
21 26 33
20 25 32
20 25 32
17 21 27
18 23 29
19 23 30
18 23 30
17 21 27
19 24 31
18 23 29
16 20 25
19 23 30
17 21 28
19 23 30
20 25 32
18 23 29
20 25 33
20 25 33
19 24 31
20 25 32
21 25 33
17 22 28
17 21 28
21 26 33
18 22 29
21 25 33
19 24 32
18 23 29
20 25 32
20 25 32
18 23 31
21 26 33
19 23 30
22 27 36
19 24 31
21 25 33
19 23 30
21 27 35
22 27 35
20 25 32
21 26 34
18 23 29
21 26 34
22 28 36
21 26 34
21 26 33
20 25 33
20 25 33
20 25 33
21 26 34
20 25 32
20 25 32
20 25 33
22 27 34
20 25 32
22 27 35
21 27 35
20 26 33
20 25 33
20 25 32
21 26 34
22 27 35
20 25 32
20 25 33
22 27 34
22 27 35
20 25 33
18 23 30
20 25 33
21 27 35
20 26 34
21 26 35
19 24 31
20 25 33
21 26 34
23 29 37
20 25 33
24 29 38
22 28 36
22 28 36
21 26 34
22 27 35
19 24 32
20 25 32
22 27 36
22 27 35
22 28 36
20 25 33
20 25 32
22 28 36
23 29 37
18 23 30
22 28 36
20 25 32
24 30 39
21 26 33
24 30 39
20 25 33
22 27 35
22 28 36
24 29 38
22 27 35
21 27 35
21 26 34
22 28 36
22 27 35
24 29 38
24 30 39
21 27 35
21 26 35
20 25 33
22 28 37
21 26 34
21 26 34
21 27 35
19 24 31
26 32 41
22 27 34
22 27 35
25 31 40
21 26 34
24 30 39
21 26 33
23 29 38
23 29 37
21 26 34
20 25 32
25 31 40
24 30 39
21 26 34
21 27 35
22 27 36
23 29 38
21 26 34
22 28 36
21 25 32
18 23 30
22 28 36
22 27 36
21 26 33
23 28 37
23 29 37
20 25 33
22 28 36
21 26 34
21 26 34
22 27 35
21 26 34
23 29 37
22 28 37
18 23 30
23 29 38
22 28 37
21 26 34
24 30 38
18 22 29
21 26 33
21 26 34
22 27 35
23 28 37
23 28 36
20 25 33
22 27 36
22 27 36
22 27 36
22 27 35
21 27 34
23 29 38
22 27 36
22 27 35
23 28 37
23 28 37
19 24 31
23 28 37
21 26 34
24 29 38
19 24 32
23 28 36
20 24 31
22 27 35
21 27 35
21 25 33
24 30 39
21 26 34
20 25 33
19 24 31
24 30 39
21 26 34
20 25 32
18 22 29
22 27 35
21 27 35
22 28 36
22 28 37
19 24 31
21 26 33
21 25 32
23 28 36
22 27 35
20 25 33
19 25 32
21 26 34
20 26 34
19 23 30
22 28 36
21 26 34
19 24 31
21 25 33
21 26 34
24 29 38
20 25 32
19 24 31
18 22 28
22 27 35
21 26 33
21 27 35
21 26 34
23 28 37
19 24 32
19 24 31
22 28 35
19 24 32
19 24 31
20 25 32
21 26 34
18 23 29
18 23 30
20 25 32
20 25 33
21 26 33
21 26 33
20 25 32
18 23 29
20 25 32
18 22 29
19 23 30
21 26 33
20 25 33
20 25 33
23 28 35
19 24 31
18 22 28
20 25 32
20 26 34
20 24 32
18 22 29
19 24 31
20 25 32
19 24 31
17 21 28
17 21 28
19 23 30
20 25 32
17 22 29
20 25 33
18 22 29
18 22 28
19 24 31
20 24 31
17 22 28
17 21 28
21 26 34
17 21 26
21 26 34
20 25 33
18 22 29
22 28 35
20 25 32
21 26 34
17 21 28
20 24 32
18 22 29
20 24 32
20 25 32
21 25 32
21 26 33
16 20 26
20 24 31
18 23 30
18 22 29
20 25 32
18 23 29
17 20 26
17 22 28
21 25 33
19 23 30
18 22 29
18 23 29
17 21 27
18 22 29
17 21 27
19 24 31
18 22 29
18 23 29
19 24 30
19 24 31
20 24 31
14 17 21
17 22 28
19 23 30
21 26 34
19 24 31
18 22 28
17 21 27
17 21 27
17 21 27
18 22 28
20 25 31
20 25 31
16 19 25
17 21 27
18 23 29
14 17 22
15 19 24
16 20 26
17 22 28
20 24 31
17 21 27
17 22 29
21 26 33
18 22 29
22 27 34
17 20 26
18 22 29
15 18 24
18 23 29
15 19 24
18 23 29
16 20 25
16 20 26
16 20 25
16 20 27
20 24 31
19 24 31
14 17 22
17 22 28
16 20 25
17 21 26
19 24 30
15 19 24
18 22 29
17 21 28
17 21 26
18 22 28
19 24 31
16 20 26
13 16 20
15 18 23
20 25 32
19 24 31
16 19 25
14 18 22
20 24 31
19 23 30
17 21 28
19 24 30
18 23 30
21 26 33
18 22 28
18 23 29
17 21 28
17 20 26
19 24 30
16 20 26
19 24 30
17 21 27
18 22 28
16 20 26
22 26 33
19 24 31
16 21 27
20 24 31
21 26 34
19 24 31
18 23 29
17 21 27
18 22 29
19 23 29
18 22 29
17 20 26
18 22 28
19 23 30
18 22 29
19 23 30
18 22 29
18 22 28
17 22 28
19 24 31
18 22 28
21 26 34
21 26 34
17 21 27
19 23 30
18 22 28
19 24 30
19 24 31
18 22 28
20 25 32
17 21 27
19 23 30
17 21 27
19 24 30
18 22 28
17 21 28
17 21 28
19 24 31
18 23 29
20 25 32
16 20 26
17 21 27
19 24 31
20 24 31
18 23 29
17 21 27
19 24 31
20 25 32
18 23 30
19 24 31
18 22 29
22 27 35
18 23 29
22 27 35
19 24 31
21 26 34
20 25 32
17 21 28
22 27 35
21 26 34
20 25 33
17 22 28
17 21 28
16 21 27
20 25 33
21 26 33
17 22 28
16 20 26
19 24 31
17 22 28
20 25 33
24 30 38
18 23 30
20 24 31
21 26 34
20 24 32
19 24 31
20 25 32
21 27 35
18 23 30
21 26 34
20 25 32
21 26 33
22 27 35
18 23 30
20 25 33
20 25 32
21 27 35
22 27 35
22 27 36
19 24 32
20 25 32
21 26 34
21 27 35
18 22 29
19 23 30
19 24 31
21 26 34
20 25 33
20 24 32
23 28 37
23 29 37
20 25 32
19 24 32
22 28 36
18 23 30
21 26 34
19 23 30
20 26 33
20 25 33
20 25 33
21 26 34
20 25 33
20 25 33
22 27 35
23 29 37
22 28 36
21 26 33
21 26 34
21 26 34
18 23 30
20 25 32
20 24 31
21 26 33
21 26 33
23 28 37
21 26 34
21 27 35
21 26 34
18 22 28
21 26 34
19 23 30
22 28 36
22 27 34
22 27 35
24 29 38
22 28 37
22 28 37
20 25 32
20 25 33
22 28 37
21 26 34
22 27 36
20 24 32
24 29 38
24 30 38
22 27 35
23 28 36
22 27 36
23 29 38
22 28 36
23 28 37
20 25 32
23 28 37
21 27 35
21 27 35
22 28 36
21 26 35
22 27 35
22 27 35
22 28 36
26 32 41
23 28 37
20 26 33
23 29 38
22 27 35
22 27 36
22 28 37
21 27 35
24 30 39
25 30 39
21 27 35
22 27 35
22 27 36
22 27 35
23 28 37
22 27 35
22 28 37
21 25 33
22 28 36
23 29 37
24 29 38
22 27 35
21 26 34
22 27 35
24 29 38
25 31 40
19 23 30
20 25 32
23 28 37
22 28 36
25 31 40
22 27 35
21 26 34
22 27 35
19 23 30
25 30 39
21 26 34
19 24 32
24 30 38
20 25 32
20 25 33
21 26 34
22 27 35
22 27 35
19 24 31
23 29 37
21 27 36
22 28 36
21 26 33
19 24 31
21 26 34
21 25 32
21 26 34
20 25 33
22 28 36
18 23 30
22 28 36
22 28 36
20 25 32
23 29 38
21 26 33
23 29 38
22 27 35
22 27 34
21 26 33
20 25 33
22 27 35
22 28 36
19 23 31
21 27 35
21 26 34
25 30 39
20 25 32
20 25 32
22 27 35
18 22 29
19 24 32
21 26 34
20 24 32
20 25 32
20 25 33
19 23 30
21 26 33
18 22 29
20 24 32
19 24 31
23 29 38
22 27 35
22 28 37
18 23 30
18 23 29
23 28 37
21 27 35
19 24 31
20 24 32
19 23 31
18 24 31
22 28 35
18 23 30
21 27 35
20 25 33
21 26 34
20 25 33
22 27 34
22 28 36
21 27 34
18 22 29
19 24 32
22 27 35
21 26 33
17 21 28
21 26 33
21 26 33
19 24 30
22 27 35
18 22 29
22 28 36
22 27 35
17 21 27
20 25 32
17 21 26
19 24 32
21 26 33
17 21 27
21 26 34
20 26 34
19 23 30
18 22 29
19 24 31
17 22 28
18 22 29
18 23 29
19 23 30
19 23 30
17 22 28
19 23 29
20 25 33
17 22 28
21 25 33
20 25 33
18 23 29
21 26 33
18 22 28
17 22 28
21 26 33
18 23 29
20 24 31
19 24 31
16 20 26
21 26 33
18 22 28
19 23 30
19 23 29
19 24 30
16 20 26
20 24 31
17 22 29
19 24 31
18 23 30
15 19 25
18 23 30
18 22 29
18 22 28
21 26 33
19 23 30
17 22 28
19 23 30
19 24 31
20 24 31
19 23 30
16 20 25
17 21 27
16 20 26
18 22 28
16 20 25
20 25 33
17 21 27
18 22 29
20 24 31
17 21 27
17 22 28
17 22 28
16 20 27
18 23 29
19 24 31
18 22 28
16 20 26
17 21 27
19 23 30
16 21 27
13 17 22
17 21 27
16 20 26
17 21 27
19 23 30
18 22 28
17 22 28
18 22 28
16 20 25
17 21 27
15 19 24
20 25 32
16 20 26
17 21 27
17 21 27
14 17 22
14 17 22
17 22 28
17 21 27
18 22 29
15 19 25
18 22 28
21 26 33
16 19 25
18 23 29
19 23 29
20 25 31
17 21 26
20 25 32
17 21 28
19 24 31
19 24 30
18 22 28
17 20 26
17 21 28
16 19 25
17 21 27
18 22 29
18 22 29
17 21 28
22 26 34
19 23 30
18 22 29
15 19 24
18 22 28
16 20 25
14 17 22
17 21 27
19 23 30
19 23 30
16 20 26
18 22 28
19 23 30
16 20 26
17 22 29
19 24 30
14 17 22
16 20 26
17 21 27
18 22 28
20 24 31
20 24 30
16 20 25
18 22 28
18 22 28
18 22 29
19 24 31
16 20 26
20 25 32
18 23 29
15 18 23
19 24 31
19 23 30
20 24 31
18 23 29
18 22 29
16 21 27
18 22 28
16 20 26
18 22 28
18 23 29
18 22 29
22 28 36
15 19 24
19 24 30
18 22 29
18 22 28
17 21 27
19 24 31
17 21 28
20 25 32
19 23 30
19 24 31
23 28 37
20 25 33
20 24 32
19 23 29
20 25 33
20 25 33
20 25 33
21 27 34
18 23 30
17 21 27
15 19 25
20 24 31
18 23 30
19 24 31
17 21 28
20 25 33
19 24 31
17 21 28
20 25 33
21 26 34
18 22 28
17 21 27
19 23 30
22 27 35
19 23 30
21 26 33
18 23 29
20 25 32
19 23 31
22 27 35
21 27 35
20 25 32
20 24 31
20 25 32
19 24 31
20 25 33
20 24 32
18 22 29
17 21 27
21 27 35
24 29 37
22 27 35
20 26 33
19 23 30
22 28 36
19 24 32
22 28 36
22 26 34
21 26 34
19 23 31
25 31 40
23 28 37
20 25 32
22 27 35
21 27 34
21 26 33
23 29 38
21 26 35
22 27 36
21 26 33
22 27 35
21 26 34
23 29 38
20 25 33
23 29 38
22 27 36
19 25 32
23 28 37
23 28 37
22 28 36
20 26 34
22 27 35
20 25 33
19 24 32
19 24 31
20 26 34
21 26 33
20 25 33
23 28 37
23 28 36
20 25 32
22 28 36
21 27 35
23 28 36
22 27 35
20 25 33
20 25 32
19 24 32
21 26 33
22 27 35
21 26 33
21 27 35
23 29 38
22 27 35
21 27 34
22 27 36
24 30 39
19 24 32
23 29 37
22 27 34
20 25 33
21 26 34
20 24 32
20 25 33
21 26 34
20 25 32
22 27 35
21 26 34
22 28 37
24 30 39
22 27 35
20 25 32
22 28 36
22 28 36
20 26 33
20 25 33
20 25 33
23 29 37
20 24 32
22 27 36
24 29 38
21 26 34
25 31 40
21 26 35
22 28 37
